; generated by PrusaSlicer 2.6.0+win64 on 2023-10-11 at 22:35:14 UTC

; 

; external perimeters extrusion width = 0.68mm
; perimeters extrusion width = 0.68mm
; infill extrusion width = 0.68mm
; solid infill extrusion width = 0.68mm
; top infill extrusion width = 0.60mm
; first layer extrusion width = 0.56mm

;TYPE:Custom
G90 ; use absolute coordinates
M83 ; extruder relative mode
M140 S60 ; set final bed temp
M104 S215 ; set final nozzle temp
M190 S60 ; wait for bed temp to stabilize
M109 S215 ; wait for nozzle temp to stabilize

M117 Print Starting... ; V3.0 EZABL Starting Code
M75 ; Start Print Timer and Engage Fil Sensor if USB Printing
M117 Antiblob retract...
G92 E0 ; Reset Extruder distance to 0
G1 E-2 ; Retracts filament to prevent blobs during probing
G92 E0 ; Reset Extruder distance to 0
M84 E ; Disable E Motor for probe accuracy on direct drive systems
M117 Homing All...
G28 ; home all axes
M117 Homing Z Probe...
G28 Z ; home z again
M117 Generating mesh...
G29; auto bed leveling
M117 Heaters Recovering...
G4 S10; wait for heaters to recover
M420 Z0; Z fade
M900 K0; LA

M117 Purging extruder...
G92 E0     ; reset extruder
G1 Z1.0 F600    ; move z up little to prevent scratching of surface
G1 X0.1 Y20 Z0.3 F5000.0  ; move to start-line position
G1 X0.1 Y100.0 Z0.3 F500.0 E15  ; draw 1st line
G1 X0.4 Y100.0 Z0.3 F500.0  ; move to side a little
G1 X0.4 Y20 Z0.3 F500.0 E30  ; draw 2nd line
G92 E0     ; reset extruder
G1 Z1.0 F600    ; move z up little to prevent scratching of surface

M117 Printing.....
G21 ; set units to millimeters
G90 ; use absolute coordinates
M83 ; use relative distances for extrusion
; Filament gcode
M107
;LAYER_CHANGE
;Z:0.28
;HEIGHT:0.28
;BEFORE_LAYER_CHANGE
G92 E0
;0.28


G1 Z.28 F7200
;AFTER_LAYER_CHANGE
;0.28
M593 F0 ; Hz Input Shaping Test


G1 E-3 F3000
G1 X27.733 Y27.35 F7200
G1 E3 F3000
;TYPE:Skirt/Brim
;WIDTH:0.56
G1 F5040
G1 X29.334 Y26.576 E.09935
G1 X30.231 Y26.474 E.05044
G1 X150.231 Y26.474 E6.70406
G1 X151.964 Y26.869 E.0993
G1 X153.355 Y27.976 E.09932
G1 X154.129 Y29.576 E.0993
G1 X154.231 Y30.474 E.05049
G1 X154.231 Y38.474 E.44694
G1 X153.836 Y40.207 E.0993
G1 X153.06 Y41.302 E.07498
G1 X41.06 Y153.302 E8.8489
G1 X39.555 Y154.248 E.09931
G1 X38.231 Y154.473 E.07503
G1 X30.231 Y154.473 E.44694
G1 X28.498 Y154.078 E.0993
G1 X27.107 Y152.971 E.09932
G1 X26.333 Y151.371 E.0993
G1 X26.231 Y150.474 E.05044
G1 X26.231 Y30.474 E6.70406
G1 X26.626 Y28.74 E.09936
G1 X27.677 Y27.42 E.09426
G1 X28.078 Y27.771 F7200
G1 F5040
G1 X28.22 Y27.61 E.01199
G1 X30.231 Y26.974 E.11783
G1 X150.231 Y26.974 E6.70406
G1 X151.845 Y27.368 E.09282
G1 X153.095 Y28.462 E.0928
G1 X153.731 Y30.474 E.11789
G1 X153.731 Y38.474 E.44694
G1 X153.337 Y40.087 E.09276
G1 X152.706 Y40.948 E.05964
G1 X40.706 Y152.948 E8.8489
G1 X39.286 Y153.811 E.09283
G1 X38.231 Y153.973 E.05963
G1 X30.231 Y153.973 E.44694
G1 X28.617 Y153.579 E.09282
G1 X27.367 Y152.485 E.0928
G1 X26.731 Y150.474 E.11783
G1 X26.731 Y30.474 E6.70406
G1 X27.126 Y28.86 E.09283
G1 X28.019 Y27.839 E.07578
G1 E-2.4 F3000
;WIPE_START
G1 F5760
G1 X28.22 Y27.61 E-.15076
G1 X29.086 Y27.336 E-.44924
;WIPE_END
G1 X30.611 Y30.854 F7200
G1 E3 F3000
;TYPE:External perimeter
;WIDTH:0.56
G1 F5040
G1 X62.965 Y30.854 E1.80752
G1 X59.837 Y35.32 E.30461
G1 X59.801 Y35.4 E.0049
G1 X59.821 Y35.579 E.01006
G1 X59.976 Y35.811 E.01559
G1 X60.115 Y35.854 E.00813
G1 X66.725 Y35.854 E.36928
G1 X66.864 Y35.811 E.00813
G1 X66.947 Y35.719 E.00692
G1 X67.047 Y35.476 E.01468
G1 X67.002 Y35.32 E.00907
G1 X63.875 Y30.854 E.30458
G1 X102.645 Y30.854 E2.16597
G1 X106.071 Y35.747 E.3337
G1 X106.154 Y35.822 E.00625
G1 X106.276 Y35.854 E.00705
G1 X113.912 Y35.854 E.4266
G1 X113.955 Y35.85 E.00241
G1 X114.116 Y35.747 E.01068
G1 X117.543 Y30.854 E.33374
G1 X149.851 Y30.854 E1.80495
G1 X149.851 Y34.474 E.20224
G1 X149.851 Y38.094 E.20224
G1 X98.389 Y38.094 E2.87503
G1 X96.962 Y36.667 E.11274
G1 X96.785 Y36.594 E.0107
G1 X91.677 Y36.594 E.28537
G1 X91.501 Y36.667 E.01064
G1 X90.074 Y38.094 E.11274
G1 X38.101 Y38.094 E2.90358
G1 X37.925 Y38.167 E.01064
G1 X37.851 Y38.344 E.01072
G1 X37.851 Y72.684 E1.91848
G1 X37.577 Y73 E.02337
;WIDTH:0.601593
G1 X36.397 Y74.327 E.10746
;WIDTH:0.64199
G1 X36.345 Y74.397 E.00567
;WIDTH:0.682388
G1 X36.292 Y74.467 E.00611
;WIDTH:0.684741
G1 X36.308 Y74.716 E.01742
;WIDTH:0.645808
G1 X36.328 Y74.895 E.01179
;WIDTH:0.606876
G1 X36.347 Y75.074 E.011
;WIDTH:0.567944
G1 X36.351 Y79.554 E.25426
;WIDTH:0.56
G1 X36.351 Y80.359 E.04497
G1 X36.413 Y80.523 E.0098
G1 X37.851 Y82.18 E.12257
G1 X37.851 Y106.768 E1.37366
G1 X36.413 Y108.424 E.12253
G1 X36.351 Y108.588 E.0098
G1 X36.351 Y113.228 E.25922
;WIDTH:0.600015
G1 X36.331 Y113.633 E.02447
;WIDTH:0.640029
G1 X36.311 Y114.037 E.02622
;WIDTH:0.680045
G1 X36.291 Y114.442 E.02809
G1 X36.343 Y114.532 E.0072
;WIDTH:0.644487
G1 X36.394 Y114.622 E.00676
;WIDTH:0.60893
G1 X37.577 Y115.947 E.10895
;WIDTH:0.56
G1 X37.851 Y116.263 E.02337
G1 X37.851 Y150.094 E1.89004
G1 X30.611 Y150.094 E.40448
G1 X30.611 Y117.74 E1.80752
G1 X35.078 Y120.867 E.30463
G1 X35.157 Y120.904 E.00487
G1 X35.337 Y120.884 E.01012
G1 X35.569 Y120.729 E.01559
G1 X35.611 Y120.59 E.00811
G1 X35.611 Y116.681 E.21838
;WIDTH:0.60893
G1 X35.636 Y114.906 E.10888
;WIDTH:0.646836
G1 X35.655 Y114.728 E.01174
;WIDTH:0.684741
G1 X35.674 Y114.55 E.0125
G1 X35.671 Y113.98 E.03979
;WIDTH:0.680045
G1 X35.606 Y113.906 E.00682
;WIDTH:0.640029
G1 X35.542 Y113.832 E.00634
;WIDTH:0.600015
G1 X35.477 Y113.758 E.00594
;WIDTH:0.56
G1 X35.337 Y113.685 E.00882
G1 X35.168 Y113.663 E.00952
G1 X35.078 Y113.702 E.00548
G1 X30.611 Y116.83 E.30466
G1 X30.611 Y78.06 E2.16597
G1 X31.835 Y77.203 E.08348
;WIDTH:0.567944
G1 X35.507 Y74.637 E.25425
;WIDTH:0.606876
G1 X35.561 Y74.585 E.00458
;WIDTH:0.645808
G1 X35.615 Y74.534 E.00486
;WIDTH:0.684741
G1 X35.669 Y74.483 E.00519
G1 X35.651 Y74.262 E.01548
;WIDTH:0.643167
G1 X35.632 Y74.042 E.01439
;WIDTH:0.601593
G1 X35.611 Y72.266 E.10748
;WIDTH:0.56
G1 X35.611 Y66.793 E.30576
G1 X35.58 Y66.671 E.00703
G1 X35.505 Y66.589 E.00621
G1 X30.611 Y63.162 E.33378
G1 X30.611 Y30.944 E1.79993
G1 E-2.4 F3000
;WIPE_START
G1 F5760
G1 X31.824 Y30.941 E-.6
;WIPE_END
G1 X148.679 Y31.014 F7200
G1 E3 F3000
;TYPE:Solid infill
;WIDTH:0.56083
G1 F5040
G1 X149.466 Y31.801 E.06228
G1 X149.466 Y32.509 E.03962
G1 X148.196 Y31.239 E.10051
G1 X147.488 Y31.239 E.03962
G1 X149.466 Y33.217 E.15654
G1 X149.466 Y33.925 E.03962
G1 X146.78 Y31.239 E.21257
G1 X146.071 Y31.239 E.03968
G1 X149.466 Y34.634 E.26868
G1 X149.466 Y35.342 E.03962
G1 X145.363 Y31.239 E.32471
G1 X144.655 Y31.239 E.03962
G1 X149.466 Y36.05 E.38074
G1 X149.466 Y36.758 E.03962
G1 X143.947 Y31.239 E.43677
G1 X143.239 Y31.239 E.03962
G1 X149.466 Y37.466 E.4928
G1 X149.466 Y37.709 E.0136
G1 X149.001 Y37.709 E.02602
G1 X142.531 Y31.239 E.51203
G1 X141.822 Y31.239 E.03968
G1 X148.293 Y37.709 E.51207
G1 X147.584 Y37.709 E.03968
G1 X141.114 Y31.239 E.51203
G1 X140.406 Y31.239 E.03962
G1 X146.876 Y37.709 E.51203
G1 X146.168 Y37.709 E.03962
G1 X139.698 Y31.239 E.51203
G1 X138.99 Y31.239 E.03962
G1 X145.46 Y37.709 E.51203
G1 X144.752 Y37.709 E.03962
G1 X138.282 Y31.239 E.51203
G1 X137.574 Y31.239 E.03962
G1 X144.044 Y37.709 E.51203
G1 X143.335 Y37.709 E.03968
G1 X136.865 Y31.239 E.51203
G1 X136.157 Y31.239 E.03962
G1 X142.627 Y37.709 E.51203
G1 X141.919 Y37.709 E.03962
G1 X135.449 Y31.239 E.51203
G1 X134.741 Y31.239 E.03962
G1 X141.211 Y37.709 E.51203
G1 X140.503 Y37.709 E.03962
G1 X134.033 Y31.239 E.51203
G1 X133.325 Y31.239 E.03962
G1 X139.795 Y37.709 E.51203
G1 X139.087 Y37.709 E.03962
G1 X132.616 Y31.239 E.51207
G1 X131.908 Y31.239 E.03962
G1 X138.378 Y37.709 E.51203
G1 X137.67 Y37.709 E.03962
G1 X131.2 Y31.239 E.51203
G1 X130.492 Y31.239 E.03962
G1 X136.962 Y37.709 E.51203
G1 X136.254 Y37.709 E.03962
G1 X129.784 Y31.239 E.51203
G1 X129.076 Y31.239 E.03962
G1 X135.546 Y37.709 E.51203
G1 X134.838 Y37.709 E.03962
G1 X128.367 Y31.239 E.51207
G1 X127.659 Y31.239 E.03962
G1 X134.129 Y37.709 E.51203
G1 X133.421 Y37.709 E.03962
G1 X126.951 Y31.239 E.51203
G1 X126.243 Y31.239 E.03962
G1 X132.713 Y37.709 E.51203
G1 X132.005 Y37.709 E.03962
G1 X125.535 Y31.239 E.51203
G1 X124.827 Y31.239 E.03962
G1 X131.297 Y37.709 E.51203
G1 X130.589 Y37.709 E.03962
G1 X124.119 Y31.239 E.51203
G1 X123.41 Y31.239 E.03968
G1 X129.881 Y37.709 E.51207
G1 X129.172 Y37.709 E.03968
G1 X122.702 Y31.239 E.51203
G1 X121.994 Y31.239 E.03962
G1 X128.464 Y37.709 E.51203
G1 X127.756 Y37.709 E.03962
G1 X121.286 Y31.239 E.51203
G1 X120.578 Y31.239 E.03962
G1 X127.048 Y37.709 E.51203
G1 X126.34 Y37.709 E.03962
G1 X119.87 Y31.239 E.51203
G1 X119.161 Y31.239 E.03968
G1 X125.632 Y37.709 E.51207
G1 X124.923 Y37.709 E.03968
G1 X118.453 Y31.239 E.51203
G1 X117.745 Y31.239 E.03962
G1 X124.215 Y37.709 E.51203
G1 X123.507 Y37.709 E.03962
G1 X117.452 Y31.654 E.47919
G1 X117.161 Y32.07 E.02841
G1 X122.799 Y37.709 E.44623
G1 X122.091 Y37.709 E.03962
G1 X116.869 Y32.487 E.41326
G1 X116.577 Y32.903 E.02844
G1 X121.383 Y37.709 E.38034
G1 X120.675 Y37.709 E.03962
G1 X116.286 Y33.32 E.34734
G1 X115.994 Y33.736 E.02844
G1 X119.966 Y37.709 E.31438
G1 X119.258 Y37.709 E.03962
G1 X115.702 Y34.153 E.28142
G1 X115.411 Y34.569 E.02841
G1 X118.55 Y37.709 E.24846
G1 X117.842 Y37.709 E.03962
G1 X115.119 Y34.986 E.2155
G1 X114.828 Y35.402 E.02841
G1 X117.134 Y37.709 E.18253
G1 X116.426 Y37.709 E.03962
G1 X114.536 Y35.819 E.14957
G1 X114.423 Y35.98 E.01101
G1 X114.226 Y36.158 E.01486
G1 X114.182 Y36.174 E.00262
G1 X115.717 Y37.709 E.12148
G1 X115.009 Y37.709 E.03962
G1 X113.539 Y36.239 E.11633
G1 X112.831 Y36.239 E.03962
G1 X114.301 Y37.709 E.11633
G1 X113.593 Y37.709 E.03962
G1 X112.123 Y36.239 E.11633
G1 X111.415 Y36.239 E.03962
G1 X112.885 Y37.709 E.11633
G1 X112.177 Y37.709 E.03962
G1 X110.707 Y36.239 E.11633
G1 X109.998 Y36.239 E.03968
G1 X111.469 Y37.709 E.11637
G1 X110.76 Y37.709 E.03968
G1 X109.29 Y36.239 E.11633
G1 X108.582 Y36.239 E.03962
G1 X110.052 Y37.709 E.11633
G1 X109.344 Y37.709 E.03962
G1 X107.874 Y36.239 E.11633
G1 X107.166 Y36.239 E.03962
G1 X108.861 Y37.934 E.13414
G1 E-2.4 F3000
;WIPE_START
G1 F5760
G1 X108.004 Y37.077 E-.6
;WIPE_END
G1 X104.012 Y33.085 F7200
G1 E3 F3000
G1 F5040
G1 X102.166 Y31.239 E.14609
G1 X101.458 Y31.239 E.03962
G1 X104.75 Y34.531 E.26053
G1 X105.765 Y35.98 E.099
G1 X105.967 Y36.162 E.01522
G1 X106.259 Y36.239 E.0169
G1 X106.458 Y36.239 E.01114
G1 X107.928 Y37.709 E.11633
G1 X107.22 Y37.709 E.03962
G1 X100.749 Y31.239 E.51207
G1 X100.041 Y31.239 E.03962
G1 X106.511 Y37.709 E.51203
G1 X105.803 Y37.709 E.03962
G1 X99.333 Y31.239 E.51203
G1 X98.625 Y31.239 E.03962
G1 X105.095 Y37.709 E.51203
G1 X104.387 Y37.709 E.03962
G1 X97.917 Y31.239 E.51203
G1 X97.209 Y31.239 E.03962
G1 X103.679 Y37.709 E.51203
G1 X102.971 Y37.709 E.03962
G1 X96.501 Y31.239 E.51203
G1 X95.792 Y31.239 E.03968
G1 X102.263 Y37.709 E.51207
G1 X101.554 Y37.709 E.03968
G1 X95.084 Y31.239 E.51203
G1 X94.376 Y31.239 E.03962
G1 X100.846 Y37.709 E.51203
G1 X100.138 Y37.709 E.03962
G1 X93.668 Y31.239 E.51203
G1 X92.96 Y31.239 E.03962
G1 X99.43 Y37.709 E.51203
G1 X98.722 Y37.709 E.03962
G1 X92.252 Y31.239 E.51203
G1 X91.543 Y31.239 E.03968
G1 X96.514 Y36.209 E.39336
G1 X95.805 Y36.209 E.03968
G1 X90.835 Y31.239 E.39332
G1 X90.127 Y31.239 E.03962
G1 X95.097 Y36.209 E.39332
G1 X94.389 Y36.209 E.03962
G1 X89.419 Y31.239 E.39332
G1 X88.711 Y31.239 E.03962
G1 X93.681 Y36.209 E.39332
G1 X92.973 Y36.209 E.03962
G1 X88.003 Y31.239 E.39332
G1 X87.295 Y31.239 E.03962
G1 X92.265 Y36.209 E.39332
G1 X91.57 Y36.222 E.0389
G1 X86.586 Y31.239 E.39439
G1 X85.878 Y31.239 E.03962
G1 X91.131 Y36.492 E.41572
G1 X90.777 Y36.846 E.02802
G1 X85.17 Y31.239 E.44373
G1 X84.462 Y31.239 E.03962
G1 X90.423 Y37.2 E.47175
G1 X90.069 Y37.554 E.02802
G1 X83.754 Y31.239 E.49976
G1 X83.046 Y31.239 E.03962
G1 X89.516 Y37.709 E.51203
G1 X88.808 Y37.709 E.03962
G1 X82.337 Y31.239 E.51207
G1 X81.629 Y31.239 E.03962
G1 X88.099 Y37.709 E.51203
G1 X87.391 Y37.709 E.03962
G1 X80.921 Y31.239 E.51203
G1 X80.213 Y31.239 E.03962
G1 X86.683 Y37.709 E.51203
G1 X85.975 Y37.709 E.03962
G1 X79.505 Y31.239 E.51203
G1 X78.797 Y31.239 E.03962
G1 X85.267 Y37.709 E.51203
G1 X84.559 Y37.709 E.03962
G1 X78.089 Y31.239 E.51203
G1 X77.38 Y31.239 E.03968
G1 X83.85 Y37.709 E.51203
G1 X83.142 Y37.709 E.03962
G1 X76.672 Y31.239 E.51203
G1 X75.964 Y31.239 E.03962
G1 X82.434 Y37.709 E.51203
G1 X81.726 Y37.709 E.03962
G1 X75.256 Y31.239 E.51203
G1 X74.548 Y31.239 E.03962
G1 X81.018 Y37.709 E.51203
G1 X80.31 Y37.709 E.03962
G1 X73.84 Y31.239 E.51203
G1 X73.131 Y31.239 E.03968
G1 X79.602 Y37.709 E.51207
G1 X78.893 Y37.709 E.03968
G1 X72.423 Y31.239 E.51203
G1 X71.715 Y31.239 E.03962
G1 X78.185 Y37.709 E.51203
G1 X77.477 Y37.709 E.03962
G1 X71.007 Y31.239 E.51203
G1 X70.299 Y31.239 E.03962
G1 X76.769 Y37.709 E.51203
G1 X76.061 Y37.709 E.03962
G1 X69.591 Y31.239 E.51203
G1 X68.882 Y31.239 E.03968
G1 X75.353 Y37.709 E.51207
G1 X74.644 Y37.709 E.03968
G1 X68.174 Y31.239 E.51203
G1 X67.466 Y31.239 E.03962
G1 X73.936 Y37.709 E.51203
G1 X73.228 Y37.709 E.03962
G1 X66.758 Y31.239 E.51203
G1 X66.05 Y31.239 E.03962
G1 X72.52 Y37.709 E.51203
G1 X71.812 Y37.709 E.03962
G1 X65.342 Y31.239 E.51203
G1 X64.634 Y31.239 E.03962
G1 X71.104 Y37.709 E.51203
G1 X70.396 Y37.709 E.03962
G1 X66.202 Y33.515 E.33191
G1 X67.374 Y35.195 E.11463
G1 X67.414 Y35.306 E.0066
G1 X67.429 Y35.45 E.0081
G1 X69.687 Y37.709 E.17874
G1 X68.979 Y37.709 E.03962
G1 X67.234 Y35.963 E.13814
G1 X67.082 Y36.133 E.01276
G1 X66.795 Y36.233 E.01701
G1 X68.271 Y37.709 E.11681
G1 X67.563 Y37.709 E.03962
G1 X66.093 Y36.239 E.11633
G1 X65.385 Y36.239 E.03962
G1 X66.855 Y37.709 E.11633
G1 X66.147 Y37.709 E.03962
G1 X64.676 Y36.239 E.11637
G1 X63.968 Y36.239 E.03962
G1 X65.438 Y37.709 E.11633
G1 X64.73 Y37.709 E.03962
G1 X63.26 Y36.239 E.11633
G1 X62.552 Y36.239 E.03962
G1 X64.022 Y37.709 E.11633
G1 X63.314 Y37.709 E.03962
G1 X61.844 Y36.239 E.11633
G1 X61.136 Y36.239 E.03962
G1 X62.831 Y37.934 E.13414
G1 E-2.4 F3000
;WIPE_START
G1 F5760
G1 X61.974 Y37.077 E-.6
;WIPE_END
G1 X62.212 Y31.65 F7200
G1 E3 F3000
G1 F5040
G1 X61.801 Y31.239 E.03253
G1 X61.093 Y31.239 E.03962
G1 X61.759 Y31.905 E.05271
G1 X61.467 Y32.321 E.02844
G1 X60.385 Y31.239 E.08563
G1 X59.676 Y31.239 E.03968
G1 X61.176 Y32.738 E.11867
G1 X60.884 Y33.154 E.02844
G1 X58.968 Y31.239 E.15159
G1 X58.26 Y31.239 E.03962
G1 X60.593 Y33.571 E.18459
G1 X60.301 Y33.987 E.02844
G1 X57.552 Y31.239 E.21751
G1 X56.844 Y31.239 E.03962
G1 X60.009 Y34.404 E.25048
G1 X59.718 Y34.82 E.02841
G1 X56.136 Y31.239 E.28344
G1 X55.428 Y31.239 E.03962
G1 X59.447 Y35.257 E.31802
G1 X59.406 Y35.499 E.01374
G1 X59.472 Y35.744 E.0142
G1 X59.56 Y35.912 E.01061
G1 X59.762 Y36.137 E.01692
G1 X60.095 Y36.239 E.01949
G1 X60.428 Y36.239 E.01863
G1 X61.898 Y37.709 E.11633
G1 X61.19 Y37.709 E.03962
G1 X54.719 Y31.239 E.51207
G1 X54.011 Y31.239 E.03962
G1 X60.481 Y37.709 E.51203
G1 X59.773 Y37.709 E.03962
G1 X53.303 Y31.239 E.51203
G1 X52.595 Y31.239 E.03962
G1 X59.065 Y37.709 E.51203
G1 X58.357 Y37.709 E.03962
G1 X51.887 Y31.239 E.51203
G1 X51.179 Y31.239 E.03962
G1 X57.649 Y37.709 E.51203
G1 X56.941 Y37.709 E.03962
G1 X50.47 Y31.239 E.51207
G1 X49.762 Y31.239 E.03962
G1 X56.232 Y37.709 E.51203
G1 X55.524 Y37.709 E.03962
G1 X49.054 Y31.239 E.51203
G1 X48.346 Y31.239 E.03962
G1 X54.816 Y37.709 E.51203
G1 X54.108 Y37.709 E.03962
G1 X47.638 Y31.239 E.51203
G1 X46.93 Y31.239 E.03962
G1 X53.4 Y37.709 E.51203
G1 X52.692 Y37.709 E.03962
G1 X46.222 Y31.239 E.51203
G1 X45.513 Y31.239 E.03968
G1 X51.984 Y37.709 E.51207
G1 X51.275 Y37.709 E.03968
G1 X44.805 Y31.239 E.51203
G1 X44.097 Y31.239 E.03962
G1 X50.567 Y37.709 E.51203
G1 X49.859 Y37.709 E.03962
G1 X43.389 Y31.239 E.51203
G1 X42.681 Y31.239 E.03962
G1 X49.151 Y37.709 E.51203
G1 X48.443 Y37.709 E.03962
G1 X41.973 Y31.239 E.51203
G1 X41.264 Y31.239 E.03968
G1 X47.735 Y37.709 E.51207
G1 X47.026 Y37.709 E.03968
G1 X40.556 Y31.239 E.51203
G1 X39.848 Y31.239 E.03962
G1 X46.318 Y37.709 E.51203
G1 X45.61 Y37.709 E.03962
G1 X39.14 Y31.239 E.51203
G1 X38.432 Y31.239 E.03962
G1 X44.902 Y37.709 E.51203
