; generated by PrusaSlicer 2.6.0-rc1+win64 on 2023-06-14 at 05:02:45 UTC

;

; external perimeters extrusion width = 0.40mm
; perimeters extrusion width = 0.40mm
; infill extrusion width = 0.45mm
; solid infill extrusion width = 0.40mm
; top infill extrusion width = 0.40mm
; first layer extrusion width = 0.45mm

;TYPE:Custom
G90 ; use absolute coordinates
M83 ; extruder relative mode
M140 S60 ; set final bed temp
M104 S215 ; set final nozzle temp
M190 S60 ; wait for bed temp to stabilize
M109 S215 ; wait for nozzle temp to stabilize

M117 Print Starting... ; V3.0 EZABL Starting Code
M75 ; Start Print Timer and Engage Fil Sensor if USB Printing
M117 Antiblob retract...
G92 E0 ; Reset Extruder distance to 0
G1 E-2 ; Retracts filament to prevent blobs during probing
G92 E0 ; Reset Extruder distance to 0
M84 E ; Disable E Motor for probe accuracy on direct drive systems
M117 Homing All...
G28 ; home all axes
M117 Homing Z Probe...
G28 Z ; home z again
M117 Generating mesh...
G29; auto bed leveling
M117 Heaters Recovering...
G4 S10; wait for heaters to recover
M420 Z0; Z fade
M900 K0; Linear Advance off

M117 Purging extruder...
G92 E0     ; reset extruder
G1 Z1.0 F600    ; move z up little to prevent scratching of surface
G1 X0.1 Y20 Z0.3 F5000.0  ; move to start-line position
G1 X0.1 Y100.0 Z0.3 F500.0 E15  ; draw 1st line
G1 X0.4 Y100.0 Z0.3 F500.0  ; move to side a little
G1 X0.4 Y20 Z0.3 F500.0 E30  ; draw 2nd line
G92 E0     ; reset extruder
G1 Z1.0 F600    ; move z up little to prevent scratching of surface

M117 Printing.....
G21 ; set units to millimeters
G90 ; use absolute coordinates
M83 ; use relative distances for extrusion
; Filament gcode
M107
;LAYER_CHANGE
;Z:0.3
;HEIGHT:0.3
;BEFORE_LAYER_CHANGE
G92 E0
;0.3


G1 Z.3 F7200
;AFTER_LAYER_CHANGE
;0.3
M593 F0 ; Hz Input Shaping Test
G1 E-5 F4800
G1 X52.725 Y51.992 F7200
G1 E5 F4800
;TYPE:Skirt/Brim
;WIDTH:0.45
G1 F5040
G1 X55 Y51.229 E.11079
G1 X175 Y51.229 E5.54073
G1 X176.68 Y51.623 E.07967
G1 X178.008 Y52.725 E.07968
G1 X178.771 Y55 E.11079
G1 X178.771 Y63 E.36938
G1 X178.377 Y64.68 E.07967
G1 X177.667 Y65.667 E.05614
G1 X65.667 Y177.667 E7.31339
G1 X64.2 Y178.575 E.07966
G1 X63 Y178.771 E.05614
G1 X55 Y178.771 E.36938
G1 X53.32 Y178.377 E.07967
G1 X51.992 Y177.275 E.07968
G1 X51.229 Y175 E.11079
G1 X51.229 Y55 E5.54073
G1 X51.623 Y53.32 E.07967
G1 X52.687 Y52.038 E.07692
G1 X52.995 Y52.315 F7200
G1 F5040
G1 X53.099 Y52.198 E.00723
G1 X55 Y51.614 E.09182
G1 X175 Y51.614 E5.54073
G1 X176.585 Y52.008 E.07541
G1 X177.802 Y53.099 E.07547
G1 X178.386 Y55 E.09182
G1 X178.386 Y63 E.36938
G1 X177.992 Y64.585 E.07541
G1 X177.394 Y65.394 E.04645
G1 X65.394 Y177.394 E7.31339
G1 X63.994 Y178.236 E.07543
G1 X63 Y178.386 E.04642
G1 X55 Y178.386 E.36938
G1 X53.415 Y177.992 E.07541
G1 X52.198 Y176.901 E.07547
G1 X51.614 Y175 E.09182
G1 X51.614 Y55 E5.54073
G1 X52.008 Y53.415 E.07541
G1 X52.955 Y52.359 E.06549
G1 X55.325 Y55.325 F7200
;TYPE:External perimeter
G1 F5040
G1 X87.797 Y55.325 E1.49932
G1 X87.797 Y55.398 E.00337
G1 X84.592 Y59.975 E.25799
G1 X84.774 Y60.325 E.01821
G1 X91.62 Y60.325 E.3161
G1 X91.802 Y59.975 E.01821
G1 X88.597 Y55.398 E.25799
G1 X88.597 Y55.325 E.00337
G1 X127.451 Y55.325 E1.79399
G1 X130.952 Y60.325 E.28183
G1 X138.79 Y60.325 E.3619
G1 X142.291 Y55.325 E.28183
G1 X174.675 Y55.325 E1.49526
G1 X174.675 Y62.675 E.33937
G1 X123.135 Y62.675 E2.37974
G1 X121.635 Y61.175 E.09795
G1 X116.365 Y61.175 E.24333
G1 X114.865 Y62.675 E.09795
G1 X62.675 Y62.675 E2.40975
G1 X62.675 Y97.237 E1.59582
G1 X61.175 Y98.964 E.10562
G1 X61.175 Y104.964 E.27704
G1 X62.675 Y106.691 E.10562
G1 X62.675 Y131.309 E1.13668
G1 X61.175 Y133.036 E.10562
G1 X61.175 Y139.036 E.27704
G1 X62.675 Y140.763 E.10562
G1 X62.675 Y174.675 E1.56581
G1 X55.325 Y174.675 E.33937
G1 X55.325 Y142.203 E1.49932
G1 X55.398 Y142.203 E.00337
G1 X59.975 Y145.408 E.25799
G1 X60.325 Y145.226 E.01821
G1 X60.325 Y138.38 E.3161
G1 X59.975 Y138.198 E.01821
G1 X55.398 Y141.403 E.25799
G1 X55.325 Y141.403 E.00337
G1 X55.325 Y102.549 E1.79399
G1 X60.325 Y99.048 E.28183
G1 X60.325 Y91.21 E.3619
G1 X55.325 Y87.709 E.28183
G1 X55.325 Y55.385 E1.49249
G1 E-5 F4800
G1 X173.77 Y55.448 F7200
G1 E5 F4800
;TYPE:Solid infill
;WIDTH:0.45083
G1 F5040
G1 X174.378 Y56.056 E.03979
G1 X174.378 Y56.603 E.02531
G1 X173.397 Y55.622 E.0642
G1 X172.851 Y55.622 E.02526
G1 X174.378 Y57.149 E.09992
G1 X174.378 Y57.696 E.02531
G1 X172.304 Y55.622 E.13572
G1 X171.758 Y55.622 E.02526
G1 X174.378 Y58.242 E.17145
G1 X174.378 Y58.789 E.02531
G1 X171.211 Y55.622 E.20724
G1 X170.665 Y55.622 E.02526
G1 X174.378 Y59.335 E.24297
G1 X174.378 Y59.882 E.02531
G1 X170.118 Y55.622 E.27877
G1 X169.572 Y55.622 E.02526
G1 X174.378 Y60.428 E.3145
G1 X174.378 Y60.975 E.02531
G1 X169.025 Y55.622 E.35029
G1 X168.479 Y55.622 E.02526
G1 X174.378 Y61.521 E.38602
G1 X174.378 Y62.068 E.02531
G1 X167.932 Y55.622 E.42182
G1 X167.386 Y55.622 E.02526
G1 X174.142 Y62.378 E.4421
G1 X173.595 Y62.378 E.02531
G1 X166.839 Y55.622 E.4421
G1 X166.293 Y55.622 E.02526
G1 X173.049 Y62.378 E.4421
G1 X172.502 Y62.378 E.02531
G1 X165.746 Y55.622 E.4421
G1 X165.2 Y55.622 E.02526
G1 X171.956 Y62.378 E.4421
G1 X171.409 Y62.378 E.02531
G1 X164.653 Y55.622 E.4421
G1 X164.106 Y55.622 E.02531
G1 X170.863 Y62.378 E.44214
G1 X170.316 Y62.378 E.02531
G1 X163.56 Y55.622 E.4421
G1 X163.013 Y55.622 E.02531
G1 X169.77 Y62.378 E.44214
G1 X169.223 Y62.378 E.02531
G1 X162.467 Y55.622 E.4421
G1 X161.92 Y55.622 E.02531
G1 X168.677 Y62.378 E.44214
G1 X168.13 Y62.378 E.02531
G1 X161.374 Y55.622 E.4421
G1 X160.827 Y55.622 E.02531
G1 X167.583 Y62.378 E.4421
G1 X167.037 Y62.378 E.02526
G1 X160.281 Y55.622 E.4421
G1 X159.734 Y55.622 E.02531
G1 X166.49 Y62.378 E.4421
G1 X165.944 Y62.378 E.02526
G1 X159.188 Y55.622 E.4421
G1 X158.641 Y55.622 E.02531
G1 X165.397 Y62.378 E.4421
G1 X164.851 Y62.378 E.02526
G1 X158.095 Y55.622 E.4421
G1 X157.548 Y55.622 E.02531
G1 X164.304 Y62.378 E.4421
G1 X163.758 Y62.378 E.02526
G1 X157.002 Y55.622 E.4421
G1 X156.455 Y55.622 E.02531
G1 X163.211 Y62.378 E.4421
G1 X162.665 Y62.378 E.02526
G1 X155.909 Y55.622 E.4421
G1 X155.362 Y55.622 E.02531
G1 X162.118 Y62.378 E.4421
G1 X161.572 Y62.378 E.02526
G1 X154.816 Y55.622 E.4421
G1 X154.269 Y55.622 E.02531
G1 X161.025 Y62.378 E.4421
G1 X160.479 Y62.378 E.02526
G1 X153.723 Y55.622 E.4421
G1 X153.176 Y55.622 E.02531
G1 X159.932 Y62.378 E.4421
G1 X159.386 Y62.378 E.02526
G1 X152.63 Y55.622 E.4421
G1 X152.083 Y55.622 E.02531
G1 X158.839 Y62.378 E.4421
G1 X158.293 Y62.378 E.02526
G1 X151.536 Y55.622 E.44214
G1 X150.99 Y55.622 E.02526
G1 X157.746 Y62.378 E.4421
G1 X157.2 Y62.378 E.02526
G1 X150.443 Y55.622 E.44214
G1 X149.897 Y55.622 E.02526
G1 X156.653 Y62.378 E.4421
G1 X156.107 Y62.378 E.02526
G1 X149.35 Y55.622 E.44214
G1 X148.804 Y55.622 E.02526
G1 X155.56 Y62.378 E.4421
G1 X155.013 Y62.378 E.02531
G1 X148.257 Y55.622 E.4421
G1 X147.711 Y55.622 E.02526
G1 X154.467 Y62.378 E.4421
G1 X153.92 Y62.378 E.02531
G1 X147.164 Y55.622 E.4421
G1 X146.618 Y55.622 E.02526
G1 X153.374 Y62.378 E.4421
G1 X152.827 Y62.378 E.02531
G1 X146.071 Y55.622 E.4421
G1 X145.525 Y55.622 E.02526
G1 X152.281 Y62.378 E.4421
G1 X151.734 Y62.378 E.02531
G1 X144.978 Y55.622 E.4421
G1 X144.432 Y55.622 E.02526
G1 X151.188 Y62.378 E.4421
G1 X150.641 Y62.378 E.02531
G1 X143.885 Y55.622 E.4421
G1 X143.339 Y55.622 E.02526
G1 X150.095 Y62.378 E.4421
G1 X149.548 Y62.378 E.02531
G1 X142.792 Y55.622 E.4421
G1 X142.446 Y55.622 E.01601
G1 X142.363 Y55.74 E.00668
G1 X149.002 Y62.378 E.43441
G1 X148.455 Y62.378 E.02531
G1 X142.138 Y56.061 E.41338
G1 X141.913 Y56.382 E.01814
G1 X147.909 Y62.378 E.39237
G1 X147.362 Y62.378 E.02531
G1 X141.688 Y56.704 E.3713
G1 X141.463 Y57.025 E.01814
G1 X146.816 Y62.378 E.35029
G1 X146.269 Y62.378 E.02531
G1 X141.238 Y57.347 E.32922
G1 X141.013 Y57.668 E.01814
G1 X145.723 Y62.378 E.30822
G1 X145.176 Y62.378 E.02531
G1 X140.788 Y57.99 E.28714
G1 X140.563 Y58.311 E.01814
G1 X144.63 Y62.378 E.26614
G1 X144.083 Y62.378 E.02531
G1 X140.338 Y58.633 E.24507
G1 X140.112 Y58.954 E.01817
G1 X143.537 Y62.378 E.22409
G1 X142.99 Y62.378 E.02531
G1 X139.887 Y59.275 E.20306
G1 X139.662 Y59.597 E.01818
G1 X142.443 Y62.378 E.18198
G1 X141.897 Y62.378 E.02526
G1 X139.437 Y59.918 E.16098
G1 X139.212 Y60.24 E.01818
G1 X141.35 Y62.378 E.13991
G1 X140.804 Y62.378 E.02526
G1 X138.987 Y60.561 E.1189
G1 X138.945 Y60.622 E.00343
G1 X138.501 Y60.622 E.02054
G1 X140.257 Y62.378 E.11491
G1 X139.711 Y62.378 E.02526
G1 X137.955 Y60.622 E.11491
G1 X137.408 Y60.622 E.02531
G1 X139.164 Y62.378 E.11491
G1 X138.618 Y62.378 E.02526
G1 X136.862 Y60.622 E.11491
G1 X136.315 Y60.622 E.02531
G1 X138.071 Y62.378 E.11491
G1 X137.525 Y62.378 E.02526
G1 X135.769 Y60.622 E.11491
G1 X135.222 Y60.622 E.02531
G1 X136.978 Y62.378 E.11491
G1 X136.432 Y62.378 E.02526
G1 X134.676 Y60.622 E.11491
G1 X134.129 Y60.622 E.02531
G1 X135.885 Y62.378 E.11491
G1 X135.339 Y62.378 E.02526
G1 X133.583 Y60.622 E.11491
G1 X133.036 Y60.622 E.02531
G1 X134.792 Y62.378 E.11491
G1 X134.246 Y62.378 E.02526
G1 X132.49 Y60.622 E.11491
G1 X131.943 Y60.622 E.02531
G1 X133.699 Y62.378 E.11491
G1 X133.153 Y62.378 E.02526
G1 X131.223 Y60.448 E.1263
G1 X128.827 Y57.506 F7200
G1 F5040
G1 X126.943 Y55.622 E.12329
G1 X126.396 Y55.622 E.02531
G1 X130.103 Y59.329 E.24258
G1 E-5 F4800
G1 X125.676 Y55.448 F7200
G1 E5 F4800
G1 F5040
G1 X132.606 Y62.378 E.45349
G1 X132.06 Y62.378 E.02526
G1 X125.303 Y55.622 E.44214
G1 X124.757 Y55.622 E.02526
G1 X131.513 Y62.378 E.4421
G1 X130.967 Y62.378 E.02526
G1 X124.21 Y55.622 E.44214
G1 X123.664 Y55.622 E.02526
G1 X130.42 Y62.378 E.4421
G1 X129.873 Y62.378 E.02531
G1 X123.117 Y55.622 E.4421
G1 X122.571 Y55.622 E.02526
G1 X129.327 Y62.378 E.4421
G1 X128.78 Y62.378 E.02531
G1 X122.024 Y55.622 E.4421
G1 X121.478 Y55.622 E.02526
G1 X128.234 Y62.378 E.4421
G1 X127.687 Y62.378 E.02531
G1 X120.931 Y55.622 E.4421
G1 X120.385 Y55.622 E.02526
G1 X127.141 Y62.378 E.4421
G1 X126.594 Y62.378 E.02531
G1 X119.838 Y55.622 E.4421
G1 X119.292 Y55.622 E.02526
G1 X126.048 Y62.378 E.4421
G1 X125.501 Y62.378 E.02531
G1 X118.745 Y55.622 E.4421
G1 X118.199 Y55.622 E.02526
G1 X124.955 Y62.378 E.4421
G1 X124.408 Y62.378 E.02531
G1 X117.652 Y55.622 E.4421
G1 X117.106 Y55.622 E.02526
G1 X123.862 Y62.378 E.4421
G1 X123.315 Y62.378 E.02531
G1 X116.559 Y55.622 E.4421
G1 X116.013 Y55.622 E.02526
G1 X121.269 Y60.878 E.34395
G1 X120.722 Y60.878 E.02531
G1 X115.466 Y55.622 E.34395
G1 X114.92 Y55.622 E.02526
G1 X120.176 Y60.878 E.34395
G1 X119.629 Y60.878 E.02531
G1 X114.373 Y55.622 E.34395
G1 X113.826 Y55.622 E.02531
G1 X119.083 Y60.878 E.34398
G1 X118.536 Y60.878 E.02531
G1 X113.28 Y55.622 E.34395
G1 X112.733 Y55.622 E.02531
G1 X117.99 Y60.878 E.34398
G1 X117.443 Y60.878 E.02531
G1 X112.187 Y55.622 E.34395
G1 X111.64 Y55.622 E.02531
G1 X116.897 Y60.878 E.34398
G1 X116.35 Y60.878 E.02531
G1 X111.094 Y55.622 E.34395
G1 X110.547 Y55.622 E.02531
G1 X116.023 Y61.098 E.35834
G1 X115.75 Y61.371 E.01786
G1 X110.001 Y55.622 E.37621
G1 X109.454 Y55.622 E.02531
G1 X115.476 Y61.644 E.39407
G1 X115.203 Y61.917 E.01786
G1 X108.908 Y55.622 E.41194
G1 X108.361 Y55.622 E.02531
G1 X114.93 Y62.191 E.42987
G1 X114.742 Y62.378 E.01227
G1 X114.571 Y62.378 E.00791
G1 X107.815 Y55.622 E.4421
G1 X107.268 Y55.622 E.02531
G1 X114.024 Y62.378 E.4421
G1 X113.478 Y62.378 E.02526
G1 X106.722 Y55.622 E.4421
G1 X106.175 Y55.622 E.02531
G1 X112.931 Y62.378 E.4421
G1 X112.385 Y62.378 E.02526
G1 X105.629 Y55.622 E.4421
G1 X105.082 Y55.622 E.02531
G1 X111.838 Y62.378 E.4421
G1 X111.292 Y62.378 E.02526
G1 X104.536 Y55.622 E.4421
G1 X103.989 Y55.622 E.02531
G1 X110.745 Y62.378 E.4421
G1 X110.199 Y62.378 E.02526
G1 X103.443 Y55.622 E.4421
G1 X102.896 Y55.622 E.02531
G1 X109.652 Y62.378 E.4421
G1 X109.106 Y62.378 E.02526
G1 X102.35 Y55.622 E.4421
G1 X101.803 Y55.622 E.02531
G1 X108.559 Y62.378 E.4421
G1 X108.013 Y62.378 E.02526
G1 X101.256 Y55.622 E.44214
G1 X100.71 Y55.622 E.02526
G1 X107.466 Y62.378 E.4421
G1 X106.92 Y62.378 E.02526
G1 X100.163 Y55.622 E.44214
G1 X99.617 Y55.622 E.02526
G1 X106.373 Y62.378 E.4421
G1 X105.827 Y62.378 E.02526
G1 X99.07 Y55.622 E.44214
G1 X98.524 Y55.622 E.02526
G1 X105.28 Y62.378 E.4421
G1 X104.734 Y62.378 E.02526
G1 X97.977 Y55.622 E.44214
G1 X97.431 Y55.622 E.02526
G1 X104.187 Y62.378 E.4421
G1 X103.64 Y62.378 E.02531
G1 X96.884 Y55.622 E.4421
G1 X96.338 Y55.622 E.02526
G1 X103.094 Y62.378 E.4421
G1 X102.547 Y62.378 E.02531
G1 X95.791 Y55.622 E.4421
G1 X95.245 Y55.622 E.02526
G1 X102.001 Y62.378 E.4421
G1 X101.454 Y62.378 E.02531
G1 X94.698 Y55.622 E.4421
G1 X94.152 Y55.622 E.02526
G1 X100.908 Y62.378 E.4421
G1 X100.361 Y62.378 E.02531
G1 X93.605 Y55.622 E.4421
G1 X93.059 Y55.622 E.02526
G1 X99.815 Y62.378 E.4421
G1 X99.268 Y62.378 E.02531
G1 X92.512 Y55.622 E.4421
G1 X91.966 Y55.622 E.02526
G1 X98.722 Y62.378 E.4421
G1 X98.175 Y62.378 E.02531
G1 X91.419 Y55.622 E.4421
G1 X90.873 Y55.622 E.02526
G1 X97.629 Y62.378 E.4421
G1 X97.082 Y62.378 E.02531
G1 X90.326 Y55.622 E.4421
G1 X89.78 Y55.622 E.02526
G1 X96.536 Y62.378 E.4421
G1 X95.989 Y62.378 E.02531
G1 X89.233 Y55.622 E.4421
G1 X89.116 Y55.622 E.00541
G1 X90.12 Y57.056 E.081
G1 X95.443 Y62.378 E.3483
G1 X94.896 Y62.378 E.02531
G1 X91.397 Y58.879 E.22897
G1 X92.149 Y59.952 E.06063
G1 X92.072 Y60.1 E.00772
G1 X94.35 Y62.378 E.14907
G1 X93.803 Y62.378 E.02531
G1 X91.885 Y60.46 E.12551
G1 X91.8 Y60.622 E.00847
G1 X91.5 Y60.622 E.01388
G1 X93.257 Y62.378 E.11494
G1 X92.71 Y62.378 E.02531
G1 X90.954 Y60.622 E.11491
G1 X90.407 Y60.622 E.02531
G1 X92.164 Y62.378 E.11494
G1 X91.617 Y62.378 E.02531
G1 X89.861 Y60.622 E.11491
G1 X89.314 Y60.622 E.02531
G1 X91.07 Y62.378 E.11491
G1 X90.524 Y62.378 E.02526
G1 X88.768 Y60.622 E.11491
G1 X88.221 Y60.622 E.02531
G1 X89.977 Y62.378 E.11491
G1 X89.431 Y62.378 E.02526
G1 X87.675 Y60.622 E.11491
G1 X87.128 Y60.622 E.02531
G1 X88.884 Y62.378 E.11491
G1 X88.338 Y62.378 E.02526
G1 X86.582 Y60.622 E.11491
G1 X86.035 Y60.622 E.02531
G1 X87.791 Y62.378 E.11491
G1 X87.245 Y62.378 E.02526
G1 X85.315 Y60.448 E.1263
G1 X87.307 Y55.882 F7200
G1 F5040
G1 X87.047 Y55.622 E.01701
G1 X86.5 Y55.622 E.02531
G1 X86.957 Y56.079 E.02991
G1 X86.732 Y56.4 E.01814
G1 X85.954 Y55.622 E.05091
G1 X85.407 Y55.622 E.02531
G1 X86.507 Y56.722 E.07198
G1 X86.282 Y57.043 E.01814
G1 X84.861 Y55.622 E.09299
G1 X84.314 Y55.622 E.02531
G1 X86.057 Y57.365 E.11406
G1 X85.832 Y57.686 E.01814
G1 X83.768 Y55.622 E.13507
G1 X83.221 Y55.622 E.02531
G1 X85.607 Y58.007 E.1561
G1 X85.382 Y58.329 E.01818
G1 X82.675 Y55.622 E.17714
G1 X82.128 Y55.622 E.02531
G1 X85.157 Y58.65 E.19818
G1 X84.932 Y58.972 E.01818
G1 X81.582 Y55.622 E.21922
G1 X81.035 Y55.622 E.02531
G1 X84.707 Y59.293 E.24026
G1 X84.481 Y59.615 E.0182
G1 X80.489 Y55.622 E.26126
G1 X79.942 Y55.622 E.02531
G1 X84.256 Y59.936 E.2823
G1 X84.245 Y59.952 E.0009
G1 X84.593 Y60.622 E.03493
G1 X84.942 Y60.622 E.01615
G1 X86.698 Y62.378 E.11491
G1 X86.152 Y62.378 E.02526
G1 X79.396 Y55.622 E.4421
G1 X78.849 Y55.622 E.02531
G1 X85.605 Y62.378 E.4421
G1 X85.059 Y62.378 E.02526
G1 X78.303 Y55.622 E.4421
G1 X77.756 Y55.622 E.02531
G1 X84.512 Y62.378 E.4421
G1 X83.966 Y62.378 E.02526
G1 X77.21 Y55.622 E.4421
G1 X76.663 Y55.622 E.02531
G1 X83.419 Y62.378 E.4421
G1 X82.873 Y62.378 E.02526
G1 X76.117 Y55.622 E.4421
G1 X75.57 Y55.622 E.02531
G1 X82.326 Y62.378 E.4421
G1 X81.78 Y62.378 E.02526
G1 X75.023 Y55.622 E.44214
G1 X74.477 Y55.622 E.02526
G1 X81.233 Y62.378 E.4421
G1 X80.687 Y62.378 E.02526
G1 X73.93 Y55.622 E.44214
G1 X73.384 Y55.622 E.02526
G1 X80.14 Y62.378 E.4421
G1 X79.594 Y62.378 E.02526
G1 X72.837 Y55.622 E.44214
G1 X72.291 Y55.622 E.02526
G1 X79.047 Y62.378 E.4421
G1 X78.5 Y62.378 E.02531
G1 X71.744 Y55.622 E.4421
G1 X71.198 Y55.622 E.02526
G1 X77.954 Y62.378 E.4421
G1 X77.407 Y62.378 E.02531
G1 X70.651 Y55.622 E.4421
G1 X70.105 Y55.622 E.02526
G1 X76.861 Y62.378 E.4421
G1 X76.314 Y62.378 E.02531
G1 X69.558 Y55.622 E.4421
G1 X69.012 Y55.622 E.02526
G1 X75.768 Y62.378 E.4421
G1 X75.221 Y62.378 E.02531
G1 X68.465 Y55.622 E.4421
G1 X67.919 Y55.622 E.02526
G1 X74.675 Y62.378 E.4421
G1 X74.128 Y62.378 E.02531
