; ### Marlin IS Calibration Zeta/Damping Factor X Pattern ###
; -------------------------------------------
;
; Printer: DE200-Stock
; Created: Sat Mar 09 2024 20:45:12 GMT+0000 (Western European Standard Time)
;
; Settings Printer:
; Filament Diameter = 1.75 mm
; Nozzle Temperature = 215 °C
; Bed Temperature = 0 °C
; Nozzle Diameter = 0.5 mm
; Layer Height = 0.25 mm
; Fan Speed = 0 %
; Z-axis Offset = 0 mm
; Retraction = 4.5 mm
;
; Settings Print Bed:
; Bed Size X = 204 mm
; Bed Size Y = 204 mm
;
; Settings Speed:
; Printing Speed = 60 mm/s
; Movement Speed = 90 mm/s
; Retraction Speed = 40 mm/s
; Printing Deceleration = 1000 mm/s^2
; Jerk = 20
; Junction Deviation = 0.3
;
; Settings Pattern:
; Max X Frequency = 60 Hz
; Max Y Frequency = 60 Hz
;
; Settings Advance:
; Bed leveling = G29 ; Level bed
; Extrusion Multiplier = 1
;
; prepare printing
;
M501 ; Load settings from EEPROM
M205 S0 T0 ; minimum extruding and travel feed rate
G21 ; Millimeter units
G90 ; Absolute XYZ
G28 ; Home all axes

G1 Z10 F100 ; Z raise
M104 S215 ; Set nozzle temperature (no wait)
M190 S0 ; Set bed temperature (wait)
M109 S215 ; Wait for nozzle temp
G29 ; Level bed; Activate bed leveling compensation
G92 E0 ; Reset extruder distance
M900 K0 ; Linear advance off
M106 S0 ; Fan speed
; draw anchor lines
G0 X169.60 Y169.60 Z2.00 E0.00 F5400.0
G0 X169.60 Y169.60 Z0.25 E0.00 F600.0
; unretract
G1 E4.50 F2400.0
G1 X34.40 Y169.60 Z0.25 E11.53 F3600.0
G1 X34.40 Y34.40 Z0.25 E18.55 F3600.0

G1 X39.40 Y34.40 Z0.25 E18.81
M593 X D0.05
M203 X500 Y500 ; maximum feedrates
M204 P10000 ; print acceleration
M201 X10000 Y10000 ; max acceleration
M205 X500.00 Y500.00 ; jerk limits very high
M205 J0.3 ; junction deviation maximum
G1 X39.90 Y35.40 Z0.25 E18.87 F67.1
G1 X39.40 Y36.40 Z0.25 E18.93 F134.2
G1 X39.90 Y37.40 Z0.25 E18.99 F201.2
G1 X39.40 Y38.40 Z0.25 E19.04 F268.3
G1 X39.90 Y39.40 Z0.25 E19.10 F335.4
G1 X39.40 Y40.40 Z0.25 E19.16 F402.5
G1 X39.90 Y41.40 Z0.25 E19.22 F469.6
G1 X39.40 Y42.40 Z0.25 E19.28 F536.7
G1 X39.90 Y43.40 Z0.25 E19.34 F603.7
G1 X39.40 Y44.40 Z0.25 E19.39 F670.8
G1 X39.90 Y45.40 Z0.25 E19.45 F737.9
G1 X39.40 Y46.40 Z0.25 E19.51 F805.0
G1 X39.90 Y47.40 Z0.25 E19.57 F872.1
G1 X39.40 Y48.40 Z0.25 E19.63 F939.1
G1 X39.90 Y49.40 Z0.25 E19.68 F1006.2
G1 X39.40 Y50.40 Z0.25 E19.74 F1073.3
G1 X39.90 Y51.40 Z0.25 E19.80 F1140.4
G1 X39.40 Y52.40 Z0.25 E19.86 F1207.5
G1 X39.90 Y53.40 Z0.25 E19.92 F1274.6
G1 X39.40 Y54.40 Z0.25 E19.97 F1341.6
G1 X39.90 Y55.40 Z0.25 E20.03 F1408.7
G1 X39.40 Y56.40 Z0.25 E20.09 F1475.8
G1 X39.90 Y57.40 Z0.25 E20.15 F1542.9
G1 X39.40 Y58.40 Z0.25 E20.21 F1610.0
G1 X39.90 Y59.40 Z0.25 E20.26 F1677.1
G1 X39.40 Y60.40 Z0.25 E20.32 F1744.1
G1 X39.90 Y61.40 Z0.25 E20.38 F1811.2
G1 X39.40 Y62.40 Z0.25 E20.44 F1878.3
G1 X39.90 Y63.40 Z0.25 E20.50 F1945.4
G1 X39.40 Y64.40 Z0.25 E20.56 F2012.5
G1 X39.90 Y65.40 Z0.25 E20.61 F2079.5
G1 X39.40 Y66.40 Z0.25 E20.67 F2146.6
G1 X39.90 Y67.40 Z0.25 E20.73 F2213.7
G1 X39.40 Y68.40 Z0.25 E20.79 F2280.8
G1 X39.90 Y69.40 Z0.25 E20.85 F2347.9
G1 X39.40 Y70.40 Z0.25 E20.90 F2415.0
G1 X39.90 Y71.40 Z0.25 E20.96 F2482.0
G1 X39.40 Y72.40 Z0.25 E21.02 F2549.1
G1 X39.90 Y73.40 Z0.25 E21.08 F2616.2
G1 X39.40 Y74.40 Z0.25 E21.14 F2683.3
G1 X39.90 Y75.40 Z0.25 E21.19 F2750.4
G1 X39.40 Y76.40 Z0.25 E21.25 F2817.4
G1 X39.90 Y77.40 Z0.25 E21.31 F2884.5
G1 X39.40 Y78.40 Z0.25 E21.37 F2951.6
G1 X39.90 Y79.40 Z0.25 E21.43 F3018.7
G1 X39.40 Y80.40 Z0.25 E21.48 F3085.8
G1 X39.90 Y81.40 Z0.25 E21.54 F3152.9
G1 X39.40 Y82.40 Z0.25 E21.60 F3219.9
G1 X39.90 Y83.40 Z0.25 E21.66 F3287.0
G1 X39.40 Y84.40 Z0.25 E21.72 F3354.1
G1 X39.90 Y85.40 Z0.25 E21.78 F3421.2
G1 X39.40 Y86.40 Z0.25 E21.83 F3488.3
G1 X39.90 Y87.40 Z0.25 E21.89 F3555.3
G1 X39.40 Y88.40 Z0.25 E21.95 F3622.4
G1 X39.90 Y89.40 Z0.25 E22.01 F3689.5
G1 X39.40 Y90.40 Z0.25 E22.07 F3756.6
G1 X39.90 Y91.40 Z0.25 E22.12 F3823.7
G1 X39.40 Y92.40 Z0.25 E22.18 F3890.8
G1 X39.90 Y93.40 Z0.25 E22.24 F3957.8
G1 X39.40 Y94.40 Z0.25 E22.30 F4024.9
G1 X39.90 Y95.40 Z0.25 E22.36 F4092.0
G1 X39.40 Y96.40 Z0.25 E22.41 F4159.1
G1 X39.90 Y97.40 Z0.25 E22.47 F4226.2
G1 X39.40 Y98.40 Z0.25 E22.53 F4293.3
G1 X39.90 Y99.40 Z0.25 E22.59 F4360.3
G1 X39.40 Y100.40 Z0.25 E22.65 F4427.4
G1 X39.90 Y101.40 Z0.25 E22.71 F4494.5
G1 X39.40 Y102.40 Z0.25 E22.76 F4561.6
G1 X39.90 Y103.40 Z0.25 E22.82 F4628.7
G1 X39.40 Y104.40 Z0.25 E22.88 F4695.7
G1 X39.90 Y105.40 Z0.25 E22.94 F4762.8
G1 X39.40 Y106.40 Z0.25 E23.00 F4829.9
G1 X39.90 Y107.40 Z0.25 E23.05 F4897.0
G1 X39.40 Y108.40 Z0.25 E23.11 F4964.1
G1 X39.90 Y109.40 Z0.25 E23.17 F5031.2
G1 X39.40 Y110.40 Z0.25 E23.23 F5098.2
G1 X39.90 Y111.40 Z0.25 E23.29 F5165.3
G1 X39.40 Y112.40 Z0.25 E23.34 F5232.4
G1 X39.90 Y113.40 Z0.25 E23.40 F5299.5
G1 X39.40 Y114.40 Z0.25 E23.46 F5366.6
G1 X39.90 Y115.40 Z0.25 E23.52 F5433.6
G1 X39.40 Y116.40 Z0.25 E23.58 F5500.7
G1 X39.90 Y117.40 Z0.25 E23.63 F5567.8
G1 X39.40 Y118.40 Z0.25 E23.69 F5634.9
G1 X39.90 Y119.40 Z0.25 E23.75 F5702.0
G1 X39.40 Y120.40 Z0.25 E23.81 F5769.1
G1 X39.90 Y121.40 Z0.25 E23.87 F5836.1
G1 X39.40 Y122.40 Z0.25 E23.93 F5903.2
G1 X39.90 Y123.40 Z0.25 E23.98 F5970.3
G1 X39.40 Y124.40 Z0.25 E24.04 F6037.4
G1 X39.90 Y125.40 Z0.25 E24.10 F6104.5
G1 X39.40 Y126.40 Z0.25 E24.16 F6171.5
G1 X39.90 Y127.40 Z0.25 E24.22 F6238.6
G1 X39.40 Y128.40 Z0.25 E24.27 F6305.7
G1 X39.90 Y129.40 Z0.25 E24.33 F6372.8
G1 X39.40 Y130.40 Z0.25 E24.39 F6439.9
G1 X39.90 Y131.40 Z0.25 E24.45 F6507.0
G1 X39.40 Y132.40 Z0.25 E24.51 F6574.0
G1 X39.90 Y133.40 Z0.25 E24.56 F6641.1
G1 X39.40 Y134.40 Z0.25 E24.62 F6708.2
G1 X39.90 Y135.40 Z0.25 E24.68 F6775.3
G1 X39.40 Y136.40 Z0.25 E24.74 F6842.4
G1 X39.90 Y137.40 Z0.25 E24.80 F6909.5
G1 X39.40 Y138.40 Z0.25 E24.85 F6976.5
G1 X39.90 Y139.40 Z0.25 E24.91 F7043.6
G1 X39.40 Y140.40 Z0.25 E24.97 F7110.7
G1 X39.90 Y141.40 Z0.25 E25.03 F7177.8
G1 X39.40 Y142.40 Z0.25 E25.09 F7244.9
G1 X39.90 Y143.40 Z0.25 E25.15 F7311.9
G1 X39.40 Y144.40 Z0.25 E25.20 F7379.0
G1 X39.90 Y145.40 Z0.25 E25.26 F7446.1
G1 X39.40 Y146.40 Z0.25 E25.32 F7513.2
G1 X39.90 Y147.40 Z0.25 E25.38 F7580.3
G1 X39.40 Y148.40 Z0.25 E25.44 F7647.4
G1 X39.90 Y149.40 Z0.25 E25.49 F7714.4
G1 X39.40 Y150.40 Z0.25 E25.55 F7781.5
G1 X39.90 Y151.40 Z0.25 E25.61 F7848.6
G1 X39.40 Y152.40 Z0.25 E25.67 F7915.7
G1 X39.90 Y153.40 Z0.25 E25.73 F7982.8
G1 X39.40 Y154.40 Z0.25 E25.78 F8049.8
M201 X1000 Y1000
M205 X20 Y20
M205 J0.3
G1 X39.40 Y161.60 Z0.25 E26.16

G0 X44.40 Y161.60 Z0.25 E26.16 F5400.0
M593 X D0.10
G1 X44.40 Y154.40 Z0.25 E26.53 F8049.8
M203 X500 Y500 ; maximum feedrates
M204 P10000 ; print acceleration
M201 X10000 Y10000 ; max acceleration
M205 X500.00 Y500.00 ; jerk limits very high
M205 J0.3 ; junction deviation maximum
G1 X44.90 Y153.40 Z0.25 E26.59 F8049.8
G1 X44.40 Y152.40 Z0.25 E26.65 F7982.8
G1 X44.90 Y151.40 Z0.25 E26.71 F7915.7
G1 X44.40 Y150.40 Z0.25 E26.77 F7848.6
G1 X44.90 Y149.40 Z0.25 E26.82 F7781.5
G1 X44.40 Y148.40 Z0.25 E26.88 F7714.4
G1 X44.90 Y147.40 Z0.25 E26.94 F7647.4
G1 X44.40 Y146.40 Z0.25 E27.00 F7580.3
G1 X44.90 Y145.40 Z0.25 E27.06 F7513.2
G1 X44.40 Y144.40 Z0.25 E27.11 F7446.1
G1 X44.90 Y143.40 Z0.25 E27.17 F7379.0
G1 X44.40 Y142.40 Z0.25 E27.23 F7311.9
G1 X44.90 Y141.40 Z0.25 E27.29 F7244.9
G1 X44.40 Y140.40 Z0.25 E27.35 F7177.8
G1 X44.90 Y139.40 Z0.25 E27.40 F7110.7
G1 X44.40 Y138.40 Z0.25 E27.46 F7043.6
G1 X44.90 Y137.40 Z0.25 E27.52 F6976.5
G1 X44.40 Y136.40 Z0.25 E27.58 F6909.5
G1 X44.90 Y135.40 Z0.25 E27.64 F6842.4
G1 X44.40 Y134.40 Z0.25 E27.70 F6775.3
G1 X44.90 Y133.40 Z0.25 E27.75 F6708.2
G1 X44.40 Y132.40 Z0.25 E27.81 F6641.1
G1 X44.90 Y131.40 Z0.25 E27.87 F6574.0
G1 X44.40 Y130.40 Z0.25 E27.93 F6507.0
G1 X44.90 Y129.40 Z0.25 E27.99 F6439.9
G1 X44.40 Y128.40 Z0.25 E28.04 F6372.8
G1 X44.90 Y127.40 Z0.25 E28.10 F6305.7
G1 X44.40 Y126.40 Z0.25 E28.16 F6238.6
G1 X44.90 Y125.40 Z0.25 E28.22 F6171.5
G1 X44.40 Y124.40 Z0.25 E28.28 F6104.5
G1 X44.90 Y123.40 Z0.25 E28.33 F6037.4
G1 X44.40 Y122.40 Z0.25 E28.39 F5970.3
G1 X44.90 Y121.40 Z0.25 E28.45 F5903.2
G1 X44.40 Y120.40 Z0.25 E28.51 F5836.1
G1 X44.90 Y119.40 Z0.25 E28.57 F5769.1
G1 X44.40 Y118.40 Z0.25 E28.62 F5702.0
G1 X44.90 Y117.40 Z0.25 E28.68 F5634.9
G1 X44.40 Y116.40 Z0.25 E28.74 F5567.8
G1 X44.90 Y115.40 Z0.25 E28.80 F5500.7
G1 X44.40 Y114.40 Z0.25 E28.86 F5433.6
G1 X44.90 Y113.40 Z0.25 E28.92 F5366.6
G1 X44.40 Y112.40 Z0.25 E28.97 F5299.5
G1 X44.90 Y111.40 Z0.25 E29.03 F5232.4
G1 X44.40 Y110.40 Z0.25 E29.09 F5165.3
G1 X44.90 Y109.40 Z0.25 E29.15 F5098.2
G1 X44.40 Y108.40 Z0.25 E29.21 F5031.2
G1 X44.90 Y107.40 Z0.25 E29.26 F4964.1
G1 X44.40 Y106.40 Z0.25 E29.32 F4897.0
G1 X44.90 Y105.40 Z0.25 E29.38 F4829.9
G1 X44.40 Y104.40 Z0.25 E29.44 F4762.8
G1 X44.90 Y103.40 Z0.25 E29.50 F4695.7
G1 X44.40 Y102.40 Z0.25 E29.55 F4628.7
G1 X44.90 Y101.40 Z0.25 E29.61 F4561.6
G1 X44.40 Y100.40 Z0.25 E29.67 F4494.5
G1 X44.90 Y99.40 Z0.25 E29.73 F4427.4
G1 X44.40 Y98.40 Z0.25 E29.79 F4360.3
G1 X44.90 Y97.40 Z0.25 E29.84 F4293.3
G1 X44.40 Y96.40 Z0.25 E29.90 F4226.2
G1 X44.90 Y95.40 Z0.25 E29.96 F4159.1
G1 X44.40 Y94.40 Z0.25 E30.02 F4092.0
G1 X44.90 Y93.40 Z0.25 E30.08 F4024.9
G1 X44.40 Y92.40 Z0.25 E30.14 F3957.8
G1 X44.90 Y91.40 Z0.25 E30.19 F3890.8
G1 X44.40 Y90.40 Z0.25 E30.25 F3823.7
G1 X44.90 Y89.40 Z0.25 E30.31 F3756.6
G1 X44.40 Y88.40 Z0.25 E30.37 F3689.5
G1 X44.90 Y87.40 Z0.25 E30.43 F3622.4
G1 X44.40 Y86.40 Z0.25 E30.48 F3555.3
G1 X44.90 Y85.40 Z0.25 E30.54 F3488.3
G1 X44.40 Y84.40 Z0.25 E30.60 F3421.2
G1 X44.90 Y83.40 Z0.25 E30.66 F3354.1
G1 X44.40 Y82.40 Z0.25 E30.72 F3287.0
G1 X44.90 Y81.40 Z0.25 E30.77 F3219.9
G1 X44.40 Y80.40 Z0.25 E30.83 F3152.9
G1 X44.90 Y79.40 Z0.25 E30.89 F3085.8
G1 X44.40 Y78.40 Z0.25 E30.95 F3018.7
G1 X44.90 Y77.40 Z0.25 E31.01 F2951.6
G1 X44.40 Y76.40 Z0.25 E31.07 F2884.5
G1 X44.90 Y75.40 Z0.25 E31.12 F2817.4
G1 X44.40 Y74.40 Z0.25 E31.18 F2750.4
G1 X44.90 Y73.40 Z0.25 E31.24 F2683.3
G1 X44.40 Y72.40 Z0.25 E31.30 F2616.2
G1 X44.90 Y71.40 Z0.25 E31.36 F2549.1
G1 X44.40 Y70.40 Z0.25 E31.41 F2482.0
G1 X44.90 Y69.40 Z0.25 E31.47 F2415.0
G1 X44.40 Y68.40 Z0.25 E31.53 F2347.9
G1 X44.90 Y67.40 Z0.25 E31.59 F2280.8
G1 X44.40 Y66.40 Z0.25 E31.65 F2213.7
G1 X44.90 Y65.40 Z0.25 E31.70 F2146.6
G1 X44.40 Y64.40 Z0.25 E31.76 F2079.5
G1 X44.90 Y63.40 Z0.25 E31.82 F2012.5
G1 X44.40 Y62.40 Z0.25 E31.88 F1945.4
G1 X44.90 Y61.40 Z0.25 E31.94 F1878.3
G1 X44.40 Y60.40 Z0.25 E31.99 F1811.2
G1 X44.90 Y59.40 Z0.25 E32.05 F1744.1
G1 X44.40 Y58.40 Z0.25 E32.11 F1677.1
G1 X44.90 Y57.40 Z0.25 E32.17 F1610.0
G1 X44.40 Y56.40 Z0.25 E32.23 F1542.9
G1 X44.90 Y55.40 Z0.25 E32.29 F1475.8
G1 X44.40 Y54.40 Z0.25 E32.34 F1408.7
G1 X44.90 Y53.40 Z0.25 E32.40 F1341.6
G1 X44.40 Y52.40 Z0.25 E32.46 F1274.6
G1 X44.90 Y51.40 Z0.25 E32.52 F1207.5
G1 X44.40 Y50.40 Z0.25 E32.58 F1140.4
G1 X44.90 Y49.40 Z0.25 E32.63 F1073.3
G1 X44.40 Y48.40 Z0.25 E32.69 F1006.2
G1 X44.90 Y47.40 Z0.25 E32.75 F939.1
G1 X44.40 Y46.40 Z0.25 E32.81 F872.1
G1 X44.90 Y45.40 Z0.25 E32.87 F805.0
G1 X44.40 Y44.40 Z0.25 E32.92 F737.9
G1 X44.90 Y43.40 Z0.25 E32.98 F670.8
G1 X44.40 Y42.40 Z0.25 E33.04 F603.7
G1 X44.90 Y41.40 Z0.25 E33.10 F536.7
G1 X44.40 Y40.40 Z0.25 E33.16 F469.6
G1 X44.90 Y39.40 Z0.25 E33.21 F402.5
G1 X44.40 Y38.40 Z0.25 E33.27 F335.4
G1 X44.90 Y37.40 Z0.25 E33.33 F268.3
G1 X44.40 Y36.40 Z0.25 E33.39 F201.2
G1 X44.90 Y35.40 Z0.25 E33.45 F134.2
G1 X44.40 Y34.40 Z0.25 E33.51 F67.1
M201 X1000 Y1000
M205 X20 Y20
M205 J0.3
G0 X49.40 Y34.40 Z0.25 E33.51 F5400.0
M593 X D0.15
M203 X500 Y500 ; maximum feedrates
M204 P10000 ; print acceleration
M201 X10000 Y10000 ; max acceleration
M205 X500.00 Y500.00 ; jerk limits very high
M205 J0.3 ; junction deviation maximum
G1 X49.90 Y35.40 Z0.25 E33.56 F67.1
G1 X49.40 Y36.40 Z0.25 E33.62 F134.2
G1 X49.90 Y37.40 Z0.25 E33.68 F201.2
G1 X49.40 Y38.40 Z0.25 E33.74 F268.3
G1 X49.90 Y39.40 Z0.25 E33.80 F335.4
G1 X49.40 Y40.40 Z0.25 E33.85 F402.5
G1 X49.90 Y41.40 Z0.25 E33.91 F469.6
G1 X49.40 Y42.40 Z0.25 E33.97 F536.7
G1 X49.90 Y43.40 Z0.25 E34.03 F603.7
G1 X49.40 Y44.40 Z0.25 E34.09 F670.8
G1 X49.90 Y45.40 Z0.25 E34.14 F737.9
G1 X49.40 Y46.40 Z0.25 E34.20 F805.0
G1 X49.90 Y47.40 Z0.25 E34.26 F872.1
G1 X49.40 Y48.40 Z0.25 E34.32 F939.1
G1 X49.90 Y49.40 Z0.25 E34.38 F1006.2
G1 X49.40 Y50.40 Z0.25 E34.43 F1073.3
G1 X49.90 Y51.40 Z0.25 E34.49 F1140.4
G1 X49.40 Y52.40 Z0.25 E34.55 F1207.5
G1 X49.90 Y53.40 Z0.25 E34.61 F1274.6
G1 X49.40 Y54.40 Z0.25 E34.67 F1341.6
G1 X49.90 Y55.40 Z0.25 E34.73 F1408.7
G1 X49.40 Y56.40 Z0.25 E34.78 F1475.8
G1 X49.90 Y57.40 Z0.25 E34.84 F1542.9
G1 X49.40 Y58.40 Z0.25 E34.90 F1610.0
G1 X49.90 Y59.40 Z0.25 E34.96 F1677.1
G1 X49.40 Y60.40 Z0.25 E35.02 F1744.1
G1 X49.90 Y61.40 Z0.25 E35.07 F1811.2
G1 X49.40 Y62.40 Z0.25 E35.13 F1878.3
G1 X49.90 Y63.40 Z0.25 E35.19 F1945.4
G1 X49.40 Y64.40 Z0.25 E35.25 F2012.5
G1 X49.90 Y65.40 Z0.25 E35.31 F2079.5
G1 X49.40 Y66.40 Z0.25 E35.36 F2146.6
G1 X49.90 Y67.40 Z0.25 E35.42 F2213.7
G1 X49.40 Y68.40 Z0.25 E35.48 F2280.8
G1 X49.90 Y69.40 Z0.25 E35.54 F2347.9
G1 X49.40 Y70.40 Z0.25 E35.60 F2415.0
G1 X49.90 Y71.40 Z0.25 E35.66 F2482.0
G1 X49.40 Y72.40 Z0.25 E35.71 F2549.1
G1 X49.90 Y73.40 Z0.25 E35.77 F2616.2
G1 X49.40 Y74.40 Z0.25 E35.83 F2683.3
G1 X49.90 Y75.40 Z0.25 E35.89 F2750.4
G1 X49.40 Y76.40 Z0.25 E35.95 F2817.4
G1 X49.90 Y77.40 Z0.25 E36.00 F2884.5
G1 X49.40 Y78.40 Z0.25 E36.06 F2951.6
G1 X49.90 Y79.40 Z0.25 E36.12 F3018.7
G1 X49.40 Y80.40 Z0.25 E36.18 F3085.8
G1 X49.90 Y81.40 Z0.25 E36.24 F3152.9
G1 X49.40 Y82.40 Z0.25 E36.29 F3219.9
G1 X49.90 Y83.40 Z0.25 E36.35 F3287.0
G1 X49.40 Y84.40 Z0.25 E36.41 F3354.1
G1 X49.90 Y85.40 Z0.25 E36.47 F3421.2
G1 X49.40 Y86.40 Z0.25 E36.53 F3488.3
G1 X49.90 Y87.40 Z0.25 E36.58 F3555.3
G1 X49.40 Y88.40 Z0.25 E36.64 F3622.4
G1 X49.90 Y89.40 Z0.25 E36.70 F3689.5
G1 X49.40 Y90.40 Z0.25 E36.76 F3756.6
G1 X49.90 Y91.40 Z0.25 E36.82 F3823.7
G1 X49.40 Y92.40 Z0.25 E36.88 F3890.8
G1 X49.90 Y93.40 Z0.25 E36.93 F3957.8
G1 X49.40 Y94.40 Z0.25 E36.99 F4024.9
G1 X49.90 Y95.40 Z0.25 E37.05 F4092.0
G1 X49.40 Y96.40 Z0.25 E37.11 F4159.1
G1 X49.90 Y97.40 Z0.25 E37.17 F4226.2
G1 X49.40 Y98.40 Z0.25 E37.22 F4293.3
G1 X49.90 Y99.40 Z0.25 E37.28 F4360.3
G1 X49.40 Y100.40 Z0.25 E37.34 F4427.4
G1 X49.90 Y101.40 Z0.25 E37.40 F4494.5
G1 X49.40 Y102.40 Z0.25 E37.46 F4561.6
G1 X49.90 Y103.40 Z0.25 E37.51 F4628.7
G1 X49.40 Y104.40 Z0.25 E37.57 F4695.7
G1 X49.90 Y105.40 Z0.25 E37.63 F4762.8
G1 X49.40 Y106.40 Z0.25 E37.69 F4829.9
G1 X49.90 Y107.40 Z0.25 E37.75 F4897.0
G1 X49.40 Y108.40 Z0.25 E37.80 F4964.1
G1 X49.90 Y109.40 Z0.25 E37.86 F5031.2
G1 X49.40 Y110.40 Z0.25 E37.92 F5098.2
G1 X49.90 Y111.40 Z0.25 E37.98 F5165.3
G1 X49.40 Y112.40 Z0.25 E38.04 F5232.4
G1 X49.90 Y113.40 Z0.25 E38.10 F5299.5
G1 X49.40 Y114.40 Z0.25 E38.15 F5366.6
G1 X49.90 Y115.40 Z0.25 E38.21 F5433.6
G1 X49.40 Y116.40 Z0.25 E38.27 F5500.7
G1 X49.90 Y117.40 Z0.25 E38.33 F5567.8
G1 X49.40 Y118.40 Z0.25 E38.39 F5634.9
G1 X49.90 Y119.40 Z0.25 E38.44 F5702.0
G1 X49.40 Y120.40 Z0.25 E38.50 F5769.1
G1 X49.90 Y121.40 Z0.25 E38.56 F5836.1
G1 X49.40 Y122.40 Z0.25 E38.62 F5903.2
G1 X49.90 Y123.40 Z0.25 E38.68 F5970.3
G1 X49.40 Y124.40 Z0.25 E38.73 F6037.4
G1 X49.90 Y125.40 Z0.25 E38.79 F6104.5
G1 X49.40 Y126.40 Z0.25 E38.85 F6171.5
G1 X49.90 Y127.40 Z0.25 E38.91 F6238.6
G1 X49.40 Y128.40 Z0.25 E38.97 F6305.7
G1 X49.90 Y129.40 Z0.25 E39.03 F6372.8
G1 X49.40 Y130.40 Z0.25 E39.08 F6439.9
G1 X49.90 Y131.40 Z0.25 E39.14 F6507.0
G1 X49.40 Y132.40 Z0.25 E39.20 F6574.0
G1 X49.90 Y133.40 Z0.25 E39.26 F6641.1
G1 X49.40 Y134.40 Z0.25 E39.32 F6708.2
G1 X49.90 Y135.40 Z0.25 E39.37 F6775.3
G1 X49.40 Y136.40 Z0.25 E39.43 F6842.4
G1 X49.90 Y137.40 Z0.25 E39.49 F6909.5
G1 X49.40 Y138.40 Z0.25 E39.55 F6976.5
G1 X49.90 Y139.40 Z0.25 E39.61 F7043.6
G1 X49.40 Y140.40 Z0.25 E39.66 F7110.7
G1 X49.90 Y141.40 Z0.25 E39.72 F7177.8
G1 X49.40 Y142.40 Z0.25 E39.78 F7244.9
G1 X49.90 Y143.40 Z0.25 E39.84 F7311.9
G1 X49.40 Y144.40 Z0.25 E39.90 F7379.0
G1 X49.90 Y145.40 Z0.25 E39.95 F7446.1
G1 X49.40 Y146.40 Z0.25 E40.01 F7513.2
G1 X49.90 Y147.40 Z0.25 E40.07 F7580.3
G1 X49.40 Y148.40 Z0.25 E40.13 F7647.4
G1 X49.90 Y149.40 Z0.25 E40.19 F7714.4
G1 X49.40 Y150.40 Z0.25 E40.25 F7781.5
G1 X49.90 Y151.40 Z0.25 E40.30 F7848.6
G1 X49.40 Y152.40 Z0.25 E40.36 F7915.7
G1 X49.90 Y153.40 Z0.25 E40.42 F7982.8
G1 X49.40 Y154.40 Z0.25 E40.48 F8049.8
M201 X1000 Y1000
M205 X20 Y20
M205 J0.3
G1 X49.40 Y161.60 Z0.25 E40.85

G0 X54.40 Y161.60 Z0.25 E40.85 F5400.0
M593 X D0.20
G1 X54.40 Y154.40 Z0.25 E41.23 F8049.8
M203 X500 Y500 ; maximum feedrates
M204 P10000 ; print acceleration
M201 X10000 Y10000 ; max acceleration
M205 X500.00 Y500.00 ; jerk limits very high
M205 J0.3 ; junction deviation maximum
G1 X54.90 Y153.40 Z0.25 E41.28 F8049.8
G1 X54.40 Y152.40 Z0.25 E41.34 F7982.8
G1 X54.90 Y151.40 Z0.25 E41.40 F7915.7
G1 X54.40 Y150.40 Z0.25 E41.46 F7848.6
G1 X54.90 Y149.40 Z0.25 E41.52 F7781.5
G1 X54.40 Y148.40 Z0.25 E41.57 F7714.4
G1 X54.90 Y147.40 Z0.25 E41.63 F7647.4
G1 X54.40 Y146.40 Z0.25 E41.69 F7580.3
G1 X54.90 Y145.40 Z0.25 E41.75 F7513.2
G1 X54.40 Y144.40 Z0.25 E41.81 F7446.1
G1 X54.90 Y143.40 Z0.25 E41.87 F7379.0
G1 X54.40 Y142.40 Z0.25 E41.92 F7311.9
G1 X54.90 Y141.40 Z0.25 E41.98 F7244.9
G1 X54.40 Y140.40 Z0.25 E42.04 F7177.8
G1 X54.90 Y139.40 Z0.25 E42.10 F7110.7
G1 X54.40 Y138.40 Z0.25 E42.16 F7043.6
G1 X54.90 Y137.40 Z0.25 E42.21 F6976.5
G1 X54.40 Y136.40 Z0.25 E42.27 F6909.5
G1 X54.90 Y135.40 Z0.25 E42.33 F6842.4
G1 X54.40 Y134.40 Z0.25 E42.39 F6775.3
G1 X54.90 Y133.40 Z0.25 E42.45 F6708.2
G1 X54.40 Y132.40 Z0.25 E42.50 F6641.1
G1 X54.90 Y131.40 Z0.25 E42.56 F6574.0
G1 X54.40 Y130.40 Z0.25 E42.62 F6507.0
G1 X54.90 Y129.40 Z0.25 E42.68 F6439.9
G1 X54.40 Y128.40 Z0.25 E42.74 F6372.8
G1 X54.90 Y127.40 Z0.25 E42.79 F6305.7
G1 X54.40 Y126.40 Z0.25 E42.85 F6238.6
G1 X54.90 Y125.40 Z0.25 E42.91 F6171.5
G1 X54.40 Y124.40 Z0.25 E42.97 F6104.5
G1 X54.90 Y123.40 Z0.25 E43.03 F6037.4
G1 X54.40 Y122.40 Z0.25 E43.09 F5970.3
G1 X54.90 Y121.40 Z0.25 E43.14 F5903.2
G1 X54.40 Y120.40 Z0.25 E43.20 F5836.1
G1 X54.90 Y119.40 Z0.25 E43.26 F5769.1
G1 X54.40 Y118.40 Z0.25 E43.32 F5702.0
G1 X54.90 Y117.40 Z0.25 E43.38 F5634.9
G1 X54.40 Y116.40 Z0.25 E43.43 F5567.8
G1 X54.90 Y115.40 Z0.25 E43.49 F5500.7
G1 X54.40 Y114.40 Z0.25 E43.55 F5433.6
G1 X54.90 Y113.40 Z0.25 E43.61 F5366.6
G1 X54.40 Y112.40 Z0.25 E43.67 F5299.5
G1 X54.90 Y111.40 Z0.25 E43.72 F5232.4
G1 X54.40 Y110.40 Z0.25 E43.78 F5165.3
G1 X54.90 Y109.40 Z0.25 E43.84 F5098.2
G1 X54.40 Y108.40 Z0.25 E43.90 F5031.2
G1 X54.90 Y107.40 Z0.25 E43.96 F4964.1
G1 X54.40 Y106.40 Z0.25 E44.02 F4897.0
G1 X54.90 Y105.40 Z0.25 E44.07 F4829.9
G1 X54.40 Y104.40 Z0.25 E44.13 F4762.8
G1 X54.90 Y103.40 Z0.25 E44.19 F4695.7
G1 X54.40 Y102.40 Z0.25 E44.25 F4628.7
G1 X54.90 Y101.40 Z0.25 E44.31 F4561.6
G1 X54.40 Y100.40 Z0.25 E44.36 F4494.5
G1 X54.90 Y99.40 Z0.25 E44.42 F4427.4
G1 X54.40 Y98.40 Z0.25 E44.48 F4360.3
G1 X54.90 Y97.40 Z0.25 E44.54 F4293.3
G1 X54.40 Y96.40 Z0.25 E44.60 F4226.2
G1 X54.90 Y95.40 Z0.25 E44.65 F4159.1
G1 X54.40 Y94.40 Z0.25 E44.71 F4092.0
G1 X54.90 Y93.40 Z0.25 E44.77 F4024.9
G1 X54.40 Y92.40 Z0.25 E44.83 F3957.8
G1 X54.90 Y91.40 Z0.25 E44.89 F3890.8
G1 X54.40 Y90.40 Z0.25 E44.94 F3823.7
G1 X54.90 Y89.40 Z0.25 E45.00 F3756.6
G1 X54.40 Y88.40 Z0.25 E45.06 F3689.5
G1 X54.90 Y87.40 Z0.25 E45.12 F3622.4
G1 X54.40 Y86.40 Z0.25 E45.18 F3555.3
G1 X54.90 Y85.40 Z0.25 E45.24 F3488.3
G1 X54.40 Y84.40 Z0.25 E45.29 F3421.2
G1 X54.90 Y83.40 Z0.25 E45.35 F3354.1
G1 X54.40 Y82.40 Z0.25 E45.41 F3287.0
G1 X54.90 Y81.40 Z0.25 E45.47 F3219.9
G1 X54.40 Y80.40 Z0.25 E45.53 F3152.9
G1 X54.90 Y79.40 Z0.25 E45.58 F3085.8
G1 X54.40 Y78.40 Z0.25 E45.64 F3018.7
G1 X54.90 Y77.40 Z0.25 E45.70 F2951.6
G1 X54.40 Y76.40 Z0.25 E45.76 F2884.5
G1 X54.90 Y75.40 Z0.25 E45.82 F2817.4
G1 X54.40 Y74.40 Z0.25 E45.87 F2750.4
G1 X54.90 Y73.40 Z0.25 E45.93 F2683.3
G1 X54.40 Y72.40 Z0.25 E45.99 F2616.2
G1 X54.90 Y71.40 Z0.25 E46.05 F2549.1
G1 X54.40 Y70.40 Z0.25 E46.11 F2482.0
G1 X54.90 Y69.40 Z0.25 E46.16 F2415.0
G1 X54.40 Y68.40 Z0.25 E46.22 F2347.9
G1 X54.90 Y67.40 Z0.25 E46.28 F2280.8
G1 X54.40 Y66.40 Z0.25 E46.34 F2213.7
G1 X54.90 Y65.40 Z0.25 E46.40 F2146.6
G1 X54.40 Y64.40 Z0.25 E46.46 F2079.5
G1 X54.90 Y63.40 Z0.25 E46.51 F2012.5
G1 X54.40 Y62.40 Z0.25 E46.57 F1945.4
G1 X54.90 Y61.40 Z0.25 E46.63 F1878.3
G1 X54.40 Y60.40 Z0.25 E46.69 F1811.2
G1 X54.90 Y59.40 Z0.25 E46.75 F1744.1
G1 X54.40 Y58.40 Z0.25 E46.80 F1677.1
G1 X54.90 Y57.40 Z0.25 E46.86 F1610.0
G1 X54.40 Y56.40 Z0.25 E46.92 F1542.9
G1 X54.90 Y55.40 Z0.25 E46.98 F1475.8
G1 X54.40 Y54.40 Z0.25 E47.04 F1408.7
G1 X54.90 Y53.40 Z0.25 E47.09 F1341.6
G1 X54.40 Y52.40 Z0.25 E47.15 F1274.6
G1 X54.90 Y51.40 Z0.25 E47.21 F1207.5
G1 X54.40 Y50.40 Z0.25 E47.27 F1140.4
G1 X54.90 Y49.40 Z0.25 E47.33 F1073.3
G1 X54.40 Y48.40 Z0.25 E47.38 F1006.2
G1 X54.90 Y47.40 Z0.25 E47.44 F939.1
G1 X54.40 Y46.40 Z0.25 E47.50 F872.1
G1 X54.90 Y45.40 Z0.25 E47.56 F805.0
G1 X54.40 Y44.40 Z0.25 E47.62 F737.9
G1 X54.90 Y43.40 Z0.25 E47.68 F670.8
G1 X54.40 Y42.40 Z0.25 E47.73 F603.7
G1 X54.90 Y41.40 Z0.25 E47.79 F536.7
G1 X54.40 Y40.40 Z0.25 E47.85 F469.6
G1 X54.90 Y39.40 Z0.25 E47.91 F402.5
G1 X54.40 Y38.40 Z0.25 E47.97 F335.4
G1 X54.90 Y37.40 Z0.25 E48.02 F268.3
G1 X54.40 Y36.40 Z0.25 E48.08 F201.2
G1 X54.90 Y35.40 Z0.25 E48.14 F134.2
G1 X54.40 Y34.40 Z0.25 E48.20 F67.1
M201 X1000 Y1000
M205 X20 Y20
M205 J0.3
G0 X59.40 Y34.40 Z0.25 E48.20 F5400.0
M593 X D0.25
M203 X500 Y500 ; maximum feedrates
M204 P10000 ; print acceleration
M201 X10000 Y10000 ; max acceleration
M205 X500.00 Y500.00 ; jerk limits very high
M205 J0.3 ; junction deviation maximum
G1 X59.90 Y35.40 Z0.25 E48.26 F67.1
G1 X59.40 Y36.40 Z0.25 E48.31 F134.2
G1 X59.90 Y37.40 Z0.25 E48.37 F201.2
G1 X59.40 Y38.40 Z0.25 E48.43 F268.3
G1 X59.90 Y39.40 Z0.25 E48.49 F335.4
G1 X59.40 Y40.40 Z0.25 E48.55 F402.5
G1 X59.90 Y41.40 Z0.25 E48.61 F469.6
G1 X59.40 Y42.40 Z0.25 E48.66 F536.7
G1 X59.90 Y43.40 Z0.25 E48.72 F603.7
G1 X59.40 Y44.40 Z0.25 E48.78 F670.8
G1 X59.90 Y45.40 Z0.25 E48.84 F737.9
G1 X59.40 Y46.40 Z0.25 E48.90 F805.0
G1 X59.90 Y47.40 Z0.25 E48.95 F872.1
G1 X59.40 Y48.40 Z0.25 E49.01 F939.1
G1 X59.90 Y49.40 Z0.25 E49.07 F1006.2
G1 X59.40 Y50.40 Z0.25 E49.13 F1073.3
G1 X59.90 Y51.40 Z0.25 E49.19 F1140.4
G1 X59.40 Y52.40 Z0.25 E49.24 F1207.5
G1 X59.90 Y53.40 Z0.25 E49.30 F1274.6
G1 X59.40 Y54.40 Z0.25 E49.36 F1341.6
G1 X59.90 Y55.40 Z0.25 E49.42 F1408.7
G1 X59.40 Y56.40 Z0.25 E49.48 F1475.8
G1 X59.90 Y57.40 Z0.25 E49.53 F1542.9
G1 X59.40 Y58.40 Z0.25 E49.59 F1610.0
G1 X59.90 Y59.40 Z0.25 E49.65 F1677.1
G1 X59.40 Y60.40 Z0.25 E49.71 F1744.1
G1 X59.90 Y61.40 Z0.25 E49.77 F1811.2
G1 X59.40 Y62.40 Z0.25 E49.83 F1878.3
G1 X59.90 Y63.40 Z0.25 E49.88 F1945.4
G1 X59.40 Y64.40 Z0.25 E49.94 F2012.5
G1 X59.90 Y65.40 Z0.25 E50.00 F2079.5
G1 X59.40 Y66.40 Z0.25 E50.06 F2146.6
G1 X59.90 Y67.40 Z0.25 E50.12 F2213.7
G1 X59.40 Y68.40 Z0.25 E50.17 F2280.8
G1 X59.90 Y69.40 Z0.25 E50.23 F2347.9
G1 X59.40 Y70.40 Z0.25 E50.29 F2415.0
G1 X59.90 Y71.40 Z0.25 E50.35 F2482.0
G1 X59.40 Y72.40 Z0.25 E50.41 F2549.1
G1 X59.90 Y73.40 Z0.25 E50.46 F2616.2
G1 X59.40 Y74.40 Z0.25 E50.52 F2683.3
G1 X59.90 Y75.40 Z0.25 E50.58 F2750.4
G1 X59.40 Y76.40 Z0.25 E50.64 F2817.4
G1 X59.90 Y77.40 Z0.25 E50.70 F2884.5
G1 X59.40 Y78.40 Z0.25 E50.75 F2951.6
G1 X59.90 Y79.40 Z0.25 E50.81 F3018.7
G1 X59.40 Y80.40 Z0.25 E50.87 F3085.8
G1 X59.90 Y81.40 Z0.25 E50.93 F3152.9
G1 X59.40 Y82.40 Z0.25 E50.99 F3219.9
G1 X59.90 Y83.40 Z0.25 E51.05 F3287.0
G1 X59.40 Y84.40 Z0.25 E51.10 F3354.1
G1 X59.90 Y85.40 Z0.25 E51.16 F3421.2
G1 X59.40 Y86.40 Z0.25 E51.22 F3488.3
G1 X59.90 Y87.40 Z0.25 E51.28 F3555.3
G1 X59.40 Y88.40 Z0.25 E51.34 F3622.4
G1 X59.90 Y89.40 Z0.25 E51.39 F3689.5
G1 X59.40 Y90.40 Z0.25 E51.45 F3756.6
G1 X59.90 Y91.40 Z0.25 E51.51 F3823.7
G1 X59.40 Y92.40 Z0.25 E51.57 F3890.8
G1 X59.90 Y93.40 Z0.25 E51.63 F3957.8
G1 X59.40 Y94.40 Z0.25 E51.68 F4024.9
G1 X59.90 Y95.40 Z0.25 E51.74 F4092.0
G1 X59.40 Y96.40 Z0.25 E51.80 F4159.1
G1 X59.90 Y97.40 Z0.25 E51.86 F4226.2
G1 X59.40 Y98.40 Z0.25 E51.92 F4293.3
G1 X59.90 Y99.40 Z0.25 E51.98 F4360.3
G1 X59.40 Y100.40 Z0.25 E52.03 F4427.4
G1 X59.90 Y101.40 Z0.25 E52.09 F4494.5
G1 X59.40 Y102.40 Z0.25 E52.15 F4561.6
G1 X59.90 Y103.40 Z0.25 E52.21 F4628.7
G1 X59.40 Y104.40 Z0.25 E52.27 F4695.7
G1 X59.90 Y105.40 Z0.25 E52.32 F4762.8
G1 X59.40 Y106.40 Z0.25 E52.38 F4829.9
G1 X59.90 Y107.40 Z0.25 E52.44 F4897.0
G1 X59.40 Y108.40 Z0.25 E52.50 F4964.1
G1 X59.90 Y109.40 Z0.25 E52.56 F5031.2
G1 X59.40 Y110.40 Z0.25 E52.61 F5098.2
G1 X59.90 Y111.40 Z0.25 E52.67 F5165.3
G1 X59.40 Y112.40 Z0.25 E52.73 F5232.4
G1 X59.90 Y113.40 Z0.25 E52.79 F5299.5
G1 X59.40 Y114.40 Z0.25 E52.85 F5366.6
G1 X59.90 Y115.40 Z0.25 E52.90 F5433.6
G1 X59.40 Y116.40 Z0.25 E52.96 F5500.7
G1 X59.90 Y117.40 Z0.25 E53.02 F5567.8
G1 X59.40 Y118.40 Z0.25 E53.08 F5634.9
G1 X59.90 Y119.40 Z0.25 E53.14 F5702.0
G1 X59.40 Y120.40 Z0.25 E53.20 F5769.1
G1 X59.90 Y121.40 Z0.25 E53.25 F5836.1
G1 X59.40 Y122.40 Z0.25 E53.31 F5903.2
G1 X59.90 Y123.40 Z0.25 E53.37 F5970.3
G1 X59.40 Y124.40 Z0.25 E53.43 F6037.4
G1 X59.90 Y125.40 Z0.25 E53.49 F6104.5
G1 X59.40 Y126.40 Z0.25 E53.54 F6171.5
G1 X59.90 Y127.40 Z0.25 E53.60 F6238.6
G1 X59.40 Y128.40 Z0.25 E53.66 F6305.7
G1 X59.90 Y129.40 Z0.25 E53.72 F6372.8
G1 X59.40 Y130.40 Z0.25 E53.78 F6439.9
G1 X59.90 Y131.40 Z0.25 E53.83 F6507.0
G1 X59.40 Y132.40 Z0.25 E53.89 F6574.0
G1 X59.90 Y133.40 Z0.25 E53.95 F6641.1
G1 X59.40 Y134.40 Z0.25 E54.01 F6708.2
G1 X59.90 Y135.40 Z0.25 E54.07 F6775.3
G1 X59.40 Y136.40 Z0.25 E54.12 F6842.4
G1 X59.90 Y137.40 Z0.25 E54.18 F6909.5
G1 X59.40 Y138.40 Z0.25 E54.24 F6976.5
G1 X59.90 Y139.40 Z0.25 E54.30 F7043.6
G1 X59.40 Y140.40 Z0.25 E54.36 F7110.7
G1 X59.90 Y141.40 Z0.25 E54.42 F7177.8
G1 X59.40 Y142.40 Z0.25 E54.47 F7244.9
G1 X59.90 Y143.40 Z0.25 E54.53 F7311.9
G1 X59.40 Y144.40 Z0.25 E54.59 F7379.0
G1 X59.90 Y145.40 Z0.25 E54.65 F7446.1
G1 X59.40 Y146.40 Z0.25 E54.71 F7513.2
G1 X59.90 Y147.40 Z0.25 E54.76 F7580.3
G1 X59.40 Y148.40 Z0.25 E54.82 F7647.4
G1 X59.90 Y149.40 Z0.25 E54.88 F7714.4
G1 X59.40 Y150.40 Z0.25 E54.94 F7781.5
G1 X59.90 Y151.40 Z0.25 E55.00 F7848.6
G1 X59.40 Y152.40 Z0.25 E55.05 F7915.7
G1 X59.90 Y153.40 Z0.25 E55.11 F7982.8
G1 X59.40 Y154.40 Z0.25 E55.17 F8049.8
M201 X1000 Y1000
M205 X20 Y20
M205 J0.3
G1 X59.40 Y161.60 Z0.25 E55.54

G0 X64.40 Y161.60 Z0.25 E55.54 F5400.0
M593 X D0.30
G1 X64.40 Y154.40 Z0.25 E55.92 F8049.8
M203 X500 Y500 ; maximum feedrates
M204 P10000 ; print acceleration
M201 X10000 Y10000 ; max acceleration
M205 X500.00 Y500.00 ; jerk limits very high
M205 J0.3 ; junction deviation maximum
G1 X64.90 Y153.40 Z0.25 E55.98 F8049.8
G1 X64.40 Y152.40 Z0.25 E56.04 F7982.8
G1 X64.90 Y151.40 Z0.25 E56.09 F7915.7
G1 X64.40 Y150.40 Z0.25 E56.15 F7848.6
G1 X64.90 Y149.40 Z0.25 E56.21 F7781.5
G1 X64.40 Y148.40 Z0.25 E56.27 F7714.4
G1 X64.90 Y147.40 Z0.25 E56.33 F7647.4
G1 X64.40 Y146.40 Z0.25 E56.38 F7580.3
G1 X64.90 Y145.40 Z0.25 E56.44 F7513.2
G1 X64.40 Y144.40 Z0.25 E56.50 F7446.1
G1 X64.90 Y143.40 Z0.25 E56.56 F7379.0
G1 X64.40 Y142.40 Z0.25 E56.62 F7311.9
G1 X64.90 Y141.40 Z0.25 E56.67 F7244.9
G1 X64.40 Y140.40 Z0.25 E56.73 F7177.8
G1 X64.90 Y139.40 Z0.25 E56.79 F7110.7
G1 X64.40 Y138.40 Z0.25 E56.85 F7043.6
G1 X64.90 Y137.40 Z0.25 E56.91 F6976.5
G1 X64.40 Y136.40 Z0.25 E56.97 F6909.5
G1 X64.90 Y135.40 Z0.25 E57.02 F6842.4
G1 X64.40 Y134.40 Z0.25 E57.08 F6775.3
G1 X64.90 Y133.40 Z0.25 E57.14 F6708.2
G1 X64.40 Y132.40 Z0.25 E57.20 F6641.1
G1 X64.90 Y131.40 Z0.25 E57.26 F6574.0
G1 X64.40 Y130.40 Z0.25 E57.31 F6507.0
G1 X64.90 Y129.40 Z0.25 E57.37 F6439.9
G1 X64.40 Y128.40 Z0.25 E57.43 F6372.8
G1 X64.90 Y127.40 Z0.25 E57.49 F6305.7
G1 X64.40 Y126.40 Z0.25 E57.55 F6238.6
G1 X64.90 Y125.40 Z0.25 E57.60 F6171.5
G1 X64.40 Y124.40 Z0.25 E57.66 F6104.5
G1 X64.90 Y123.40 Z0.25 E57.72 F6037.4
G1 X64.40 Y122.40 Z0.25 E57.78 F5970.3
G1 X64.90 Y121.40 Z0.25 E57.84 F5903.2
G1 X64.40 Y120.40 Z0.25 E57.89 F5836.1
G1 X64.90 Y119.40 Z0.25 E57.95 F5769.1
G1 X64.40 Y118.40 Z0.25 E58.01 F5702.0
G1 X64.90 Y117.40 Z0.25 E58.07 F5634.9
G1 X64.40 Y116.40 Z0.25 E58.13 F5567.8
G1 X64.90 Y115.40 Z0.25 E58.19 F5500.7
G1 X64.40 Y114.40 Z0.25 E58.24 F5433.6
G1 X64.90 Y113.40 Z0.25 E58.30 F5366.6
G1 X64.40 Y112.40 Z0.25 E58.36 F5299.5
G1 X64.90 Y111.40 Z0.25 E58.42 F5232.4
G1 X64.40 Y110.40 Z0.25 E58.48 F5165.3
G1 X64.90 Y109.40 Z0.25 E58.53 F5098.2
G1 X64.40 Y108.40 Z0.25 E58.59 F5031.2
G1 X64.90 Y107.40 Z0.25 E58.65 F4964.1
G1 X64.40 Y106.40 Z0.25 E58.71 F4897.0
G1 X64.90 Y105.40 Z0.25 E58.77 F4829.9
G1 X64.40 Y104.40 Z0.25 E58.82 F4762.8
G1 X64.90 Y103.40 Z0.25 E58.88 F4695.7
G1 X64.40 Y102.40 Z0.25 E58.94 F4628.7
G1 X64.90 Y101.40 Z0.25 E59.00 F4561.6
G1 X64.40 Y100.40 Z0.25 E59.06 F4494.5
G1 X64.90 Y99.40 Z0.25 E59.11 F4427.4
G1 X64.40 Y98.40 Z0.25 E59.17 F4360.3
G1 X64.90 Y97.40 Z0.25 E59.23 F4293.3
G1 X64.40 Y96.40 Z0.25 E59.29 F4226.2
G1 X64.90 Y95.40 Z0.25 E59.35 F4159.1
G1 X64.40 Y94.40 Z0.25 E59.41 F4092.0
G1 X64.90 Y93.40 Z0.25 E59.46 F4024.9
G1 X64.40 Y92.40 Z0.25 E59.52 F3957.8
G1 X64.90 Y91.40 Z0.25 E59.58 F3890.8
G1 X64.40 Y90.40 Z0.25 E59.64 F3823.7
G1 X64.90 Y89.40 Z0.25 E59.70 F3756.6
G1 X64.40 Y88.40 Z0.25 E59.75 F3689.5
G1 X64.90 Y87.40 Z0.25 E59.81 F3622.4
G1 X64.40 Y86.40 Z0.25 E59.87 F3555.3
G1 X64.90 Y85.40 Z0.25 E59.93 F3488.3
G1 X64.40 Y84.40 Z0.25 E59.99 F3421.2
G1 X64.90 Y83.40 Z0.25 E60.04 F3354.1
G1 X64.40 Y82.40 Z0.25 E60.10 F3287.0
G1 X64.90 Y81.40 Z0.25 E60.16 F3219.9
G1 X64.40 Y80.40 Z0.25 E60.22 F3152.9
G1 X64.90 Y79.40 Z0.25 E60.28 F3085.8
G1 X64.40 Y78.40 Z0.25 E60.33 F3018.7
G1 X64.90 Y77.40 Z0.25 E60.39 F2951.6
G1 X64.40 Y76.40 Z0.25 E60.45 F2884.5
G1 X64.90 Y75.40 Z0.25 E60.51 F2817.4
G1 X64.40 Y74.40 Z0.25 E60.57 F2750.4
G1 X64.90 Y73.40 Z0.25 E60.63 F2683.3
G1 X64.40 Y72.40 Z0.25 E60.68 F2616.2
G1 X64.90 Y71.40 Z0.25 E60.74 F2549.1
G1 X64.40 Y70.40 Z0.25 E60.80 F2482.0
G1 X64.90 Y69.40 Z0.25 E60.86 F2415.0
G1 X64.40 Y68.40 Z0.25 E60.92 F2347.9
G1 X64.90 Y67.40 Z0.25 E60.97 F2280.8
G1 X64.40 Y66.40 Z0.25 E61.03 F2213.7
G1 X64.90 Y65.40 Z0.25 E61.09 F2146.6
G1 X64.40 Y64.40 Z0.25 E61.15 F2079.5
G1 X64.90 Y63.40 Z0.25 E61.21 F2012.5
G1 X64.40 Y62.40 Z0.25 E61.26 F1945.4
G1 X64.90 Y61.40 Z0.25 E61.32 F1878.3
G1 X64.40 Y60.40 Z0.25 E61.38 F1811.2
G1 X64.90 Y59.40 Z0.25 E61.44 F1744.1
G1 X64.40 Y58.40 Z0.25 E61.50 F1677.1
G1 X64.90 Y57.40 Z0.25 E61.56 F1610.0
G1 X64.40 Y56.40 Z0.25 E61.61 F1542.9
G1 X64.90 Y55.40 Z0.25 E61.67 F1475.8
G1 X64.40 Y54.40 Z0.25 E61.73 F1408.7
G1 X64.90 Y53.40 Z0.25 E61.79 F1341.6
G1 X64.40 Y52.40 Z0.25 E61.85 F1274.6
G1 X64.90 Y51.40 Z0.25 E61.90 F1207.5
G1 X64.40 Y50.40 Z0.25 E61.96 F1140.4
G1 X64.90 Y49.40 Z0.25 E62.02 F1073.3
G1 X64.40 Y48.40 Z0.25 E62.08 F1006.2
G1 X64.90 Y47.40 Z0.25 E62.14 F939.1
G1 X64.40 Y46.40 Z0.25 E62.19 F872.1
G1 X64.90 Y45.40 Z0.25 E62.25 F805.0
G1 X64.40 Y44.40 Z0.25 E62.31 F737.9
G1 X64.90 Y43.40 Z0.25 E62.37 F670.8
G1 X64.40 Y42.40 Z0.25 E62.43 F603.7
G1 X64.90 Y41.40 Z0.25 E62.48 F536.7
G1 X64.40 Y40.40 Z0.25 E62.54 F469.6
G1 X64.90 Y39.40 Z0.25 E62.60 F402.5
G1 X64.40 Y38.40 Z0.25 E62.66 F335.4
G1 X64.90 Y37.40 Z0.25 E62.72 F268.3
G1 X64.40 Y36.40 Z0.25 E62.78 F201.2
G1 X64.90 Y35.40 Z0.25 E62.83 F134.2
G1 X64.40 Y34.40 Z0.25 E62.89 F67.1
M201 X1000 Y1000
M205 X20 Y20
M205 J0.3
G0 X69.40 Y34.40 Z0.25 E62.89 F5400.0
M593 X D0.35
M203 X500 Y500 ; maximum feedrates
M204 P10000 ; print acceleration
M201 X10000 Y10000 ; max acceleration
M205 X500.00 Y500.00 ; jerk limits very high
M205 J0.3 ; junction deviation maximum
G1 X69.90 Y35.40 Z0.25 E62.95 F67.1
G1 X69.40 Y36.40 Z0.25 E63.01 F134.2
G1 X69.90 Y37.40 Z0.25 E63.07 F201.2
G1 X69.40 Y38.40 Z0.25 E63.12 F268.3
G1 X69.90 Y39.40 Z0.25 E63.18 F335.4
G1 X69.40 Y40.40 Z0.25 E63.24 F402.5
G1 X69.90 Y41.40 Z0.25 E63.30 F469.6
G1 X69.40 Y42.40 Z0.25 E63.36 F536.7
G1 X69.90 Y43.40 Z0.25 E63.41 F603.7
G1 X69.40 Y44.40 Z0.25 E63.47 F670.8
G1 X69.90 Y45.40 Z0.25 E63.53 F737.9
G1 X69.40 Y46.40 Z0.25 E63.59 F805.0
G1 X69.90 Y47.40 Z0.25 E63.65 F872.1
G1 X69.40 Y48.40 Z0.25 E63.70 F939.1
G1 X69.90 Y49.40 Z0.25 E63.76 F1006.2
G1 X69.40 Y50.40 Z0.25 E63.82 F1073.3
G1 X69.90 Y51.40 Z0.25 E63.88 F1140.4
G1 X69.40 Y52.40 Z0.25 E63.94 F1207.5
G1 X69.90 Y53.40 Z0.25 E64.00 F1274.6
G1 X69.40 Y54.40 Z0.25 E64.05 F1341.6
G1 X69.90 Y55.40 Z0.25 E64.11 F1408.7
G1 X69.40 Y56.40 Z0.25 E64.17 F1475.8
G1 X69.90 Y57.40 Z0.25 E64.23 F1542.9
G1 X69.40 Y58.40 Z0.25 E64.29 F1610.0
G1 X69.90 Y59.40 Z0.25 E64.34 F1677.1
G1 X69.40 Y60.40 Z0.25 E64.40 F1744.1
G1 X69.90 Y61.40 Z0.25 E64.46 F1811.2
G1 X69.40 Y62.40 Z0.25 E64.52 F1878.3
G1 X69.90 Y63.40 Z0.25 E64.58 F1945.4
G1 X69.40 Y64.40 Z0.25 E64.63 F2012.5
G1 X69.90 Y65.40 Z0.25 E64.69 F2079.5
G1 X69.40 Y66.40 Z0.25 E64.75 F2146.6
G1 X69.90 Y67.40 Z0.25 E64.81 F2213.7
G1 X69.40 Y68.40 Z0.25 E64.87 F2280.8
G1 X69.90 Y69.40 Z0.25 E64.93 F2347.9
G1 X69.40 Y70.40 Z0.25 E64.98 F2415.0
G1 X69.90 Y71.40 Z0.25 E65.04 F2482.0
G1 X69.40 Y72.40 Z0.25 E65.10 F2549.1
G1 X69.90 Y73.40 Z0.25 E65.16 F2616.2
G1 X69.40 Y74.40 Z0.25 E65.22 F2683.3
G1 X69.90 Y75.40 Z0.25 E65.27 F2750.4
G1 X69.40 Y76.40 Z0.25 E65.33 F2817.4
G1 X69.90 Y77.40 Z0.25 E65.39 F2884.5
G1 X69.40 Y78.40 Z0.25 E65.45 F2951.6
G1 X69.90 Y79.40 Z0.25 E65.51 F3018.7
G1 X69.40 Y80.40 Z0.25 E65.56 F3085.8
G1 X69.90 Y81.40 Z0.25 E65.62 F3152.9
G1 X69.40 Y82.40 Z0.25 E65.68 F3219.9
G1 X69.90 Y83.40 Z0.25 E65.74 F3287.0
G1 X69.40 Y84.40 Z0.25 E65.80 F3354.1
G1 X69.90 Y85.40 Z0.25 E65.85 F3421.2
G1 X69.40 Y86.40 Z0.25 E65.91 F3488.3
G1 X69.90 Y87.40 Z0.25 E65.97 F3555.3
G1 X69.40 Y88.40 Z0.25 E66.03 F3622.4
G1 X69.90 Y89.40 Z0.25 E66.09 F3689.5
G1 X69.40 Y90.40 Z0.25 E66.15 F3756.6
G1 X69.90 Y91.40 Z0.25 E66.20 F3823.7
G1 X69.40 Y92.40 Z0.25 E66.26 F3890.8
G1 X69.90 Y93.40 Z0.25 E66.32 F3957.8
G1 X69.40 Y94.40 Z0.25 E66.38 F4024.9
G1 X69.90 Y95.40 Z0.25 E66.44 F4092.0
G1 X69.40 Y96.40 Z0.25 E66.49 F4159.1
G1 X69.90 Y97.40 Z0.25 E66.55 F4226.2
G1 X69.40 Y98.40 Z0.25 E66.61 F4293.3
G1 X69.90 Y99.40 Z0.25 E66.67 F4360.3
G1 X69.40 Y100.40 Z0.25 E66.73 F4427.4
G1 X69.90 Y101.40 Z0.25 E66.78 F4494.5
G1 X69.40 Y102.40 Z0.25 E66.84 F4561.6
G1 X69.90 Y103.40 Z0.25 E66.90 F4628.7
G1 X69.40 Y104.40 Z0.25 E66.96 F4695.7
G1 X69.90 Y105.40 Z0.25 E67.02 F4762.8
G1 X69.40 Y106.40 Z0.25 E67.07 F4829.9
G1 X69.90 Y107.40 Z0.25 E67.13 F4897.0
G1 X69.40 Y108.40 Z0.25 E67.19 F4964.1
G1 X69.90 Y109.40 Z0.25 E67.25 F5031.2
G1 X69.40 Y110.40 Z0.25 E67.31 F5098.2
G1 X69.90 Y111.40 Z0.25 E67.37 F5165.3
G1 X69.40 Y112.40 Z0.25 E67.42 F5232.4
G1 X69.90 Y113.40 Z0.25 E67.48 F5299.5
G1 X69.40 Y114.40 Z0.25 E67.54 F5366.6
G1 X69.90 Y115.40 Z0.25 E67.60 F5433.6
G1 X69.40 Y116.40 Z0.25 E67.66 F5500.7
G1 X69.90 Y117.40 Z0.25 E67.71 F5567.8
G1 X69.40 Y118.40 Z0.25 E67.77 F5634.9
G1 X69.90 Y119.40 Z0.25 E67.83 F5702.0
G1 X69.40 Y120.40 Z0.25 E67.89 F5769.1
G1 X69.90 Y121.40 Z0.25 E67.95 F5836.1
G1 X69.40 Y122.40 Z0.25 E68.00 F5903.2
G1 X69.90 Y123.40 Z0.25 E68.06 F5970.3
G1 X69.40 Y124.40 Z0.25 E68.12 F6037.4
G1 X69.90 Y125.40 Z0.25 E68.18 F6104.5
G1 X69.40 Y126.40 Z0.25 E68.24 F6171.5
G1 X69.90 Y127.40 Z0.25 E68.30 F6238.6
G1 X69.40 Y128.40 Z0.25 E68.35 F6305.7
G1 X69.90 Y129.40 Z0.25 E68.41 F6372.8
G1 X69.40 Y130.40 Z0.25 E68.47 F6439.9
G1 X69.90 Y131.40 Z0.25 E68.53 F6507.0
G1 X69.40 Y132.40 Z0.25 E68.59 F6574.0
G1 X69.90 Y133.40 Z0.25 E68.64 F6641.1
G1 X69.40 Y134.40 Z0.25 E68.70 F6708.2
G1 X69.90 Y135.40 Z0.25 E68.76 F6775.3
G1 X69.40 Y136.40 Z0.25 E68.82 F6842.4
G1 X69.90 Y137.40 Z0.25 E68.88 F6909.5
G1 X69.40 Y138.40 Z0.25 E68.93 F6976.5
G1 X69.90 Y139.40 Z0.25 E68.99 F7043.6
G1 X69.40 Y140.40 Z0.25 E69.05 F7110.7
G1 X69.90 Y141.40 Z0.25 E69.11 F7177.8
G1 X69.40 Y142.40 Z0.25 E69.17 F7244.9
G1 X69.90 Y143.40 Z0.25 E69.22 F7311.9
G1 X69.40 Y144.40 Z0.25 E69.28 F7379.0
G1 X69.90 Y145.40 Z0.25 E69.34 F7446.1
G1 X69.40 Y146.40 Z0.25 E69.40 F7513.2
G1 X69.90 Y147.40 Z0.25 E69.46 F7580.3
G1 X69.40 Y148.40 Z0.25 E69.52 F7647.4
G1 X69.90 Y149.40 Z0.25 E69.57 F7714.4
G1 X69.40 Y150.40 Z0.25 E69.63 F7781.5
G1 X69.90 Y151.40 Z0.25 E69.69 F7848.6
G1 X69.40 Y152.40 Z0.25 E69.75 F7915.7
G1 X69.90 Y153.40 Z0.25 E69.81 F7982.8
G1 X69.40 Y154.40 Z0.25 E69.86 F8049.8
M201 X1000 Y1000
M205 X20 Y20
M205 J0.3
G1 X69.40 Y161.60 Z0.25 E70.24

G0 X74.40 Y161.60 Z0.25 E70.24 F5400.0
M593 X D0.40
G1 X74.40 Y154.40 Z0.25 E70.61 F8049.8
M203 X500 Y500 ; maximum feedrates
M204 P10000 ; print acceleration
M201 X10000 Y10000 ; max acceleration
M205 X500.00 Y500.00 ; jerk limits very high
M205 J0.3 ; junction deviation maximum
G1 X74.90 Y153.40 Z0.25 E70.67 F8049.8
G1 X74.40 Y152.40 Z0.25 E70.73 F7982.8
G1 X74.90 Y151.40 Z0.25 E70.79 F7915.7
G1 X74.40 Y150.40 Z0.25 E70.84 F7848.6
G1 X74.90 Y149.40 Z0.25 E70.90 F7781.5
G1 X74.40 Y148.40 Z0.25 E70.96 F7714.4
G1 X74.90 Y147.40 Z0.25 E71.02 F7647.4
G1 X74.40 Y146.40 Z0.25 E71.08 F7580.3
G1 X74.90 Y145.40 Z0.25 E71.14 F7513.2
G1 X74.40 Y144.40 Z0.25 E71.19 F7446.1
G1 X74.90 Y143.40 Z0.25 E71.25 F7379.0
G1 X74.40 Y142.40 Z0.25 E71.31 F7311.9
G1 X74.90 Y141.40 Z0.25 E71.37 F7244.9
G1 X74.40 Y140.40 Z0.25 E71.43 F7177.8
G1 X74.90 Y139.40 Z0.25 E71.48 F7110.7
G1 X74.40 Y138.40 Z0.25 E71.54 F7043.6
G1 X74.90 Y137.40 Z0.25 E71.60 F6976.5
G1 X74.40 Y136.40 Z0.25 E71.66 F6909.5
G1 X74.90 Y135.40 Z0.25 E71.72 F6842.4
G1 X74.40 Y134.40 Z0.25 E71.77 F6775.3
G1 X74.90 Y133.40 Z0.25 E71.83 F6708.2
G1 X74.40 Y132.40 Z0.25 E71.89 F6641.1
G1 X74.90 Y131.40 Z0.25 E71.95 F6574.0
G1 X74.40 Y130.40 Z0.25 E72.01 F6507.0
G1 X74.90 Y129.40 Z0.25 E72.06 F6439.9
G1 X74.40 Y128.40 Z0.25 E72.12 F6372.8
G1 X74.90 Y127.40 Z0.25 E72.18 F6305.7
G1 X74.40 Y126.40 Z0.25 E72.24 F6238.6
G1 X74.90 Y125.40 Z0.25 E72.30 F6171.5
G1 X74.40 Y124.40 Z0.25 E72.36 F6104.5
G1 X74.90 Y123.40 Z0.25 E72.41 F6037.4
G1 X74.40 Y122.40 Z0.25 E72.47 F5970.3
G1 X74.90 Y121.40 Z0.25 E72.53 F5903.2
G1 X74.40 Y120.40 Z0.25 E72.59 F5836.1
G1 X74.90 Y119.40 Z0.25 E72.65 F5769.1
G1 X74.40 Y118.40 Z0.25 E72.70 F5702.0
G1 X74.90 Y117.40 Z0.25 E72.76 F5634.9
G1 X74.40 Y116.40 Z0.25 E72.82 F5567.8
G1 X74.90 Y115.40 Z0.25 E72.88 F5500.7
G1 X74.40 Y114.40 Z0.25 E72.94 F5433.6
G1 X74.90 Y113.40 Z0.25 E72.99 F5366.6
G1 X74.40 Y112.40 Z0.25 E73.05 F5299.5
G1 X74.90 Y111.40 Z0.25 E73.11 F5232.4
G1 X74.40 Y110.40 Z0.25 E73.17 F5165.3
G1 X74.90 Y109.40 Z0.25 E73.23 F5098.2
G1 X74.40 Y108.40 Z0.25 E73.28 F5031.2
G1 X74.90 Y107.40 Z0.25 E73.34 F4964.1
G1 X74.40 Y106.40 Z0.25 E73.40 F4897.0
G1 X74.90 Y105.40 Z0.25 E73.46 F4829.9
G1 X74.40 Y104.40 Z0.25 E73.52 F4762.8
G1 X74.90 Y103.40 Z0.25 E73.58 F4695.7
G1 X74.40 Y102.40 Z0.25 E73.63 F4628.7
G1 X74.90 Y101.40 Z0.25 E73.69 F4561.6
G1 X74.40 Y100.40 Z0.25 E73.75 F4494.5
G1 X74.90 Y99.40 Z0.25 E73.81 F4427.4
G1 X74.40 Y98.40 Z0.25 E73.87 F4360.3
G1 X74.90 Y97.40 Z0.25 E73.92 F4293.3
G1 X74.40 Y96.40 Z0.25 E73.98 F4226.2
G1 X74.90 Y95.40 Z0.25 E74.04 F4159.1
G1 X74.40 Y94.40 Z0.25 E74.10 F4092.0
G1 X74.90 Y93.40 Z0.25 E74.16 F4024.9
G1 X74.40 Y92.40 Z0.25 E74.21 F3957.8
G1 X74.90 Y91.40 Z0.25 E74.27 F3890.8
G1 X74.40 Y90.40 Z0.25 E74.33 F3823.7
G1 X74.90 Y89.40 Z0.25 E74.39 F3756.6
G1 X74.40 Y88.40 Z0.25 E74.45 F3689.5
G1 X74.90 Y87.40 Z0.25 E74.51 F3622.4
G1 X74.40 Y86.40 Z0.25 E74.56 F3555.3
G1 X74.90 Y85.40 Z0.25 E74.62 F3488.3
G1 X74.40 Y84.40 Z0.25 E74.68 F3421.2
G1 X74.90 Y83.40 Z0.25 E74.74 F3354.1
G1 X74.40 Y82.40 Z0.25 E74.80 F3287.0
G1 X74.90 Y81.40 Z0.25 E74.85 F3219.9
G1 X74.40 Y80.40 Z0.25 E74.91 F3152.9
G1 X74.90 Y79.40 Z0.25 E74.97 F3085.8
G1 X74.40 Y78.40 Z0.25 E75.03 F3018.7
G1 X74.90 Y77.40 Z0.25 E75.09 F2951.6
G1 X74.40 Y76.40 Z0.25 E75.14 F2884.5
G1 X74.90 Y75.40 Z0.25 E75.20 F2817.4
G1 X74.40 Y74.40 Z0.25 E75.26 F2750.4
G1 X74.90 Y73.40 Z0.25 E75.32 F2683.3
G1 X74.40 Y72.40 Z0.25 E75.38 F2616.2
G1 X74.90 Y71.40 Z0.25 E75.43 F2549.1
G1 X74.40 Y70.40 Z0.25 E75.49 F2482.0
G1 X74.90 Y69.40 Z0.25 E75.55 F2415.0
G1 X74.40 Y68.40 Z0.25 E75.61 F2347.9
G1 X74.90 Y67.40 Z0.25 E75.67 F2280.8
G1 X74.40 Y66.40 Z0.25 E75.73 F2213.7
G1 X74.90 Y65.40 Z0.25 E75.78 F2146.6
G1 X74.40 Y64.40 Z0.25 E75.84 F2079.5
G1 X74.90 Y63.40 Z0.25 E75.90 F2012.5
G1 X74.40 Y62.40 Z0.25 E75.96 F1945.4
G1 X74.90 Y61.40 Z0.25 E76.02 F1878.3
G1 X74.40 Y60.40 Z0.25 E76.07 F1811.2
G1 X74.90 Y59.40 Z0.25 E76.13 F1744.1
G1 X74.40 Y58.40 Z0.25 E76.19 F1677.1
G1 X74.90 Y57.40 Z0.25 E76.25 F1610.0
G1 X74.40 Y56.40 Z0.25 E76.31 F1542.9
G1 X74.90 Y55.40 Z0.25 E76.36 F1475.8
G1 X74.40 Y54.40 Z0.25 E76.42 F1408.7
G1 X74.90 Y53.40 Z0.25 E76.48 F1341.6
G1 X74.40 Y52.40 Z0.25 E76.54 F1274.6
G1 X74.90 Y51.40 Z0.25 E76.60 F1207.5
G1 X74.40 Y50.40 Z0.25 E76.65 F1140.4
G1 X74.90 Y49.40 Z0.25 E76.71 F1073.3
G1 X74.40 Y48.40 Z0.25 E76.77 F1006.2
G1 X74.90 Y47.40 Z0.25 E76.83 F939.1
G1 X74.40 Y46.40 Z0.25 E76.89 F872.1
G1 X74.90 Y45.40 Z0.25 E76.95 F805.0
G1 X74.40 Y44.40 Z0.25 E77.00 F737.9
G1 X74.90 Y43.40 Z0.25 E77.06 F670.8
G1 X74.40 Y42.40 Z0.25 E77.12 F603.7
G1 X74.90 Y41.40 Z0.25 E77.18 F536.7
G1 X74.40 Y40.40 Z0.25 E77.24 F469.6
G1 X74.90 Y39.40 Z0.25 E77.29 F402.5
G1 X74.40 Y38.40 Z0.25 E77.35 F335.4
G1 X74.90 Y37.40 Z0.25 E77.41 F268.3
G1 X74.40 Y36.40 Z0.25 E77.47 F201.2
G1 X74.90 Y35.40 Z0.25 E77.53 F134.2
G1 X74.40 Y34.40 Z0.25 E77.58 F67.1
M201 X1000 Y1000
M205 X20 Y20
M205 J0.3
G0 X79.40 Y34.40 Z0.25 E77.58 F5400.0
M593 X D0.45
M203 X500 Y500 ; maximum feedrates
M204 P10000 ; print acceleration
M201 X10000 Y10000 ; max acceleration
M205 X500.00 Y500.00 ; jerk limits very high
M205 J0.3 ; junction deviation maximum
G1 X79.90 Y35.40 Z0.25 E77.64 F67.1
G1 X79.40 Y36.40 Z0.25 E77.70 F134.2
G1 X79.90 Y37.40 Z0.25 E77.76 F201.2
G1 X79.40 Y38.40 Z0.25 E77.82 F268.3
G1 X79.90 Y39.40 Z0.25 E77.88 F335.4
G1 X79.40 Y40.40 Z0.25 E77.93 F402.5
G1 X79.90 Y41.40 Z0.25 E77.99 F469.6
G1 X79.40 Y42.40 Z0.25 E78.05 F536.7
G1 X79.90 Y43.40 Z0.25 E78.11 F603.7
G1 X79.40 Y44.40 Z0.25 E78.17 F670.8
G1 X79.90 Y45.40 Z0.25 E78.22 F737.9
G1 X79.40 Y46.40 Z0.25 E78.28 F805.0
G1 X79.90 Y47.40 Z0.25 E78.34 F872.1
G1 X79.40 Y48.40 Z0.25 E78.40 F939.1
G1 X79.90 Y49.40 Z0.25 E78.46 F1006.2
G1 X79.40 Y50.40 Z0.25 E78.51 F1073.3
G1 X79.90 Y51.40 Z0.25 E78.57 F1140.4
G1 X79.40 Y52.40 Z0.25 E78.63 F1207.5
G1 X79.90 Y53.40 Z0.25 E78.69 F1274.6
G1 X79.40 Y54.40 Z0.25 E78.75 F1341.6
G1 X79.90 Y55.40 Z0.25 E78.80 F1408.7
G1 X79.40 Y56.40 Z0.25 E78.86 F1475.8
G1 X79.90 Y57.40 Z0.25 E78.92 F1542.9
G1 X79.40 Y58.40 Z0.25 E78.98 F1610.0
G1 X79.90 Y59.40 Z0.25 E79.04 F1677.1
G1 X79.40 Y60.40 Z0.25 E79.10 F1744.1
G1 X79.90 Y61.40 Z0.25 E79.15 F1811.2
G1 X79.40 Y62.40 Z0.25 E79.21 F1878.3
G1 X79.90 Y63.40 Z0.25 E79.27 F1945.4
G1 X79.40 Y64.40 Z0.25 E79.33 F2012.5
G1 X79.90 Y65.40 Z0.25 E79.39 F2079.5
G1 X79.40 Y66.40 Z0.25 E79.44 F2146.6
G1 X79.90 Y67.40 Z0.25 E79.50 F2213.7
G1 X79.40 Y68.40 Z0.25 E79.56 F2280.8
G1 X79.90 Y69.40 Z0.25 E79.62 F2347.9
G1 X79.40 Y70.40 Z0.25 E79.68 F2415.0
G1 X79.90 Y71.40 Z0.25 E79.73 F2482.0
G1 X79.40 Y72.40 Z0.25 E79.79 F2549.1
G1 X79.90 Y73.40 Z0.25 E79.85 F2616.2
G1 X79.40 Y74.40 Z0.25 E79.91 F2683.3
G1 X79.90 Y75.40 Z0.25 E79.97 F2750.4
G1 X79.40 Y76.40 Z0.25 E80.02 F2817.4
G1 X79.90 Y77.40 Z0.25 E80.08 F2884.5
G1 X79.40 Y78.40 Z0.25 E80.14 F2951.6
G1 X79.90 Y79.40 Z0.25 E80.20 F3018.7
G1 X79.40 Y80.40 Z0.25 E80.26 F3085.8
G1 X79.90 Y81.40 Z0.25 E80.32 F3152.9
G1 X79.40 Y82.40 Z0.25 E80.37 F3219.9
G1 X79.90 Y83.40 Z0.25 E80.43 F3287.0
G1 X79.40 Y84.40 Z0.25 E80.49 F3354.1
G1 X79.90 Y85.40 Z0.25 E80.55 F3421.2
G1 X79.40 Y86.40 Z0.25 E80.61 F3488.3
G1 X79.90 Y87.40 Z0.25 E80.66 F3555.3
G1 X79.40 Y88.40 Z0.25 E80.72 F3622.4
G1 X79.90 Y89.40 Z0.25 E80.78 F3689.5
G1 X79.40 Y90.40 Z0.25 E80.84 F3756.6
G1 X79.90 Y91.40 Z0.25 E80.90 F3823.7
G1 X79.40 Y92.40 Z0.25 E80.95 F3890.8
G1 X79.90 Y93.40 Z0.25 E81.01 F3957.8
G1 X79.40 Y94.40 Z0.25 E81.07 F4024.9
G1 X79.90 Y95.40 Z0.25 E81.13 F4092.0
G1 X79.40 Y96.40 Z0.25 E81.19 F4159.1
G1 X79.90 Y97.40 Z0.25 E81.25 F4226.2
G1 X79.40 Y98.40 Z0.25 E81.30 F4293.3
G1 X79.90 Y99.40 Z0.25 E81.36 F4360.3
G1 X79.40 Y100.40 Z0.25 E81.42 F4427.4
G1 X79.90 Y101.40 Z0.25 E81.48 F4494.5
G1 X79.40 Y102.40 Z0.25 E81.54 F4561.6
G1 X79.90 Y103.40 Z0.25 E81.59 F4628.7
G1 X79.40 Y104.40 Z0.25 E81.65 F4695.7
G1 X79.90 Y105.40 Z0.25 E81.71 F4762.8
G1 X79.40 Y106.40 Z0.25 E81.77 F4829.9
G1 X79.90 Y107.40 Z0.25 E81.83 F4897.0
G1 X79.40 Y108.40 Z0.25 E81.88 F4964.1
G1 X79.90 Y109.40 Z0.25 E81.94 F5031.2
G1 X79.40 Y110.40 Z0.25 E82.00 F5098.2
G1 X79.90 Y111.40 Z0.25 E82.06 F5165.3
G1 X79.40 Y112.40 Z0.25 E82.12 F5232.4
G1 X79.90 Y113.40 Z0.25 E82.17 F5299.5
G1 X79.40 Y114.40 Z0.25 E82.23 F5366.6
G1 X79.90 Y115.40 Z0.25 E82.29 F5433.6
G1 X79.40 Y116.40 Z0.25 E82.35 F5500.7
G1 X79.90 Y117.40 Z0.25 E82.41 F5567.8
G1 X79.40 Y118.40 Z0.25 E82.47 F5634.9
G1 X79.90 Y119.40 Z0.25 E82.52 F5702.0
G1 X79.40 Y120.40 Z0.25 E82.58 F5769.1
G1 X79.90 Y121.40 Z0.25 E82.64 F5836.1
G1 X79.40 Y122.40 Z0.25 E82.70 F5903.2
G1 X79.90 Y123.40 Z0.25 E82.76 F5970.3
G1 X79.40 Y124.40 Z0.25 E82.81 F6037.4
G1 X79.90 Y125.40 Z0.25 E82.87 F6104.5
G1 X79.40 Y126.40 Z0.25 E82.93 F6171.5
G1 X79.90 Y127.40 Z0.25 E82.99 F6238.6
G1 X79.40 Y128.40 Z0.25 E83.05 F6305.7
G1 X79.90 Y129.40 Z0.25 E83.10 F6372.8
G1 X79.40 Y130.40 Z0.25 E83.16 F6439.9
G1 X79.90 Y131.40 Z0.25 E83.22 F6507.0
G1 X79.40 Y132.40 Z0.25 E83.28 F6574.0
G1 X79.90 Y133.40 Z0.25 E83.34 F6641.1
G1 X79.40 Y134.40 Z0.25 E83.39 F6708.2
G1 X79.90 Y135.40 Z0.25 E83.45 F6775.3
G1 X79.40 Y136.40 Z0.25 E83.51 F6842.4
G1 X79.90 Y137.40 Z0.25 E83.57 F6909.5
G1 X79.40 Y138.40 Z0.25 E83.63 F6976.5
G1 X79.90 Y139.40 Z0.25 E83.69 F7043.6
G1 X79.40 Y140.40 Z0.25 E83.74 F7110.7
G1 X79.90 Y141.40 Z0.25 E83.80 F7177.8
G1 X79.40 Y142.40 Z0.25 E83.86 F7244.9
G1 X79.90 Y143.40 Z0.25 E83.92 F7311.9
G1 X79.40 Y144.40 Z0.25 E83.98 F7379.0
G1 X79.90 Y145.40 Z0.25 E84.03 F7446.1
G1 X79.40 Y146.40 Z0.25 E84.09 F7513.2
G1 X79.90 Y147.40 Z0.25 E84.15 F7580.3
G1 X79.40 Y148.40 Z0.25 E84.21 F7647.4
G1 X79.90 Y149.40 Z0.25 E84.27 F7714.4
G1 X79.40 Y150.40 Z0.25 E84.32 F7781.5
G1 X79.90 Y151.40 Z0.25 E84.38 F7848.6
G1 X79.40 Y152.40 Z0.25 E84.44 F7915.7
G1 X79.90 Y153.40 Z0.25 E84.50 F7982.8
G1 X79.40 Y154.40 Z0.25 E84.56 F8049.8
M201 X1000 Y1000
M205 X20 Y20
M205 J0.3
G1 X79.40 Y161.60 Z0.25 E84.93

G0 X84.40 Y161.60 Z0.25 E84.93 F5400.0
M593 X D0.50
G1 X84.40 Y154.40 Z0.25 E85.31 F8049.8
M203 X500 Y500 ; maximum feedrates
M204 P10000 ; print acceleration
M201 X10000 Y10000 ; max acceleration
M205 X500.00 Y500.00 ; jerk limits very high
M205 J0.3 ; junction deviation maximum
G1 X84.90 Y153.40 Z0.25 E85.36 F8049.8
G1 X84.40 Y152.40 Z0.25 E85.42 F7982.8
G1 X84.90 Y151.40 Z0.25 E85.48 F7915.7
G1 X84.40 Y150.40 Z0.25 E85.54 F7848.6
G1 X84.90 Y149.40 Z0.25 E85.60 F7781.5
G1 X84.40 Y148.40 Z0.25 E85.65 F7714.4
G1 X84.90 Y147.40 Z0.25 E85.71 F7647.4
G1 X84.40 Y146.40 Z0.25 E85.77 F7580.3
G1 X84.90 Y145.40 Z0.25 E85.83 F7513.2
G1 X84.40 Y144.40 Z0.25 E85.89 F7446.1
G1 X84.90 Y143.40 Z0.25 E85.94 F7379.0
G1 X84.40 Y142.40 Z0.25 E86.00 F7311.9
G1 X84.90 Y141.40 Z0.25 E86.06 F7244.9
G1 X84.40 Y140.40 Z0.25 E86.12 F7177.8
G1 X84.90 Y139.40 Z0.25 E86.18 F7110.7
G1 X84.40 Y138.40 Z0.25 E86.23 F7043.6
G1 X84.90 Y137.40 Z0.25 E86.29 F6976.5
G1 X84.40 Y136.40 Z0.25 E86.35 F6909.5
G1 X84.90 Y135.40 Z0.25 E86.41 F6842.4
G1 X84.40 Y134.40 Z0.25 E86.47 F6775.3
G1 X84.90 Y133.40 Z0.25 E86.53 F6708.2
G1 X84.40 Y132.40 Z0.25 E86.58 F6641.1
G1 X84.90 Y131.40 Z0.25 E86.64 F6574.0
G1 X84.40 Y130.40 Z0.25 E86.70 F6507.0
G1 X84.90 Y129.40 Z0.25 E86.76 F6439.9
G1 X84.40 Y128.40 Z0.25 E86.82 F6372.8
G1 X84.90 Y127.40 Z0.25 E86.87 F6305.7
G1 X84.40 Y126.40 Z0.25 E86.93 F6238.6
G1 X84.90 Y125.40 Z0.25 E86.99 F6171.5
G1 X84.40 Y124.40 Z0.25 E87.05 F6104.5
G1 X84.90 Y123.40 Z0.25 E87.11 F6037.4
G1 X84.40 Y122.40 Z0.25 E87.16 F5970.3
G1 X84.90 Y121.40 Z0.25 E87.22 F5903.2
G1 X84.40 Y120.40 Z0.25 E87.28 F5836.1
G1 X84.90 Y119.40 Z0.25 E87.34 F5769.1
G1 X84.40 Y118.40 Z0.25 E87.40 F5702.0
G1 X84.90 Y117.40 Z0.25 E87.46 F5634.9
G1 X84.40 Y116.40 Z0.25 E87.51 F5567.8
G1 X84.90 Y115.40 Z0.25 E87.57 F5500.7
G1 X84.40 Y114.40 Z0.25 E87.63 F5433.6
G1 X84.90 Y113.40 Z0.25 E87.69 F5366.6
G1 X84.40 Y112.40 Z0.25 E87.75 F5299.5
G1 X84.90 Y111.40 Z0.25 E87.80 F5232.4
G1 X84.40 Y110.40 Z0.25 E87.86 F5165.3
G1 X84.90 Y109.40 Z0.25 E87.92 F5098.2
G1 X84.40 Y108.40 Z0.25 E87.98 F5031.2
G1 X84.90 Y107.40 Z0.25 E88.04 F4964.1
G1 X84.40 Y106.40 Z0.25 E88.09 F4897.0
G1 X84.90 Y105.40 Z0.25 E88.15 F4829.9
G1 X84.40 Y104.40 Z0.25 E88.21 F4762.8
G1 X84.90 Y103.40 Z0.25 E88.27 F4695.7
G1 X84.40 Y102.40 Z0.25 E88.33 F4628.7
G1 X84.90 Y101.40 Z0.25 E88.38 F4561.6
G1 X84.40 Y100.40 Z0.25 E88.44 F4494.5
G1 X84.90 Y99.40 Z0.25 E88.50 F4427.4
G1 X84.40 Y98.40 Z0.25 E88.56 F4360.3
G1 X84.90 Y97.40 Z0.25 E88.62 F4293.3
G1 X84.40 Y96.40 Z0.25 E88.68 F4226.2
G1 X84.90 Y95.40 Z0.25 E88.73 F4159.1
G1 X84.40 Y94.40 Z0.25 E88.79 F4092.0
G1 X84.90 Y93.40 Z0.25 E88.85 F4024.9
G1 X84.40 Y92.40 Z0.25 E88.91 F3957.8
G1 X84.90 Y91.40 Z0.25 E88.97 F3890.8
G1 X84.40 Y90.40 Z0.25 E89.02 F3823.7
G1 X84.90 Y89.40 Z0.25 E89.08 F3756.6
G1 X84.40 Y88.40 Z0.25 E89.14 F3689.5
G1 X84.90 Y87.40 Z0.25 E89.20 F3622.4
G1 X84.40 Y86.40 Z0.25 E89.26 F3555.3
G1 X84.90 Y85.40 Z0.25 E89.31 F3488.3
G1 X84.40 Y84.40 Z0.25 E89.37 F3421.2
G1 X84.90 Y83.40 Z0.25 E89.43 F3354.1
G1 X84.40 Y82.40 Z0.25 E89.49 F3287.0
G1 X84.90 Y81.40 Z0.25 E89.55 F3219.9
G1 X84.40 Y80.40 Z0.25 E89.60 F3152.9
G1 X84.90 Y79.40 Z0.25 E89.66 F3085.8
G1 X84.40 Y78.40 Z0.25 E89.72 F3018.7
G1 X84.90 Y77.40 Z0.25 E89.78 F2951.6
G1 X84.40 Y76.40 Z0.25 E89.84 F2884.5
G1 X84.90 Y75.40 Z0.25 E89.90 F2817.4
G1 X84.40 Y74.40 Z0.25 E89.95 F2750.4
G1 X84.90 Y73.40 Z0.25 E90.01 F2683.3
G1 X84.40 Y72.40 Z0.25 E90.07 F2616.2
G1 X84.90 Y71.40 Z0.25 E90.13 F2549.1
G1 X84.40 Y70.40 Z0.25 E90.19 F2482.0
G1 X84.90 Y69.40 Z0.25 E90.24 F2415.0
G1 X84.40 Y68.40 Z0.25 E90.30 F2347.9
G1 X84.90 Y67.40 Z0.25 E90.36 F2280.8
G1 X84.40 Y66.40 Z0.25 E90.42 F2213.7
G1 X84.90 Y65.40 Z0.25 E90.48 F2146.6
G1 X84.40 Y64.40 Z0.25 E90.53 F2079.5
G1 X84.90 Y63.40 Z0.25 E90.59 F2012.5
G1 X84.40 Y62.40 Z0.25 E90.65 F1945.4
G1 X84.90 Y61.40 Z0.25 E90.71 F1878.3
G1 X84.40 Y60.40 Z0.25 E90.77 F1811.2
G1 X84.90 Y59.40 Z0.25 E90.83 F1744.1
G1 X84.40 Y58.40 Z0.25 E90.88 F1677.1
G1 X84.90 Y57.40 Z0.25 E90.94 F1610.0
G1 X84.40 Y56.40 Z0.25 E91.00 F1542.9
G1 X84.90 Y55.40 Z0.25 E91.06 F1475.8
G1 X84.40 Y54.40 Z0.25 E91.12 F1408.7
G1 X84.90 Y53.40 Z0.25 E91.17 F1341.6
G1 X84.40 Y52.40 Z0.25 E91.23 F1274.6
G1 X84.90 Y51.40 Z0.25 E91.29 F1207.5
G1 X84.40 Y50.40 Z0.25 E91.35 F1140.4
G1 X84.90 Y49.40 Z0.25 E91.41 F1073.3
G1 X84.40 Y48.40 Z0.25 E91.46 F1006.2
G1 X84.90 Y47.40 Z0.25 E91.52 F939.1
G1 X84.40 Y46.40 Z0.25 E91.58 F872.1
G1 X84.90 Y45.40 Z0.25 E91.64 F805.0
G1 X84.40 Y44.40 Z0.25 E91.70 F737.9
G1 X84.90 Y43.40 Z0.25 E91.75 F670.8
G1 X84.40 Y42.40 Z0.25 E91.81 F603.7
G1 X84.90 Y41.40 Z0.25 E91.87 F536.7
G1 X84.40 Y40.40 Z0.25 E91.93 F469.6
G1 X84.90 Y39.40 Z0.25 E91.99 F402.5
G1 X84.40 Y38.40 Z0.25 E92.05 F335.4
G1 X84.90 Y37.40 Z0.25 E92.10 F268.3
G1 X84.40 Y36.40 Z0.25 E92.16 F201.2
G1 X84.90 Y35.40 Z0.25 E92.22 F134.2
G1 X84.40 Y34.40 Z0.25 E92.28 F67.1
M201 X1000 Y1000
M205 X20 Y20
M205 J0.3
G0 X89.40 Y34.40 Z0.25 E92.28 F5400.0
M593 X D0.55
M203 X500 Y500 ; maximum feedrates
M204 P10000 ; print acceleration
M201 X10000 Y10000 ; max acceleration
M205 X500.00 Y500.00 ; jerk limits very high
M205 J0.3 ; junction deviation maximum
G1 X89.90 Y35.40 Z0.25 E92.34 F67.1
G1 X89.40 Y36.40 Z0.25 E92.39 F134.2
G1 X89.90 Y37.40 Z0.25 E92.45 F201.2
G1 X89.40 Y38.40 Z0.25 E92.51 F268.3
G1 X89.90 Y39.40 Z0.25 E92.57 F335.4
G1 X89.40 Y40.40 Z0.25 E92.63 F402.5
G1 X89.90 Y41.40 Z0.25 E92.68 F469.6
G1 X89.40 Y42.40 Z0.25 E92.74 F536.7
G1 X89.90 Y43.40 Z0.25 E92.80 F603.7
G1 X89.40 Y44.40 Z0.25 E92.86 F670.8
G1 X89.90 Y45.40 Z0.25 E92.92 F737.9
G1 X89.40 Y46.40 Z0.25 E92.97 F805.0
G1 X89.90 Y47.40 Z0.25 E93.03 F872.1
G1 X89.40 Y48.40 Z0.25 E93.09 F939.1
G1 X89.90 Y49.40 Z0.25 E93.15 F1006.2
G1 X89.40 Y50.40 Z0.25 E93.21 F1073.3
G1 X89.90 Y51.40 Z0.25 E93.27 F1140.4
G1 X89.40 Y52.40 Z0.25 E93.32 F1207.5
G1 X89.90 Y53.40 Z0.25 E93.38 F1274.6
G1 X89.40 Y54.40 Z0.25 E93.44 F1341.6
G1 X89.90 Y55.40 Z0.25 E93.50 F1408.7
G1 X89.40 Y56.40 Z0.25 E93.56 F1475.8
G1 X89.90 Y57.40 Z0.25 E93.61 F1542.9
G1 X89.40 Y58.40 Z0.25 E93.67 F1610.0
G1 X89.90 Y59.40 Z0.25 E93.73 F1677.1
G1 X89.40 Y60.40 Z0.25 E93.79 F1744.1
G1 X89.90 Y61.40 Z0.25 E93.85 F1811.2
G1 X89.40 Y62.40 Z0.25 E93.90 F1878.3
G1 X89.90 Y63.40 Z0.25 E93.96 F1945.4
G1 X89.40 Y64.40 Z0.25 E94.02 F2012.5
G1 X89.90 Y65.40 Z0.25 E94.08 F2079.5
G1 X89.40 Y66.40 Z0.25 E94.14 F2146.6
G1 X89.90 Y67.40 Z0.25 E94.20 F2213.7
G1 X89.40 Y68.40 Z0.25 E94.25 F2280.8
G1 X89.90 Y69.40 Z0.25 E94.31 F2347.9
G1 X89.40 Y70.40 Z0.25 E94.37 F2415.0
G1 X89.90 Y71.40 Z0.25 E94.43 F2482.0
G1 X89.40 Y72.40 Z0.25 E94.49 F2549.1
G1 X89.90 Y73.40 Z0.25 E94.54 F2616.2
G1 X89.40 Y74.40 Z0.25 E94.60 F2683.3
G1 X89.90 Y75.40 Z0.25 E94.66 F2750.4
G1 X89.40 Y76.40 Z0.25 E94.72 F2817.4
G1 X89.90 Y77.40 Z0.25 E94.78 F2884.5
G1 X89.40 Y78.40 Z0.25 E94.83 F2951.6
G1 X89.90 Y79.40 Z0.25 E94.89 F3018.7
G1 X89.40 Y80.40 Z0.25 E94.95 F3085.8
G1 X89.90 Y81.40 Z0.25 E95.01 F3152.9
G1 X89.40 Y82.40 Z0.25 E95.07 F3219.9
G1 X89.90 Y83.40 Z0.25 E95.12 F3287.0
G1 X89.40 Y84.40 Z0.25 E95.18 F3354.1
G1 X89.90 Y85.40 Z0.25 E95.24 F3421.2
G1 X89.40 Y86.40 Z0.25 E95.30 F3488.3
G1 X89.90 Y87.40 Z0.25 E95.36 F3555.3
G1 X89.40 Y88.40 Z0.25 E95.42 F3622.4
G1 X89.90 Y89.40 Z0.25 E95.47 F3689.5
G1 X89.40 Y90.40 Z0.25 E95.53 F3756.6
G1 X89.90 Y91.40 Z0.25 E95.59 F3823.7
G1 X89.40 Y92.40 Z0.25 E95.65 F3890.8
G1 X89.90 Y93.40 Z0.25 E95.71 F3957.8
G1 X89.40 Y94.40 Z0.25 E95.76 F4024.9
G1 X89.90 Y95.40 Z0.25 E95.82 F4092.0
G1 X89.40 Y96.40 Z0.25 E95.88 F4159.1
G1 X89.90 Y97.40 Z0.25 E95.94 F4226.2
G1 X89.40 Y98.40 Z0.25 E96.00 F4293.3
G1 X89.90 Y99.40 Z0.25 E96.05 F4360.3
G1 X89.40 Y100.40 Z0.25 E96.11 F4427.4
G1 X89.90 Y101.40 Z0.25 E96.17 F4494.5
G1 X89.40 Y102.40 Z0.25 E96.23 F4561.6
G1 X89.90 Y103.40 Z0.25 E96.29 F4628.7
G1 X89.40 Y104.40 Z0.25 E96.34 F4695.7
G1 X89.90 Y105.40 Z0.25 E96.40 F4762.8
G1 X89.40 Y106.40 Z0.25 E96.46 F4829.9
G1 X89.90 Y107.40 Z0.25 E96.52 F4897.0
G1 X89.40 Y108.40 Z0.25 E96.58 F4964.1
G1 X89.90 Y109.40 Z0.25 E96.64 F5031.2
G1 X89.40 Y110.40 Z0.25 E96.69 F5098.2
G1 X89.90 Y111.40 Z0.25 E96.75 F5165.3
G1 X89.40 Y112.40 Z0.25 E96.81 F5232.4
G1 X89.90 Y113.40 Z0.25 E96.87 F5299.5
G1 X89.40 Y114.40 Z0.25 E96.93 F5366.6
G1 X89.90 Y115.40 Z0.25 E96.98 F5433.6
G1 X89.40 Y116.40 Z0.25 E97.04 F5500.7
G1 X89.90 Y117.40 Z0.25 E97.10 F5567.8
G1 X89.40 Y118.40 Z0.25 E97.16 F5634.9
G1 X89.90 Y119.40 Z0.25 E97.22 F5702.0
G1 X89.40 Y120.40 Z0.25 E97.27 F5769.1
G1 X89.90 Y121.40 Z0.25 E97.33 F5836.1
G1 X89.40 Y122.40 Z0.25 E97.39 F5903.2
G1 X89.90 Y123.40 Z0.25 E97.45 F5970.3
G1 X89.40 Y124.40 Z0.25 E97.51 F6037.4
G1 X89.90 Y125.40 Z0.25 E97.57 F6104.5
G1 X89.40 Y126.40 Z0.25 E97.62 F6171.5
G1 X89.90 Y127.40 Z0.25 E97.68 F6238.6
G1 X89.40 Y128.40 Z0.25 E97.74 F6305.7
G1 X89.90 Y129.40 Z0.25 E97.80 F6372.8
G1 X89.40 Y130.40 Z0.25 E97.86 F6439.9
G1 X89.90 Y131.40 Z0.25 E97.91 F6507.0
G1 X89.40 Y132.40 Z0.25 E97.97 F6574.0
G1 X89.90 Y133.40 Z0.25 E98.03 F6641.1
G1 X89.40 Y134.40 Z0.25 E98.09 F6708.2
G1 X89.90 Y135.40 Z0.25 E98.15 F6775.3
G1 X89.40 Y136.40 Z0.25 E98.20 F6842.4
G1 X89.90 Y137.40 Z0.25 E98.26 F6909.5
G1 X89.40 Y138.40 Z0.25 E98.32 F6976.5
G1 X89.90 Y139.40 Z0.25 E98.38 F7043.6
G1 X89.40 Y140.40 Z0.25 E98.44 F7110.7
G1 X89.90 Y141.40 Z0.25 E98.49 F7177.8
G1 X89.40 Y142.40 Z0.25 E98.55 F7244.9
G1 X89.90 Y143.40 Z0.25 E98.61 F7311.9
G1 X89.40 Y144.40 Z0.25 E98.67 F7379.0
G1 X89.90 Y145.40 Z0.25 E98.73 F7446.1
G1 X89.40 Y146.40 Z0.25 E98.79 F7513.2
G1 X89.90 Y147.40 Z0.25 E98.84 F7580.3
G1 X89.40 Y148.40 Z0.25 E98.90 F7647.4
G1 X89.90 Y149.40 Z0.25 E98.96 F7714.4
G1 X89.40 Y150.40 Z0.25 E99.02 F7781.5
G1 X89.90 Y151.40 Z0.25 E99.08 F7848.6
G1 X89.40 Y152.40 Z0.25 E99.13 F7915.7
G1 X89.90 Y153.40 Z0.25 E99.19 F7982.8
G1 X89.40 Y154.40 Z0.25 E99.25 F8049.8
M201 X1000 Y1000
M205 X20 Y20
M205 J0.3
G1 X89.40 Y161.60 Z0.25 E99.62

G0 X94.40 Y161.60 Z0.25 E99.62 F5400.0
M593 X D0.60
G1 X94.40 Y154.40 Z0.25 E100.00 F8049.8
M203 X500 Y500 ; maximum feedrates
M204 P10000 ; print acceleration
M201 X10000 Y10000 ; max acceleration
M205 X500.00 Y500.00 ; jerk limits very high
M205 J0.3 ; junction deviation maximum
G1 X94.90 Y153.40 Z0.25 E100.06 F8049.8
G1 X94.40 Y152.40 Z0.25 E100.11 F7982.8
G1 X94.90 Y151.40 Z0.25 E100.17 F7915.7
G1 X94.40 Y150.40 Z0.25 E100.23 F7848.6
G1 X94.90 Y149.40 Z0.25 E100.29 F7781.5
G1 X94.40 Y148.40 Z0.25 E100.35 F7714.4
G1 X94.90 Y147.40 Z0.25 E100.41 F7647.4
G1 X94.40 Y146.40 Z0.25 E100.46 F7580.3
G1 X94.90 Y145.40 Z0.25 E100.52 F7513.2
G1 X94.40 Y144.40 Z0.25 E100.58 F7446.1
G1 X94.90 Y143.40 Z0.25 E100.64 F7379.0
G1 X94.40 Y142.40 Z0.25 E100.70 F7311.9
G1 X94.90 Y141.40 Z0.25 E100.75 F7244.9
G1 X94.40 Y140.40 Z0.25 E100.81 F7177.8
G1 X94.90 Y139.40 Z0.25 E100.87 F7110.7
G1 X94.40 Y138.40 Z0.25 E100.93 F7043.6
G1 X94.90 Y137.40 Z0.25 E100.99 F6976.5
G1 X94.40 Y136.40 Z0.25 E101.04 F6909.5
G1 X94.90 Y135.40 Z0.25 E101.10 F6842.4
G1 X94.40 Y134.40 Z0.25 E101.16 F6775.3
G1 X94.90 Y133.40 Z0.25 E101.22 F6708.2
G1 X94.40 Y132.40 Z0.25 E101.28 F6641.1
G1 X94.90 Y131.40 Z0.25 E101.33 F6574.0
G1 X94.40 Y130.40 Z0.25 E101.39 F6507.0
G1 X94.90 Y129.40 Z0.25 E101.45 F6439.9
G1 X94.40 Y128.40 Z0.25 E101.51 F6372.8
G1 X94.90 Y127.40 Z0.25 E101.57 F6305.7
G1 X94.40 Y126.40 Z0.25 E101.63 F6238.6
G1 X94.90 Y125.40 Z0.25 E101.68 F6171.5
G1 X94.40 Y124.40 Z0.25 E101.74 F6104.5
G1 X94.90 Y123.40 Z0.25 E101.80 F6037.4
G1 X94.40 Y122.40 Z0.25 E101.86 F5970.3
G1 X94.90 Y121.40 Z0.25 E101.92 F5903.2
G1 X94.40 Y120.40 Z0.25 E101.97 F5836.1
G1 X94.90 Y119.40 Z0.25 E102.03 F5769.1
G1 X94.40 Y118.40 Z0.25 E102.09 F5702.0
G1 X94.90 Y117.40 Z0.25 E102.15 F5634.9
G1 X94.40 Y116.40 Z0.25 E102.21 F5567.8
G1 X94.90 Y115.40 Z0.25 E102.26 F5500.7
G1 X94.40 Y114.40 Z0.25 E102.32 F5433.6
G1 X94.90 Y113.40 Z0.25 E102.38 F5366.6
G1 X94.40 Y112.40 Z0.25 E102.44 F5299.5
G1 X94.90 Y111.40 Z0.25 E102.50 F5232.4
G1 X94.40 Y110.40 Z0.25 E102.55 F5165.3
G1 X94.90 Y109.40 Z0.25 E102.61 F5098.2
G1 X94.40 Y108.40 Z0.25 E102.67 F5031.2
G1 X94.90 Y107.40 Z0.25 E102.73 F4964.1
G1 X94.40 Y106.40 Z0.25 E102.79 F4897.0
G1 X94.90 Y105.40 Z0.25 E102.85 F4829.9
G1 X94.40 Y104.40 Z0.25 E102.90 F4762.8
G1 X94.90 Y103.40 Z0.25 E102.96 F4695.7
G1 X94.40 Y102.40 Z0.25 E103.02 F4628.7
G1 X94.90 Y101.40 Z0.25 E103.08 F4561.6
G1 X94.40 Y100.40 Z0.25 E103.14 F4494.5
G1 X94.90 Y99.40 Z0.25 E103.19 F4427.4
G1 X94.40 Y98.40 Z0.25 E103.25 F4360.3
G1 X94.90 Y97.40 Z0.25 E103.31 F4293.3
G1 X94.40 Y96.40 Z0.25 E103.37 F4226.2
G1 X94.90 Y95.40 Z0.25 E103.43 F4159.1
G1 X94.40 Y94.40 Z0.25 E103.48 F4092.0
G1 X94.90 Y93.40 Z0.25 E103.54 F4024.9
G1 X94.40 Y92.40 Z0.25 E103.60 F3957.8
G1 X94.90 Y91.40 Z0.25 E103.66 F3890.8
G1 X94.40 Y90.40 Z0.25 E103.72 F3823.7
G1 X94.90 Y89.40 Z0.25 E103.78 F3756.6
G1 X94.40 Y88.40 Z0.25 E103.83 F3689.5
G1 X94.90 Y87.40 Z0.25 E103.89 F3622.4
G1 X94.40 Y86.40 Z0.25 E103.95 F3555.3
G1 X94.90 Y85.40 Z0.25 E104.01 F3488.3
G1 X94.40 Y84.40 Z0.25 E104.07 F3421.2
G1 X94.90 Y83.40 Z0.25 E104.12 F3354.1
G1 X94.40 Y82.40 Z0.25 E104.18 F3287.0
G1 X94.90 Y81.40 Z0.25 E104.24 F3219.9
G1 X94.40 Y80.40 Z0.25 E104.30 F3152.9
G1 X94.90 Y79.40 Z0.25 E104.36 F3085.8
G1 X94.40 Y78.40 Z0.25 E104.41 F3018.7
G1 X94.90 Y77.40 Z0.25 E104.47 F2951.6
G1 X94.40 Y76.40 Z0.25 E104.53 F2884.5
G1 X94.90 Y75.40 Z0.25 E104.59 F2817.4
G1 X94.40 Y74.40 Z0.25 E104.65 F2750.4
G1 X94.90 Y73.40 Z0.25 E104.70 F2683.3
G1 X94.40 Y72.40 Z0.25 E104.76 F2616.2
G1 X94.90 Y71.40 Z0.25 E104.82 F2549.1
G1 X94.40 Y70.40 Z0.25 E104.88 F2482.0
G1 X94.90 Y69.40 Z0.25 E104.94 F2415.0
G1 X94.40 Y68.40 Z0.25 E105.00 F2347.9
G1 X94.90 Y67.40 Z0.25 E105.05 F2280.8
G1 X94.40 Y66.40 Z0.25 E105.11 F2213.7
G1 X94.90 Y65.40 Z0.25 E105.17 F2146.6
G1 X94.40 Y64.40 Z0.25 E105.23 F2079.5
G1 X94.90 Y63.40 Z0.25 E105.29 F2012.5
G1 X94.40 Y62.40 Z0.25 E105.34 F1945.4
G1 X94.90 Y61.40 Z0.25 E105.40 F1878.3
G1 X94.40 Y60.40 Z0.25 E105.46 F1811.2
G1 X94.90 Y59.40 Z0.25 E105.52 F1744.1
G1 X94.40 Y58.40 Z0.25 E105.58 F1677.1
G1 X94.90 Y57.40 Z0.25 E105.63 F1610.0
G1 X94.40 Y56.40 Z0.25 E105.69 F1542.9
G1 X94.90 Y55.40 Z0.25 E105.75 F1475.8
G1 X94.40 Y54.40 Z0.25 E105.81 F1408.7
G1 X94.90 Y53.40 Z0.25 E105.87 F1341.6
G1 X94.40 Y52.40 Z0.25 E105.92 F1274.6
G1 X94.90 Y51.40 Z0.25 E105.98 F1207.5
G1 X94.40 Y50.40 Z0.25 E106.04 F1140.4
G1 X94.90 Y49.40 Z0.25 E106.10 F1073.3
G1 X94.40 Y48.40 Z0.25 E106.16 F1006.2
G1 X94.90 Y47.40 Z0.25 E106.22 F939.1
G1 X94.40 Y46.40 Z0.25 E106.27 F872.1
G1 X94.90 Y45.40 Z0.25 E106.33 F805.0
G1 X94.40 Y44.40 Z0.25 E106.39 F737.9
G1 X94.90 Y43.40 Z0.25 E106.45 F670.8
G1 X94.40 Y42.40 Z0.25 E106.51 F603.7
G1 X94.90 Y41.40 Z0.25 E106.56 F536.7
G1 X94.40 Y40.40 Z0.25 E106.62 F469.6
G1 X94.90 Y39.40 Z0.25 E106.68 F402.5
G1 X94.40 Y38.40 Z0.25 E106.74 F335.4
G1 X94.90 Y37.40 Z0.25 E106.80 F268.3
G1 X94.40 Y36.40 Z0.25 E106.85 F201.2
G1 X94.90 Y35.40 Z0.25 E106.91 F134.2
G1 X94.40 Y34.40 Z0.25 E106.97 F67.1
M201 X1000 Y1000
M205 X20 Y20
M205 J0.3
G0 X99.40 Y34.40 Z0.25 E106.97 F5400.0
M593 X D0.65
M203 X500 Y500 ; maximum feedrates
M204 P10000 ; print acceleration
M201 X10000 Y10000 ; max acceleration
M205 X500.00 Y500.00 ; jerk limits very high
M205 J0.3 ; junction deviation maximum
G1 X99.90 Y35.40 Z0.25 E107.03 F67.1
G1 X99.40 Y36.40 Z0.25 E107.09 F134.2
G1 X99.90 Y37.40 Z0.25 E107.15 F201.2
G1 X99.40 Y38.40 Z0.25 E107.20 F268.3
G1 X99.90 Y39.40 Z0.25 E107.26 F335.4
G1 X99.40 Y40.40 Z0.25 E107.32 F402.5
G1 X99.90 Y41.40 Z0.25 E107.38 F469.6
G1 X99.40 Y42.40 Z0.25 E107.44 F536.7
G1 X99.90 Y43.40 Z0.25 E107.49 F603.7
G1 X99.40 Y44.40 Z0.25 E107.55 F670.8
G1 X99.90 Y45.40 Z0.25 E107.61 F737.9
G1 X99.40 Y46.40 Z0.25 E107.67 F805.0
G1 X99.90 Y47.40 Z0.25 E107.73 F872.1
G1 X99.40 Y48.40 Z0.25 E107.78 F939.1
G1 X99.90 Y49.40 Z0.25 E107.84 F1006.2
G1 X99.40 Y50.40 Z0.25 E107.90 F1073.3
G1 X99.90 Y51.40 Z0.25 E107.96 F1140.4
G1 X99.40 Y52.40 Z0.25 E108.02 F1207.5
G1 X99.90 Y53.40 Z0.25 E108.07 F1274.6
G1 X99.40 Y54.40 Z0.25 E108.13 F1341.6
G1 X99.90 Y55.40 Z0.25 E108.19 F1408.7
G1 X99.40 Y56.40 Z0.25 E108.25 F1475.8
G1 X99.90 Y57.40 Z0.25 E108.31 F1542.9
G1 X99.40 Y58.40 Z0.25 E108.37 F1610.0
G1 X99.90 Y59.40 Z0.25 E108.42 F1677.1
G1 X99.40 Y60.40 Z0.25 E108.48 F1744.1
G1 X99.90 Y61.40 Z0.25 E108.54 F1811.2
G1 X99.40 Y62.40 Z0.25 E108.60 F1878.3
G1 X99.90 Y63.40 Z0.25 E108.66 F1945.4
G1 X99.40 Y64.40 Z0.25 E108.71 F2012.5
G1 X99.90 Y65.40 Z0.25 E108.77 F2079.5
G1 X99.40 Y66.40 Z0.25 E108.83 F2146.6
G1 X99.90 Y67.40 Z0.25 E108.89 F2213.7
G1 X99.40 Y68.40 Z0.25 E108.95 F2280.8
G1 X99.90 Y69.40 Z0.25 E109.00 F2347.9
G1 X99.40 Y70.40 Z0.25 E109.06 F2415.0
G1 X99.90 Y71.40 Z0.25 E109.12 F2482.0
G1 X99.40 Y72.40 Z0.25 E109.18 F2549.1
G1 X99.90 Y73.40 Z0.25 E109.24 F2616.2
G1 X99.40 Y74.40 Z0.25 E109.29 F2683.3
G1 X99.90 Y75.40 Z0.25 E109.35 F2750.4
G1 X99.40 Y76.40 Z0.25 E109.41 F2817.4
G1 X99.90 Y77.40 Z0.25 E109.47 F2884.5
G1 X99.40 Y78.40 Z0.25 E109.53 F2951.6
G1 X99.90 Y79.40 Z0.25 E109.59 F3018.7
G1 X99.40 Y80.40 Z0.25 E109.64 F3085.8
G1 X99.90 Y81.40 Z0.25 E109.70 F3152.9
G1 X99.40 Y82.40 Z0.25 E109.76 F3219.9
G1 X99.90 Y83.40 Z0.25 E109.82 F3287.0
G1 X99.40 Y84.40 Z0.25 E109.88 F3354.1
G1 X99.90 Y85.40 Z0.25 E109.93 F3421.2
G1 X99.40 Y86.40 Z0.25 E109.99 F3488.3
G1 X99.90 Y87.40 Z0.25 E110.05 F3555.3
G1 X99.40 Y88.40 Z0.25 E110.11 F3622.4
G1 X99.90 Y89.40 Z0.25 E110.17 F3689.5
G1 X99.40 Y90.40 Z0.25 E110.22 F3756.6
G1 X99.90 Y91.40 Z0.25 E110.28 F3823.7
G1 X99.40 Y92.40 Z0.25 E110.34 F3890.8
G1 X99.90 Y93.40 Z0.25 E110.40 F3957.8
G1 X99.40 Y94.40 Z0.25 E110.46 F4024.9
G1 X99.90 Y95.40 Z0.25 E110.52 F4092.0
G1 X99.40 Y96.40 Z0.25 E110.57 F4159.1
G1 X99.90 Y97.40 Z0.25 E110.63 F4226.2
G1 X99.40 Y98.40 Z0.25 E110.69 F4293.3
G1 X99.90 Y99.40 Z0.25 E110.75 F4360.3
G1 X99.40 Y100.40 Z0.25 E110.81 F4427.4
G1 X99.90 Y101.40 Z0.25 E110.86 F4494.5
G1 X99.40 Y102.40 Z0.25 E110.92 F4561.6
G1 X99.90 Y103.40 Z0.25 E110.98 F4628.7
G1 X99.40 Y104.40 Z0.25 E111.04 F4695.7
G1 X99.90 Y105.40 Z0.25 E111.10 F4762.8
G1 X99.40 Y106.40 Z0.25 E111.15 F4829.9
G1 X99.90 Y107.40 Z0.25 E111.21 F4897.0
G1 X99.40 Y108.40 Z0.25 E111.27 F4964.1
G1 X99.90 Y109.40 Z0.25 E111.33 F5031.2
G1 X99.40 Y110.40 Z0.25 E111.39 F5098.2
G1 X99.90 Y111.40 Z0.25 E111.44 F5165.3
G1 X99.40 Y112.40 Z0.25 E111.50 F5232.4
G1 X99.90 Y113.40 Z0.25 E111.56 F5299.5
G1 X99.40 Y114.40 Z0.25 E111.62 F5366.6
G1 X99.90 Y115.40 Z0.25 E111.68 F5433.6
G1 X99.40 Y116.40 Z0.25 E111.74 F5500.7
G1 X99.90 Y117.40 Z0.25 E111.79 F5567.8
G1 X99.40 Y118.40 Z0.25 E111.85 F5634.9
G1 X99.90 Y119.40 Z0.25 E111.91 F5702.0
G1 X99.40 Y120.40 Z0.25 E111.97 F5769.1
G1 X99.90 Y121.40 Z0.25 E112.03 F5836.1
G1 X99.40 Y122.40 Z0.25 E112.08 F5903.2
G1 X99.90 Y123.40 Z0.25 E112.14 F5970.3
G1 X99.40 Y124.40 Z0.25 E112.20 F6037.4
G1 X99.90 Y125.40 Z0.25 E112.26 F6104.5
G1 X99.40 Y126.40 Z0.25 E112.32 F6171.5
G1 X99.90 Y127.40 Z0.25 E112.37 F6238.6
G1 X99.40 Y128.40 Z0.25 E112.43 F6305.7
G1 X99.90 Y129.40 Z0.25 E112.49 F6372.8
G1 X99.40 Y130.40 Z0.25 E112.55 F6439.9
G1 X99.90 Y131.40 Z0.25 E112.61 F6507.0
G1 X99.40 Y132.40 Z0.25 E112.66 F6574.0
G1 X99.90 Y133.40 Z0.25 E112.72 F6641.1
G1 X99.40 Y134.40 Z0.25 E112.78 F6708.2
G1 X99.90 Y135.40 Z0.25 E112.84 F6775.3
G1 X99.40 Y136.40 Z0.25 E112.90 F6842.4
G1 X99.90 Y137.40 Z0.25 E112.96 F6909.5
G1 X99.40 Y138.40 Z0.25 E113.01 F6976.5
G1 X99.90 Y139.40 Z0.25 E113.07 F7043.6
G1 X99.40 Y140.40 Z0.25 E113.13 F7110.7
G1 X99.90 Y141.40 Z0.25 E113.19 F7177.8
G1 X99.40 Y142.40 Z0.25 E113.25 F7244.9
G1 X99.90 Y143.40 Z0.25 E113.30 F7311.9
G1 X99.40 Y144.40 Z0.25 E113.36 F7379.0
G1 X99.90 Y145.40 Z0.25 E113.42 F7446.1
G1 X99.40 Y146.40 Z0.25 E113.48 F7513.2
G1 X99.90 Y147.40 Z0.25 E113.54 F7580.3
G1 X99.40 Y148.40 Z0.25 E113.59 F7647.4
G1 X99.90 Y149.40 Z0.25 E113.65 F7714.4
G1 X99.40 Y150.40 Z0.25 E113.71 F7781.5
G1 X99.90 Y151.40 Z0.25 E113.77 F7848.6
G1 X99.40 Y152.40 Z0.25 E113.83 F7915.7
G1 X99.90 Y153.40 Z0.25 E113.89 F7982.8
G1 X99.40 Y154.40 Z0.25 E113.94 F8049.8
M201 X1000 Y1000
M205 X20 Y20
M205 J0.3
G1 X99.40 Y161.60 Z0.25 E114.32

G0 X104.40 Y161.60 Z0.25 E114.32 F5400.0
M593 X D0.70
G1 X104.40 Y154.40 Z0.25 E114.69 F8049.8
M203 X500 Y500 ; maximum feedrates
M204 P10000 ; print acceleration
M201 X10000 Y10000 ; max acceleration
M205 X500.00 Y500.00 ; jerk limits very high
M205 J0.3 ; junction deviation maximum
G1 X104.90 Y153.40 Z0.25 E114.75 F8049.8
G1 X104.40 Y152.40 Z0.25 E114.81 F7982.8
G1 X104.90 Y151.40 Z0.25 E114.87 F7915.7
G1 X104.40 Y150.40 Z0.25 E114.92 F7848.6
G1 X104.90 Y149.40 Z0.25 E114.98 F7781.5
G1 X104.40 Y148.40 Z0.25 E115.04 F7714.4
G1 X104.90 Y147.40 Z0.25 E115.10 F7647.4
G1 X104.40 Y146.40 Z0.25 E115.16 F7580.3
G1 X104.90 Y145.40 Z0.25 E115.21 F7513.2
G1 X104.40 Y144.40 Z0.25 E115.27 F7446.1
G1 X104.90 Y143.40 Z0.25 E115.33 F7379.0
G1 X104.40 Y142.40 Z0.25 E115.39 F7311.9
G1 X104.90 Y141.40 Z0.25 E115.45 F7244.9
G1 X104.40 Y140.40 Z0.25 E115.50 F7177.8
G1 X104.90 Y139.40 Z0.25 E115.56 F7110.7
G1 X104.40 Y138.40 Z0.25 E115.62 F7043.6
G1 X104.90 Y137.40 Z0.25 E115.68 F6976.5
G1 X104.40 Y136.40 Z0.25 E115.74 F6909.5
G1 X104.90 Y135.40 Z0.25 E115.80 F6842.4
G1 X104.40 Y134.40 Z0.25 E115.85 F6775.3
G1 X104.90 Y133.40 Z0.25 E115.91 F6708.2
G1 X104.40 Y132.40 Z0.25 E115.97 F6641.1
G1 X104.90 Y131.40 Z0.25 E116.03 F6574.0
G1 X104.40 Y130.40 Z0.25 E116.09 F6507.0
G1 X104.90 Y129.40 Z0.25 E116.14 F6439.9
G1 X104.40 Y128.40 Z0.25 E116.20 F6372.8
G1 X104.90 Y127.40 Z0.25 E116.26 F6305.7
G1 X104.40 Y126.40 Z0.25 E116.32 F6238.6
G1 X104.90 Y125.40 Z0.25 E116.38 F6171.5
G1 X104.40 Y124.40 Z0.25 E116.43 F6104.5
G1 X104.90 Y123.40 Z0.25 E116.49 F6037.4
G1 X104.40 Y122.40 Z0.25 E116.55 F5970.3
G1 X104.90 Y121.40 Z0.25 E116.61 F5903.2
G1 X104.40 Y120.40 Z0.25 E116.67 F5836.1
G1 X104.90 Y119.40 Z0.25 E116.73 F5769.1
G1 X104.40 Y118.40 Z0.25 E116.78 F5702.0
G1 X104.90 Y117.40 Z0.25 E116.84 F5634.9
G1 X104.40 Y116.40 Z0.25 E116.90 F5567.8
G1 X104.90 Y115.40 Z0.25 E116.96 F5500.7
G1 X104.40 Y114.40 Z0.25 E117.02 F5433.6
G1 X104.90 Y113.40 Z0.25 E117.07 F5366.6
G1 X104.40 Y112.40 Z0.25 E117.13 F5299.5
G1 X104.90 Y111.40 Z0.25 E117.19 F5232.4
G1 X104.40 Y110.40 Z0.25 E117.25 F5165.3
G1 X104.90 Y109.40 Z0.25 E117.31 F5098.2
G1 X104.40 Y108.40 Z0.25 E117.36 F5031.2
G1 X104.90 Y107.40 Z0.25 E117.42 F4964.1
G1 X104.40 Y106.40 Z0.25 E117.48 F4897.0
G1 X104.90 Y105.40 Z0.25 E117.54 F4829.9
G1 X104.40 Y104.40 Z0.25 E117.60 F4762.8
G1 X104.90 Y103.40 Z0.25 E117.65 F4695.7
G1 X104.40 Y102.40 Z0.25 E117.71 F4628.7
G1 X104.90 Y101.40 Z0.25 E117.77 F4561.6
G1 X104.40 Y100.40 Z0.25 E117.83 F4494.5
G1 X104.90 Y99.40 Z0.25 E117.89 F4427.4
G1 X104.40 Y98.40 Z0.25 E117.95 F4360.3
G1 X104.90 Y97.40 Z0.25 E118.00 F4293.3
G1 X104.40 Y96.40 Z0.25 E118.06 F4226.2
G1 X104.90 Y95.40 Z0.25 E118.12 F4159.1
G1 X104.40 Y94.40 Z0.25 E118.18 F4092.0
G1 X104.90 Y93.40 Z0.25 E118.24 F4024.9
G1 X104.40 Y92.40 Z0.25 E118.29 F3957.8
G1 X104.90 Y91.40 Z0.25 E118.35 F3890.8
G1 X104.40 Y90.40 Z0.25 E118.41 F3823.7
G1 X104.90 Y89.40 Z0.25 E118.47 F3756.6
G1 X104.40 Y88.40 Z0.25 E118.53 F3689.5
G1 X104.90 Y87.40 Z0.25 E118.58 F3622.4
G1 X104.40 Y86.40 Z0.25 E118.64 F3555.3
G1 X104.90 Y85.40 Z0.25 E118.70 F3488.3
G1 X104.40 Y84.40 Z0.25 E118.76 F3421.2
G1 X104.90 Y83.40 Z0.25 E118.82 F3354.1
G1 X104.40 Y82.40 Z0.25 E118.87 F3287.0
G1 X104.90 Y81.40 Z0.25 E118.93 F3219.9
G1 X104.40 Y80.40 Z0.25 E118.99 F3152.9
G1 X104.90 Y79.40 Z0.25 E119.05 F3085.8
G1 X104.40 Y78.40 Z0.25 E119.11 F3018.7
G1 X104.90 Y77.40 Z0.25 E119.17 F2951.6
G1 X104.40 Y76.40 Z0.25 E119.22 F2884.5
G1 X104.90 Y75.40 Z0.25 E119.28 F2817.4
G1 X104.40 Y74.40 Z0.25 E119.34 F2750.4
G1 X104.90 Y73.40 Z0.25 E119.40 F2683.3
G1 X104.40 Y72.40 Z0.25 E119.46 F2616.2
G1 X104.90 Y71.40 Z0.25 E119.51 F2549.1
G1 X104.40 Y70.40 Z0.25 E119.57 F2482.0
G1 X104.90 Y69.40 Z0.25 E119.63 F2415.0
G1 X104.40 Y68.40 Z0.25 E119.69 F2347.9
G1 X104.90 Y67.40 Z0.25 E119.75 F2280.8
G1 X104.40 Y66.40 Z0.25 E119.80 F2213.7
G1 X104.90 Y65.40 Z0.25 E119.86 F2146.6
G1 X104.40 Y64.40 Z0.25 E119.92 F2079.5
G1 X104.90 Y63.40 Z0.25 E119.98 F2012.5
G1 X104.40 Y62.40 Z0.25 E120.04 F1945.4
G1 X104.90 Y61.40 Z0.25 E120.10 F1878.3
G1 X104.40 Y60.40 Z0.25 E120.15 F1811.2
G1 X104.90 Y59.40 Z0.25 E120.21 F1744.1
G1 X104.40 Y58.40 Z0.25 E120.27 F1677.1
G1 X104.90 Y57.40 Z0.25 E120.33 F1610.0
G1 X104.40 Y56.40 Z0.25 E120.39 F1542.9
G1 X104.90 Y55.40 Z0.25 E120.44 F1475.8
G1 X104.40 Y54.40 Z0.25 E120.50 F1408.7
G1 X104.90 Y53.40 Z0.25 E120.56 F1341.6
G1 X104.40 Y52.40 Z0.25 E120.62 F1274.6
G1 X104.90 Y51.40 Z0.25 E120.68 F1207.5
G1 X104.40 Y50.40 Z0.25 E120.73 F1140.4
G1 X104.90 Y49.40 Z0.25 E120.79 F1073.3
G1 X104.40 Y48.40 Z0.25 E120.85 F1006.2
G1 X104.90 Y47.40 Z0.25 E120.91 F939.1
G1 X104.40 Y46.40 Z0.25 E120.97 F872.1
G1 X104.90 Y45.40 Z0.25 E121.02 F805.0
G1 X104.40 Y44.40 Z0.25 E121.08 F737.9
G1 X104.90 Y43.40 Z0.25 E121.14 F670.8
G1 X104.40 Y42.40 Z0.25 E121.20 F603.7
G1 X104.90 Y41.40 Z0.25 E121.26 F536.7
G1 X104.40 Y40.40 Z0.25 E121.32 F469.6
G1 X104.90 Y39.40 Z0.25 E121.37 F402.5
G1 X104.40 Y38.40 Z0.25 E121.43 F335.4
G1 X104.90 Y37.40 Z0.25 E121.49 F268.3
G1 X104.40 Y36.40 Z0.25 E121.55 F201.2
G1 X104.90 Y35.40 Z0.25 E121.61 F134.2
G1 X104.40 Y34.40 Z0.25 E121.66 F67.1
M201 X1000 Y1000
M205 X20 Y20
M205 J0.3
G0 X109.40 Y34.40 Z0.25 E121.66 F5400.0
M593 X D0.75
M203 X500 Y500 ; maximum feedrates
M204 P10000 ; print acceleration
M201 X10000 Y10000 ; max acceleration
M205 X500.00 Y500.00 ; jerk limits very high
M205 J0.3 ; junction deviation maximum
G1 X109.90 Y35.40 Z0.25 E121.72 F67.1
G1 X109.40 Y36.40 Z0.25 E121.78 F134.2
G1 X109.90 Y37.40 Z0.25 E121.84 F201.2
G1 X109.40 Y38.40 Z0.25 E121.90 F268.3
G1 X109.90 Y39.40 Z0.25 E121.95 F335.4
G1 X109.40 Y40.40 Z0.25 E122.01 F402.5
G1 X109.90 Y41.40 Z0.25 E122.07 F469.6
G1 X109.40 Y42.40 Z0.25 E122.13 F536.7
G1 X109.90 Y43.40 Z0.25 E122.19 F603.7
G1 X109.40 Y44.40 Z0.25 E122.24 F670.8
G1 X109.90 Y45.40 Z0.25 E122.30 F737.9
G1 X109.40 Y46.40 Z0.25 E122.36 F805.0
G1 X109.90 Y47.40 Z0.25 E122.42 F872.1
G1 X109.40 Y48.40 Z0.25 E122.48 F939.1
G1 X109.90 Y49.40 Z0.25 E122.54 F1006.2
G1 X109.40 Y50.40 Z0.25 E122.59 F1073.3
G1 X109.90 Y51.40 Z0.25 E122.65 F1140.4
G1 X109.40 Y52.40 Z0.25 E122.71 F1207.5
G1 X109.90 Y53.40 Z0.25 E122.77 F1274.6
G1 X109.40 Y54.40 Z0.25 E122.83 F1341.6
G1 X109.90 Y55.40 Z0.25 E122.88 F1408.7
G1 X109.40 Y56.40 Z0.25 E122.94 F1475.8
G1 X109.90 Y57.40 Z0.25 E123.00 F1542.9
G1 X109.40 Y58.40 Z0.25 E123.06 F1610.0
G1 X109.90 Y59.40 Z0.25 E123.12 F1677.1
G1 X109.40 Y60.40 Z0.25 E123.17 F1744.1
G1 X109.90 Y61.40 Z0.25 E123.23 F1811.2
G1 X109.40 Y62.40 Z0.25 E123.29 F1878.3
G1 X109.90 Y63.40 Z0.25 E123.35 F1945.4
G1 X109.40 Y64.40 Z0.25 E123.41 F2012.5
G1 X109.90 Y65.40 Z0.25 E123.47 F2079.5
G1 X109.40 Y66.40 Z0.25 E123.52 F2146.6
G1 X109.90 Y67.40 Z0.25 E123.58 F2213.7
G1 X109.40 Y68.40 Z0.25 E123.64 F2280.8
G1 X109.90 Y69.40 Z0.25 E123.70 F2347.9
G1 X109.40 Y70.40 Z0.25 E123.76 F2415.0
G1 X109.90 Y71.40 Z0.25 E123.81 F2482.0
G1 X109.40 Y72.40 Z0.25 E123.87 F2549.1
G1 X109.90 Y73.40 Z0.25 E123.93 F2616.2
G1 X109.40 Y74.40 Z0.25 E123.99 F2683.3
G1 X109.90 Y75.40 Z0.25 E124.05 F2750.4
G1 X109.40 Y76.40 Z0.25 E124.10 F2817.4
G1 X109.90 Y77.40 Z0.25 E124.16 F2884.5
G1 X109.40 Y78.40 Z0.25 E124.22 F2951.6
G1 X109.90 Y79.40 Z0.25 E124.28 F3018.7
G1 X109.40 Y80.40 Z0.25 E124.34 F3085.8
G1 X109.90 Y81.40 Z0.25 E124.39 F3152.9
G1 X109.40 Y82.40 Z0.25 E124.45 F3219.9
G1 X109.90 Y83.40 Z0.25 E124.51 F3287.0
G1 X109.40 Y84.40 Z0.25 E124.57 F3354.1
G1 X109.90 Y85.40 Z0.25 E124.63 F3421.2
G1 X109.40 Y86.40 Z0.25 E124.69 F3488.3
G1 X109.90 Y87.40 Z0.25 E124.74 F3555.3
G1 X109.40 Y88.40 Z0.25 E124.80 F3622.4
G1 X109.90 Y89.40 Z0.25 E124.86 F3689.5
G1 X109.40 Y90.40 Z0.25 E124.92 F3756.6
G1 X109.90 Y91.40 Z0.25 E124.98 F3823.7
G1 X109.40 Y92.40 Z0.25 E125.03 F3890.8
G1 X109.90 Y93.40 Z0.25 E125.09 F3957.8
G1 X109.40 Y94.40 Z0.25 E125.15 F4024.9
G1 X109.90 Y95.40 Z0.25 E125.21 F4092.0
G1 X109.40 Y96.40 Z0.25 E125.27 F4159.1
G1 X109.90 Y97.40 Z0.25 E125.32 F4226.2
G1 X109.40 Y98.40 Z0.25 E125.38 F4293.3
G1 X109.90 Y99.40 Z0.25 E125.44 F4360.3
G1 X109.40 Y100.40 Z0.25 E125.50 F4427.4
G1 X109.90 Y101.40 Z0.25 E125.56 F4494.5
G1 X109.40 Y102.40 Z0.25 E125.61 F4561.6
G1 X109.90 Y103.40 Z0.25 E125.67 F4628.7
G1 X109.40 Y104.40 Z0.25 E125.73 F4695.7
G1 X109.90 Y105.40 Z0.25 E125.79 F4762.8
G1 X109.40 Y106.40 Z0.25 E125.85 F4829.9
G1 X109.90 Y107.40 Z0.25 E125.91 F4897.0
G1 X109.40 Y108.40 Z0.25 E125.96 F4964.1
G1 X109.90 Y109.40 Z0.25 E126.02 F5031.2
G1 X109.40 Y110.40 Z0.25 E126.08 F5098.2
G1 X109.90 Y111.40 Z0.25 E126.14 F5165.3
G1 X109.40 Y112.40 Z0.25 E126.20 F5232.4
G1 X109.90 Y113.40 Z0.25 E126.25 F5299.5
G1 X109.40 Y114.40 Z0.25 E126.31 F5366.6
G1 X109.90 Y115.40 Z0.25 E126.37 F5433.6
G1 X109.40 Y116.40 Z0.25 E126.43 F5500.7
G1 X109.90 Y117.40 Z0.25 E126.49 F5567.8
G1 X109.40 Y118.40 Z0.25 E126.54 F5634.9
G1 X109.90 Y119.40 Z0.25 E126.60 F5702.0
G1 X109.40 Y120.40 Z0.25 E126.66 F5769.1
G1 X109.90 Y121.40 Z0.25 E126.72 F5836.1
G1 X109.40 Y122.40 Z0.25 E126.78 F5903.2
G1 X109.90 Y123.40 Z0.25 E126.84 F5970.3
G1 X109.40 Y124.40 Z0.25 E126.89 F6037.4
G1 X109.90 Y125.40 Z0.25 E126.95 F6104.5
G1 X109.40 Y126.40 Z0.25 E127.01 F6171.5
G1 X109.90 Y127.40 Z0.25 E127.07 F6238.6
G1 X109.40 Y128.40 Z0.25 E127.13 F6305.7
G1 X109.90 Y129.40 Z0.25 E127.18 F6372.8
G1 X109.40 Y130.40 Z0.25 E127.24 F6439.9
G1 X109.90 Y131.40 Z0.25 E127.30 F6507.0
G1 X109.40 Y132.40 Z0.25 E127.36 F6574.0
G1 X109.90 Y133.40 Z0.25 E127.42 F6641.1
G1 X109.40 Y134.40 Z0.25 E127.47 F6708.2
G1 X109.90 Y135.40 Z0.25 E127.53 F6775.3
G1 X109.40 Y136.40 Z0.25 E127.59 F6842.4
G1 X109.90 Y137.40 Z0.25 E127.65 F6909.5
G1 X109.40 Y138.40 Z0.25 E127.71 F6976.5
G1 X109.90 Y139.40 Z0.25 E127.76 F7043.6
G1 X109.40 Y140.40 Z0.25 E127.82 F7110.7
G1 X109.90 Y141.40 Z0.25 E127.88 F7177.8
G1 X109.40 Y142.40 Z0.25 E127.94 F7244.9
G1 X109.90 Y143.40 Z0.25 E128.00 F7311.9
G1 X109.40 Y144.40 Z0.25 E128.06 F7379.0
G1 X109.90 Y145.40 Z0.25 E128.11 F7446.1
G1 X109.40 Y146.40 Z0.25 E128.17 F7513.2
G1 X109.90 Y147.40 Z0.25 E128.23 F7580.3
G1 X109.40 Y148.40 Z0.25 E128.29 F7647.4
G1 X109.90 Y149.40 Z0.25 E128.35 F7714.4
G1 X109.40 Y150.40 Z0.25 E128.40 F7781.5
G1 X109.90 Y151.40 Z0.25 E128.46 F7848.6
G1 X109.40 Y152.40 Z0.25 E128.52 F7915.7
G1 X109.90 Y153.40 Z0.25 E128.58 F7982.8
G1 X109.40 Y154.40 Z0.25 E128.64 F8049.8
M201 X1000 Y1000
M205 X20 Y20
M205 J0.3
G1 X109.40 Y161.60 Z0.25 E129.01

G0 X114.40 Y161.60 Z0.25 E129.01 F5400.0
M593 X D0.80
G1 X114.40 Y154.40 Z0.25 E129.38 F8049.8
M203 X500 Y500 ; maximum feedrates
M204 P10000 ; print acceleration
M201 X10000 Y10000 ; max acceleration
M205 X500.00 Y500.00 ; jerk limits very high
M205 J0.3 ; junction deviation maximum
G1 X114.90 Y153.40 Z0.25 E129.44 F8049.8
G1 X114.40 Y152.40 Z0.25 E129.50 F7982.8
G1 X114.90 Y151.40 Z0.25 E129.56 F7915.7
G1 X114.40 Y150.40 Z0.25 E129.62 F7848.6
G1 X114.90 Y149.40 Z0.25 E129.68 F7781.5
G1 X114.40 Y148.40 Z0.25 E129.73 F7714.4
G1 X114.90 Y147.40 Z0.25 E129.79 F7647.4
G1 X114.40 Y146.40 Z0.25 E129.85 F7580.3
G1 X114.90 Y145.40 Z0.25 E129.91 F7513.2
G1 X114.40 Y144.40 Z0.25 E129.97 F7446.1
G1 X114.90 Y143.40 Z0.25 E130.02 F7379.0
G1 X114.40 Y142.40 Z0.25 E130.08 F7311.9
G1 X114.90 Y141.40 Z0.25 E130.14 F7244.9
G1 X114.40 Y140.40 Z0.25 E130.20 F7177.8
G1 X114.90 Y139.40 Z0.25 E130.26 F7110.7
G1 X114.40 Y138.40 Z0.25 E130.31 F7043.6
G1 X114.90 Y137.40 Z0.25 E130.37 F6976.5
G1 X114.40 Y136.40 Z0.25 E130.43 F6909.5
G1 X114.90 Y135.40 Z0.25 E130.49 F6842.4
G1 X114.40 Y134.40 Z0.25 E130.55 F6775.3
G1 X114.90 Y133.40 Z0.25 E130.60 F6708.2
G1 X114.40 Y132.40 Z0.25 E130.66 F6641.1
G1 X114.90 Y131.40 Z0.25 E130.72 F6574.0
G1 X114.40 Y130.40 Z0.25 E130.78 F6507.0
G1 X114.90 Y129.40 Z0.25 E130.84 F6439.9
G1 X114.40 Y128.40 Z0.25 E130.90 F6372.8
G1 X114.90 Y127.40 Z0.25 E130.95 F6305.7
G1 X114.40 Y126.40 Z0.25 E131.01 F6238.6
G1 X114.90 Y125.40 Z0.25 E131.07 F6171.5
G1 X114.40 Y124.40 Z0.25 E131.13 F6104.5
G1 X114.90 Y123.40 Z0.25 E131.19 F6037.4
G1 X114.40 Y122.40 Z0.25 E131.24 F5970.3
G1 X114.90 Y121.40 Z0.25 E131.30 F5903.2
G1 X114.40 Y120.40 Z0.25 E131.36 F5836.1
G1 X114.90 Y119.40 Z0.25 E131.42 F5769.1
G1 X114.40 Y118.40 Z0.25 E131.48 F5702.0
G1 X114.90 Y117.40 Z0.25 E131.53 F5634.9
G1 X114.40 Y116.40 Z0.25 E131.59 F5567.8
G1 X114.90 Y115.40 Z0.25 E131.65 F5500.7
G1 X114.40 Y114.40 Z0.25 E131.71 F5433.6
G1 X114.90 Y113.40 Z0.25 E131.77 F5366.6
G1 X114.40 Y112.40 Z0.25 E131.82 F5299.5
G1 X114.90 Y111.40 Z0.25 E131.88 F5232.4
G1 X114.40 Y110.40 Z0.25 E131.94 F5165.3
G1 X114.90 Y109.40 Z0.25 E132.00 F5098.2
G1 X114.40 Y108.40 Z0.25 E132.06 F5031.2
G1 X114.90 Y107.40 Z0.25 E132.12 F4964.1
G1 X114.40 Y106.40 Z0.25 E132.17 F4897.0
G1 X114.90 Y105.40 Z0.25 E132.23 F4829.9
G1 X114.40 Y104.40 Z0.25 E132.29 F4762.8
G1 X114.90 Y103.40 Z0.25 E132.35 F4695.7
G1 X114.40 Y102.40 Z0.25 E132.41 F4628.7
G1 X114.90 Y101.40 Z0.25 E132.46 F4561.6
G1 X114.40 Y100.40 Z0.25 E132.52 F4494.5
G1 X114.90 Y99.40 Z0.25 E132.58 F4427.4
G1 X114.40 Y98.40 Z0.25 E132.64 F4360.3
G1 X114.90 Y97.40 Z0.25 E132.70 F4293.3
G1 X114.40 Y96.40 Z0.25 E132.75 F4226.2
G1 X114.90 Y95.40 Z0.25 E132.81 F4159.1
G1 X114.40 Y94.40 Z0.25 E132.87 F4092.0
G1 X114.90 Y93.40 Z0.25 E132.93 F4024.9
G1 X114.40 Y92.40 Z0.25 E132.99 F3957.8
G1 X114.90 Y91.40 Z0.25 E133.05 F3890.8
G1 X114.40 Y90.40 Z0.25 E133.10 F3823.7
G1 X114.90 Y89.40 Z0.25 E133.16 F3756.6
G1 X114.40 Y88.40 Z0.25 E133.22 F3689.5
G1 X114.90 Y87.40 Z0.25 E133.28 F3622.4
G1 X114.40 Y86.40 Z0.25 E133.34 F3555.3
G1 X114.90 Y85.40 Z0.25 E133.39 F3488.3
G1 X114.40 Y84.40 Z0.25 E133.45 F3421.2
G1 X114.90 Y83.40 Z0.25 E133.51 F3354.1
G1 X114.40 Y82.40 Z0.25 E133.57 F3287.0
G1 X114.90 Y81.40 Z0.25 E133.63 F3219.9
G1 X114.40 Y80.40 Z0.25 E133.68 F3152.9
G1 X114.90 Y79.40 Z0.25 E133.74 F3085.8
G1 X114.40 Y78.40 Z0.25 E133.80 F3018.7
G1 X114.90 Y77.40 Z0.25 E133.86 F2951.6
G1 X114.40 Y76.40 Z0.25 E133.92 F2884.5
G1 X114.90 Y75.40 Z0.25 E133.97 F2817.4
G1 X114.40 Y74.40 Z0.25 E134.03 F2750.4
G1 X114.90 Y73.40 Z0.25 E134.09 F2683.3
G1 X114.40 Y72.40 Z0.25 E134.15 F2616.2
G1 X114.90 Y71.40 Z0.25 E134.21 F2549.1
G1 X114.40 Y70.40 Z0.25 E134.27 F2482.0
G1 X114.90 Y69.40 Z0.25 E134.32 F2415.0
G1 X114.40 Y68.40 Z0.25 E134.38 F2347.9
G1 X114.90 Y67.40 Z0.25 E134.44 F2280.8
G1 X114.40 Y66.40 Z0.25 E134.50 F2213.7
G1 X114.90 Y65.40 Z0.25 E134.56 F2146.6
G1 X114.40 Y64.40 Z0.25 E134.61 F2079.5
G1 X114.90 Y63.40 Z0.25 E134.67 F2012.5
G1 X114.40 Y62.40 Z0.25 E134.73 F1945.4
G1 X114.90 Y61.40 Z0.25 E134.79 F1878.3
G1 X114.40 Y60.40 Z0.25 E134.85 F1811.2
G1 X114.90 Y59.40 Z0.25 E134.90 F1744.1
G1 X114.40 Y58.40 Z0.25 E134.96 F1677.1
G1 X114.90 Y57.40 Z0.25 E135.02 F1610.0
G1 X114.40 Y56.40 Z0.25 E135.08 F1542.9
G1 X114.90 Y55.40 Z0.25 E135.14 F1475.8
G1 X114.40 Y54.40 Z0.25 E135.19 F1408.7
G1 X114.90 Y53.40 Z0.25 E135.25 F1341.6
G1 X114.40 Y52.40 Z0.25 E135.31 F1274.6
G1 X114.90 Y51.40 Z0.25 E135.37 F1207.5
G1 X114.40 Y50.40 Z0.25 E135.43 F1140.4
G1 X114.90 Y49.40 Z0.25 E135.49 F1073.3
G1 X114.40 Y48.40 Z0.25 E135.54 F1006.2
G1 X114.90 Y47.40 Z0.25 E135.60 F939.1
G1 X114.40 Y46.40 Z0.25 E135.66 F872.1
G1 X114.90 Y45.40 Z0.25 E135.72 F805.0
G1 X114.40 Y44.40 Z0.25 E135.78 F737.9
G1 X114.90 Y43.40 Z0.25 E135.83 F670.8
G1 X114.40 Y42.40 Z0.25 E135.89 F603.7
G1 X114.90 Y41.40 Z0.25 E135.95 F536.7
G1 X114.40 Y40.40 Z0.25 E136.01 F469.6
G1 X114.90 Y39.40 Z0.25 E136.07 F402.5
G1 X114.40 Y38.40 Z0.25 E136.12 F335.4
G1 X114.90 Y37.40 Z0.25 E136.18 F268.3
G1 X114.40 Y36.40 Z0.25 E136.24 F201.2
G1 X114.90 Y35.40 Z0.25 E136.30 F134.2
G1 X114.40 Y34.40 Z0.25 E136.36 F67.1
M201 X1000 Y1000
M205 X20 Y20
M205 J0.3
G0 X119.40 Y34.40 Z0.25 E136.36 F5400.0
M593 X D0.85
M203 X500 Y500 ; maximum feedrates
M204 P10000 ; print acceleration
M201 X10000 Y10000 ; max acceleration
M205 X500.00 Y500.00 ; jerk limits very high
M205 J0.3 ; junction deviation maximum
G1 X119.90 Y35.40 Z0.25 E136.42 F67.1
G1 X119.40 Y36.40 Z0.25 E136.47 F134.2
G1 X119.90 Y37.40 Z0.25 E136.53 F201.2
G1 X119.40 Y38.40 Z0.25 E136.59 F268.3
G1 X119.90 Y39.40 Z0.25 E136.65 F335.4
G1 X119.40 Y40.40 Z0.25 E136.71 F402.5
G1 X119.90 Y41.40 Z0.25 E136.76 F469.6
G1 X119.40 Y42.40 Z0.25 E136.82 F536.7
G1 X119.90 Y43.40 Z0.25 E136.88 F603.7
G1 X119.40 Y44.40 Z0.25 E136.94 F670.8
G1 X119.90 Y45.40 Z0.25 E137.00 F737.9
G1 X119.40 Y46.40 Z0.25 E137.05 F805.0
G1 X119.90 Y47.40 Z0.25 E137.11 F872.1
G1 X119.40 Y48.40 Z0.25 E137.17 F939.1
G1 X119.90 Y49.40 Z0.25 E137.23 F1006.2
G1 X119.40 Y50.40 Z0.25 E137.29 F1073.3
G1 X119.90 Y51.40 Z0.25 E137.34 F1140.4
G1 X119.40 Y52.40 Z0.25 E137.40 F1207.5
G1 X119.90 Y53.40 Z0.25 E137.46 F1274.6
G1 X119.40 Y54.40 Z0.25 E137.52 F1341.6
G1 X119.90 Y55.40 Z0.25 E137.58 F1408.7
G1 X119.40 Y56.40 Z0.25 E137.64 F1475.8
G1 X119.90 Y57.40 Z0.25 E137.69 F1542.9
G1 X119.40 Y58.40 Z0.25 E137.75 F1610.0
G1 X119.90 Y59.40 Z0.25 E137.81 F1677.1
G1 X119.40 Y60.40 Z0.25 E137.87 F1744.1
G1 X119.90 Y61.40 Z0.25 E137.93 F1811.2
G1 X119.40 Y62.40 Z0.25 E137.98 F1878.3
G1 X119.90 Y63.40 Z0.25 E138.04 F1945.4
G1 X119.40 Y64.40 Z0.25 E138.10 F2012.5
G1 X119.90 Y65.40 Z0.25 E138.16 F2079.5
G1 X119.40 Y66.40 Z0.25 E138.22 F2146.6
G1 X119.90 Y67.40 Z0.25 E138.27 F2213.7
G1 X119.40 Y68.40 Z0.25 E138.33 F2280.8
G1 X119.90 Y69.40 Z0.25 E138.39 F2347.9
G1 X119.40 Y70.40 Z0.25 E138.45 F2415.0
G1 X119.90 Y71.40 Z0.25 E138.51 F2482.0
G1 X119.40 Y72.40 Z0.25 E138.56 F2549.1
G1 X119.90 Y73.40 Z0.25 E138.62 F2616.2
G1 X119.40 Y74.40 Z0.25 E138.68 F2683.3
G1 X119.90 Y75.40 Z0.25 E138.74 F2750.4
G1 X119.40 Y76.40 Z0.25 E138.80 F2817.4
G1 X119.90 Y77.40 Z0.25 E138.86 F2884.5
G1 X119.40 Y78.40 Z0.25 E138.91 F2951.6
G1 X119.90 Y79.40 Z0.25 E138.97 F3018.7
G1 X119.40 Y80.40 Z0.25 E139.03 F3085.8
G1 X119.90 Y81.40 Z0.25 E139.09 F3152.9
G1 X119.40 Y82.40 Z0.25 E139.15 F3219.9
G1 X119.90 Y83.40 Z0.25 E139.20 F3287.0
G1 X119.40 Y84.40 Z0.25 E139.26 F3354.1
G1 X119.90 Y85.40 Z0.25 E139.32 F3421.2
G1 X119.40 Y86.40 Z0.25 E139.38 F3488.3
G1 X119.90 Y87.40 Z0.25 E139.44 F3555.3
G1 X119.40 Y88.40 Z0.25 E139.49 F3622.4
G1 X119.90 Y89.40 Z0.25 E139.55 F3689.5
G1 X119.40 Y90.40 Z0.25 E139.61 F3756.6
G1 X119.90 Y91.40 Z0.25 E139.67 F3823.7
G1 X119.40 Y92.40 Z0.25 E139.73 F3890.8
G1 X119.90 Y93.40 Z0.25 E139.79 F3957.8
G1 X119.40 Y94.40 Z0.25 E139.84 F4024.9
G1 X119.90 Y95.40 Z0.25 E139.90 F4092.0
G1 X119.40 Y96.40 Z0.25 E139.96 F4159.1
G1 X119.90 Y97.40 Z0.25 E140.02 F4226.2
G1 X119.40 Y98.40 Z0.25 E140.08 F4293.3
G1 X119.90 Y99.40 Z0.25 E140.13 F4360.3
G1 X119.40 Y100.40 Z0.25 E140.19 F4427.4
G1 X119.90 Y101.40 Z0.25 E140.25 F4494.5
G1 X119.40 Y102.40 Z0.25 E140.31 F4561.6
G1 X119.90 Y103.40 Z0.25 E140.37 F4628.7
G1 X119.40 Y104.40 Z0.25 E140.42 F4695.7
G1 X119.90 Y105.40 Z0.25 E140.48 F4762.8
G1 X119.40 Y106.40 Z0.25 E140.54 F4829.9
G1 X119.90 Y107.40 Z0.25 E140.60 F4897.0
G1 X119.40 Y108.40 Z0.25 E140.66 F4964.1
G1 X119.90 Y109.40 Z0.25 E140.71 F5031.2
G1 X119.40 Y110.40 Z0.25 E140.77 F5098.2
G1 X119.90 Y111.40 Z0.25 E140.83 F5165.3
G1 X119.40 Y112.40 Z0.25 E140.89 F5232.4
G1 X119.90 Y113.40 Z0.25 E140.95 F5299.5
G1 X119.40 Y114.40 Z0.25 E141.01 F5366.6
G1 X119.90 Y115.40 Z0.25 E141.06 F5433.6
G1 X119.40 Y116.40 Z0.25 E141.12 F5500.7
G1 X119.90 Y117.40 Z0.25 E141.18 F5567.8
G1 X119.40 Y118.40 Z0.25 E141.24 F5634.9
G1 X119.90 Y119.40 Z0.25 E141.30 F5702.0
G1 X119.40 Y120.40 Z0.25 E141.35 F5769.1
G1 X119.90 Y121.40 Z0.25 E141.41 F5836.1
G1 X119.40 Y122.40 Z0.25 E141.47 F5903.2
G1 X119.90 Y123.40 Z0.25 E141.53 F5970.3
G1 X119.40 Y124.40 Z0.25 E141.59 F6037.4
G1 X119.90 Y125.40 Z0.25 E141.64 F6104.5
G1 X119.40 Y126.40 Z0.25 E141.70 F6171.5
G1 X119.90 Y127.40 Z0.25 E141.76 F6238.6
G1 X119.40 Y128.40 Z0.25 E141.82 F6305.7
G1 X119.90 Y129.40 Z0.25 E141.88 F6372.8
G1 X119.40 Y130.40 Z0.25 E141.93 F6439.9
G1 X119.90 Y131.40 Z0.25 E141.99 F6507.0
G1 X119.40 Y132.40 Z0.25 E142.05 F6574.0
G1 X119.90 Y133.40 Z0.25 E142.11 F6641.1
G1 X119.40 Y134.40 Z0.25 E142.17 F6708.2
G1 X119.90 Y135.40 Z0.25 E142.23 F6775.3
G1 X119.40 Y136.40 Z0.25 E142.28 F6842.4
G1 X119.90 Y137.40 Z0.25 E142.34 F6909.5
G1 X119.40 Y138.40 Z0.25 E142.40 F6976.5
G1 X119.90 Y139.40 Z0.25 E142.46 F7043.6
G1 X119.40 Y140.40 Z0.25 E142.52 F7110.7
G1 X119.90 Y141.40 Z0.25 E142.57 F7177.8
G1 X119.40 Y142.40 Z0.25 E142.63 F7244.9
G1 X119.90 Y143.40 Z0.25 E142.69 F7311.9
G1 X119.40 Y144.40 Z0.25 E142.75 F7379.0
G1 X119.90 Y145.40 Z0.25 E142.81 F7446.1
G1 X119.40 Y146.40 Z0.25 E142.86 F7513.2
G1 X119.90 Y147.40 Z0.25 E142.92 F7580.3
G1 X119.40 Y148.40 Z0.25 E142.98 F7647.4
G1 X119.90 Y149.40 Z0.25 E143.04 F7714.4
G1 X119.40 Y150.40 Z0.25 E143.10 F7781.5
G1 X119.90 Y151.40 Z0.25 E143.16 F7848.6
G1 X119.40 Y152.40 Z0.25 E143.21 F7915.7
G1 X119.90 Y153.40 Z0.25 E143.27 F7982.8
G1 X119.40 Y154.40 Z0.25 E143.33 F8049.8
M201 X1000 Y1000
M205 X20 Y20
M205 J0.3
G1 X119.40 Y161.60 Z0.25 E143.70

G0 X124.40 Y161.60 Z0.25 E143.70 F5400.0
M593 X D0.90
G1 X124.40 Y154.40 Z0.25 E144.08 F8049.8
M203 X500 Y500 ; maximum feedrates
M204 P10000 ; print acceleration
M201 X10000 Y10000 ; max acceleration
M205 X500.00 Y500.00 ; jerk limits very high
M205 J0.3 ; junction deviation maximum
G1 X124.90 Y153.40 Z0.25 E144.14 F8049.8
G1 X124.40 Y152.40 Z0.25 E144.19 F7982.8
G1 X124.90 Y151.40 Z0.25 E144.25 F7915.7
G1 X124.40 Y150.40 Z0.25 E144.31 F7848.6
G1 X124.90 Y149.40 Z0.25 E144.37 F7781.5
G1 X124.40 Y148.40 Z0.25 E144.43 F7714.4
G1 X124.90 Y147.40 Z0.25 E144.48 F7647.4
G1 X124.40 Y146.40 Z0.25 E144.54 F7580.3
G1 X124.90 Y145.40 Z0.25 E144.60 F7513.2
G1 X124.40 Y144.40 Z0.25 E144.66 F7446.1
G1 X124.90 Y143.40 Z0.25 E144.72 F7379.0
G1 X124.40 Y142.40 Z0.25 E144.77 F7311.9
G1 X124.90 Y141.40 Z0.25 E144.83 F7244.9
G1 X124.40 Y140.40 Z0.25 E144.89 F7177.8
G1 X124.90 Y139.40 Z0.25 E144.95 F7110.7
G1 X124.40 Y138.40 Z0.25 E145.01 F7043.6
G1 X124.90 Y137.40 Z0.25 E145.07 F6976.5
G1 X124.40 Y136.40 Z0.25 E145.12 F6909.5
G1 X124.90 Y135.40 Z0.25 E145.18 F6842.4
G1 X124.40 Y134.40 Z0.25 E145.24 F6775.3
G1 X124.90 Y133.40 Z0.25 E145.30 F6708.2
G1 X124.40 Y132.40 Z0.25 E145.36 F6641.1
G1 X124.90 Y131.40 Z0.25 E145.41 F6574.0
G1 X124.40 Y130.40 Z0.25 E145.47 F6507.0
G1 X124.90 Y129.40 Z0.25 E145.53 F6439.9
G1 X124.40 Y128.40 Z0.25 E145.59 F6372.8
G1 X124.90 Y127.40 Z0.25 E145.65 F6305.7
G1 X124.40 Y126.40 Z0.25 E145.70 F6238.6
G1 X124.90 Y125.40 Z0.25 E145.76 F6171.5
G1 X124.40 Y124.40 Z0.25 E145.82 F6104.5
G1 X124.90 Y123.40 Z0.25 E145.88 F6037.4
G1 X124.40 Y122.40 Z0.25 E145.94 F5970.3
G1 X124.90 Y121.40 Z0.25 E146.00 F5903.2
G1 X124.40 Y120.40 Z0.25 E146.05 F5836.1
G1 X124.90 Y119.40 Z0.25 E146.11 F5769.1
G1 X124.40 Y118.40 Z0.25 E146.17 F5702.0
G1 X124.90 Y117.40 Z0.25 E146.23 F5634.9
G1 X124.40 Y116.40 Z0.25 E146.29 F5567.8
G1 X124.90 Y115.40 Z0.25 E146.34 F5500.7
G1 X124.40 Y114.40 Z0.25 E146.40 F5433.6
G1 X124.90 Y113.40 Z0.25 E146.46 F5366.6
G1 X124.40 Y112.40 Z0.25 E146.52 F5299.5
G1 X124.90 Y111.40 Z0.25 E146.58 F5232.4
G1 X124.40 Y110.40 Z0.25 E146.63 F5165.3
G1 X124.90 Y109.40 Z0.25 E146.69 F5098.2
G1 X124.40 Y108.40 Z0.25 E146.75 F5031.2
G1 X124.90 Y107.40 Z0.25 E146.81 F4964.1
G1 X124.40 Y106.40 Z0.25 E146.87 F4897.0
G1 X124.90 Y105.40 Z0.25 E146.92 F4829.9
G1 X124.40 Y104.40 Z0.25 E146.98 F4762.8
G1 X124.90 Y103.40 Z0.25 E147.04 F4695.7
G1 X124.40 Y102.40 Z0.25 E147.10 F4628.7
G1 X124.90 Y101.40 Z0.25 E147.16 F4561.6
G1 X124.40 Y100.40 Z0.25 E147.22 F4494.5
G1 X124.90 Y99.40 Z0.25 E147.27 F4427.4
G1 X124.40 Y98.40 Z0.25 E147.33 F4360.3
G1 X124.90 Y97.40 Z0.25 E147.39 F4293.3
G1 X124.40 Y96.40 Z0.25 E147.45 F4226.2
G1 X124.90 Y95.40 Z0.25 E147.51 F4159.1
G1 X124.40 Y94.40 Z0.25 E147.56 F4092.0
G1 X124.90 Y93.40 Z0.25 E147.62 F4024.9
G1 X124.40 Y92.40 Z0.25 E147.68 F3957.8
G1 X124.90 Y91.40 Z0.25 E147.74 F3890.8
G1 X124.40 Y90.40 Z0.25 E147.80 F3823.7
G1 X124.90 Y89.40 Z0.25 E147.85 F3756.6
G1 X124.40 Y88.40 Z0.25 E147.91 F3689.5
G1 X124.90 Y87.40 Z0.25 E147.97 F3622.4
G1 X124.40 Y86.40 Z0.25 E148.03 F3555.3
G1 X124.90 Y85.40 Z0.25 E148.09 F3488.3
G1 X124.40 Y84.40 Z0.25 E148.14 F3421.2
G1 X124.90 Y83.40 Z0.25 E148.20 F3354.1
G1 X124.40 Y82.40 Z0.25 E148.26 F3287.0
G1 X124.90 Y81.40 Z0.25 E148.32 F3219.9
G1 X124.40 Y80.40 Z0.25 E148.38 F3152.9
G1 X124.90 Y79.40 Z0.25 E148.44 F3085.8
G1 X124.40 Y78.40 Z0.25 E148.49 F3018.7
G1 X124.90 Y77.40 Z0.25 E148.55 F2951.6
G1 X124.40 Y76.40 Z0.25 E148.61 F2884.5
G1 X124.90 Y75.40 Z0.25 E148.67 F2817.4
G1 X124.40 Y74.40 Z0.25 E148.73 F2750.4
G1 X124.90 Y73.40 Z0.25 E148.78 F2683.3
G1 X124.40 Y72.40 Z0.25 E148.84 F2616.2
G1 X124.90 Y71.40 Z0.25 E148.90 F2549.1
G1 X124.40 Y70.40 Z0.25 E148.96 F2482.0
G1 X124.90 Y69.40 Z0.25 E149.02 F2415.0
G1 X124.40 Y68.40 Z0.25 E149.07 F2347.9
G1 X124.90 Y67.40 Z0.25 E149.13 F2280.8
G1 X124.40 Y66.40 Z0.25 E149.19 F2213.7
G1 X124.90 Y65.40 Z0.25 E149.25 F2146.6
G1 X124.40 Y64.40 Z0.25 E149.31 F2079.5
G1 X124.90 Y63.40 Z0.25 E149.37 F2012.5
G1 X124.40 Y62.40 Z0.25 E149.42 F1945.4
G1 X124.90 Y61.40 Z0.25 E149.48 F1878.3
G1 X124.40 Y60.40 Z0.25 E149.54 F1811.2
G1 X124.90 Y59.40 Z0.25 E149.60 F1744.1
G1 X124.40 Y58.40 Z0.25 E149.66 F1677.1
G1 X124.90 Y57.40 Z0.25 E149.71 F1610.0
G1 X124.40 Y56.40 Z0.25 E149.77 F1542.9
G1 X124.90 Y55.40 Z0.25 E149.83 F1475.8
G1 X124.40 Y54.40 Z0.25 E149.89 F1408.7
G1 X124.90 Y53.40 Z0.25 E149.95 F1341.6
G1 X124.40 Y52.40 Z0.25 E150.00 F1274.6
G1 X124.90 Y51.40 Z0.25 E150.06 F1207.5
G1 X124.40 Y50.40 Z0.25 E150.12 F1140.4
G1 X124.90 Y49.40 Z0.25 E150.18 F1073.3
G1 X124.40 Y48.40 Z0.25 E150.24 F1006.2
G1 X124.90 Y47.40 Z0.25 E150.29 F939.1
G1 X124.40 Y46.40 Z0.25 E150.35 F872.1
G1 X124.90 Y45.40 Z0.25 E150.41 F805.0
G1 X124.40 Y44.40 Z0.25 E150.47 F737.9
G1 X124.90 Y43.40 Z0.25 E150.53 F670.8
G1 X124.40 Y42.40 Z0.25 E150.59 F603.7
G1 X124.90 Y41.40 Z0.25 E150.64 F536.7
G1 X124.40 Y40.40 Z0.25 E150.70 F469.6
G1 X124.90 Y39.40 Z0.25 E150.76 F402.5
G1 X124.40 Y38.40 Z0.25 E150.82 F335.4
G1 X124.90 Y37.40 Z0.25 E150.88 F268.3
G1 X124.40 Y36.40 Z0.25 E150.93 F201.2
G1 X124.90 Y35.40 Z0.25 E150.99 F134.2
G1 X124.40 Y34.40 Z0.25 E151.05 F67.1
M201 X1000 Y1000
M205 X20 Y20
M205 J0.3
G0 X129.40 Y34.40 Z0.25 E151.05 F5400.0
M593 X D0.95
M203 X500 Y500 ; maximum feedrates
M204 P10000 ; print acceleration
M201 X10000 Y10000 ; max acceleration
M205 X500.00 Y500.00 ; jerk limits very high
M205 J0.3 ; junction deviation maximum
G1 X129.90 Y35.40 Z0.25 E151.11 F67.1
G1 X129.40 Y36.40 Z0.25 E151.17 F134.2
G1 X129.90 Y37.40 Z0.25 E151.22 F201.2
G1 X129.40 Y38.40 Z0.25 E151.28 F268.3
G1 X129.90 Y39.40 Z0.25 E151.34 F335.4
G1 X129.40 Y40.40 Z0.25 E151.40 F402.5
G1 X129.90 Y41.40 Z0.25 E151.46 F469.6
G1 X129.40 Y42.40 Z0.25 E151.51 F536.7
G1 X129.90 Y43.40 Z0.25 E151.57 F603.7
G1 X129.40 Y44.40 Z0.25 E151.63 F670.8
G1 X129.90 Y45.40 Z0.25 E151.69 F737.9
G1 X129.40 Y46.40 Z0.25 E151.75 F805.0
G1 X129.90 Y47.40 Z0.25 E151.81 F872.1
G1 X129.40 Y48.40 Z0.25 E151.86 F939.1
G1 X129.90 Y49.40 Z0.25 E151.92 F1006.2
G1 X129.40 Y50.40 Z0.25 E151.98 F1073.3
G1 X129.90 Y51.40 Z0.25 E152.04 F1140.4
G1 X129.40 Y52.40 Z0.25 E152.10 F1207.5
G1 X129.90 Y53.40 Z0.25 E152.15 F1274.6
G1 X129.40 Y54.40 Z0.25 E152.21 F1341.6
G1 X129.90 Y55.40 Z0.25 E152.27 F1408.7
G1 X129.40 Y56.40 Z0.25 E152.33 F1475.8
G1 X129.90 Y57.40 Z0.25 E152.39 F1542.9
G1 X129.40 Y58.40 Z0.25 E152.44 F1610.0
G1 X129.90 Y59.40 Z0.25 E152.50 F1677.1
G1 X129.40 Y60.40 Z0.25 E152.56 F1744.1
G1 X129.90 Y61.40 Z0.25 E152.62 F1811.2
G1 X129.40 Y62.40 Z0.25 E152.68 F1878.3
G1 X129.90 Y63.40 Z0.25 E152.74 F1945.4
G1 X129.40 Y64.40 Z0.25 E152.79 F2012.5
G1 X129.90 Y65.40 Z0.25 E152.85 F2079.5
G1 X129.40 Y66.40 Z0.25 E152.91 F2146.6
G1 X129.90 Y67.40 Z0.25 E152.97 F2213.7
G1 X129.40 Y68.40 Z0.25 E153.03 F2280.8
G1 X129.90 Y69.40 Z0.25 E153.08 F2347.9
G1 X129.40 Y70.40 Z0.25 E153.14 F2415.0
G1 X129.90 Y71.40 Z0.25 E153.20 F2482.0
G1 X129.40 Y72.40 Z0.25 E153.26 F2549.1
G1 X129.90 Y73.40 Z0.25 E153.32 F2616.2
G1 X129.40 Y74.40 Z0.25 E153.37 F2683.3
G1 X129.90 Y75.40 Z0.25 E153.43 F2750.4
G1 X129.40 Y76.40 Z0.25 E153.49 F2817.4
G1 X129.90 Y77.40 Z0.25 E153.55 F2884.5
G1 X129.40 Y78.40 Z0.25 E153.61 F2951.6
G1 X129.90 Y79.40 Z0.25 E153.66 F3018.7
G1 X129.40 Y80.40 Z0.25 E153.72 F3085.8
G1 X129.90 Y81.40 Z0.25 E153.78 F3152.9
G1 X129.40 Y82.40 Z0.25 E153.84 F3219.9
G1 X129.90 Y83.40 Z0.25 E153.90 F3287.0
G1 X129.40 Y84.40 Z0.25 E153.96 F3354.1
G1 X129.90 Y85.40 Z0.25 E154.01 F3421.2
G1 X129.40 Y86.40 Z0.25 E154.07 F3488.3
G1 X129.90 Y87.40 Z0.25 E154.13 F3555.3
G1 X129.40 Y88.40 Z0.25 E154.19 F3622.4
G1 X129.90 Y89.40 Z0.25 E154.25 F3689.5
G1 X129.40 Y90.40 Z0.25 E154.30 F3756.6
G1 X129.90 Y91.40 Z0.25 E154.36 F3823.7
G1 X129.40 Y92.40 Z0.25 E154.42 F3890.8
G1 X129.90 Y93.40 Z0.25 E154.48 F3957.8
G1 X129.40 Y94.40 Z0.25 E154.54 F4024.9
G1 X129.90 Y95.40 Z0.25 E154.59 F4092.0
G1 X129.40 Y96.40 Z0.25 E154.65 F4159.1
G1 X129.90 Y97.40 Z0.25 E154.71 F4226.2
G1 X129.40 Y98.40 Z0.25 E154.77 F4293.3
G1 X129.90 Y99.40 Z0.25 E154.83 F4360.3
G1 X129.40 Y100.40 Z0.25 E154.88 F4427.4
G1 X129.90 Y101.40 Z0.25 E154.94 F4494.5
G1 X129.40 Y102.40 Z0.25 E155.00 F4561.6
G1 X129.90 Y103.40 Z0.25 E155.06 F4628.7
G1 X129.40 Y104.40 Z0.25 E155.12 F4695.7
G1 X129.90 Y105.40 Z0.25 E155.18 F4762.8
G1 X129.40 Y106.40 Z0.25 E155.23 F4829.9
G1 X129.90 Y107.40 Z0.25 E155.29 F4897.0
G1 X129.40 Y108.40 Z0.25 E155.35 F4964.1
G1 X129.90 Y109.40 Z0.25 E155.41 F5031.2
G1 X129.40 Y110.40 Z0.25 E155.47 F5098.2
G1 X129.90 Y111.40 Z0.25 E155.52 F5165.3
G1 X129.40 Y112.40 Z0.25 E155.58 F5232.4
G1 X129.90 Y113.40 Z0.25 E155.64 F5299.5
G1 X129.40 Y114.40 Z0.25 E155.70 F5366.6
G1 X129.90 Y115.40 Z0.25 E155.76 F5433.6
G1 X129.40 Y116.40 Z0.25 E155.81 F5500.7
G1 X129.90 Y117.40 Z0.25 E155.87 F5567.8
G1 X129.40 Y118.40 Z0.25 E155.93 F5634.9
G1 X129.90 Y119.40 Z0.25 E155.99 F5702.0
G1 X129.40 Y120.40 Z0.25 E156.05 F5769.1
G1 X129.90 Y121.40 Z0.25 E156.11 F5836.1
G1 X129.40 Y122.40 Z0.25 E156.16 F5903.2
G1 X129.90 Y123.40 Z0.25 E156.22 F5970.3
G1 X129.40 Y124.40 Z0.25 E156.28 F6037.4
G1 X129.90 Y125.40 Z0.25 E156.34 F6104.5
G1 X129.40 Y126.40 Z0.25 E156.40 F6171.5
G1 X129.90 Y127.40 Z0.25 E156.45 F6238.6
G1 X129.40 Y128.40 Z0.25 E156.51 F6305.7
G1 X129.90 Y129.40 Z0.25 E156.57 F6372.8
G1 X129.40 Y130.40 Z0.25 E156.63 F6439.9
G1 X129.90 Y131.40 Z0.25 E156.69 F6507.0
G1 X129.40 Y132.40 Z0.25 E156.74 F6574.0
G1 X129.90 Y133.40 Z0.25 E156.80 F6641.1
G1 X129.40 Y134.40 Z0.25 E156.86 F6708.2
G1 X129.90 Y135.40 Z0.25 E156.92 F6775.3
G1 X129.40 Y136.40 Z0.25 E156.98 F6842.4
G1 X129.90 Y137.40 Z0.25 E157.03 F6909.5
G1 X129.40 Y138.40 Z0.25 E157.09 F6976.5
G1 X129.90 Y139.40 Z0.25 E157.15 F7043.6
G1 X129.40 Y140.40 Z0.25 E157.21 F7110.7
G1 X129.90 Y141.40 Z0.25 E157.27 F7177.8
G1 X129.40 Y142.40 Z0.25 E157.33 F7244.9
G1 X129.90 Y143.40 Z0.25 E157.38 F7311.9
G1 X129.40 Y144.40 Z0.25 E157.44 F7379.0
G1 X129.90 Y145.40 Z0.25 E157.50 F7446.1
G1 X129.40 Y146.40 Z0.25 E157.56 F7513.2
G1 X129.90 Y147.40 Z0.25 E157.62 F7580.3
G1 X129.40 Y148.40 Z0.25 E157.67 F7647.4
G1 X129.90 Y149.40 Z0.25 E157.73 F7714.4
G1 X129.40 Y150.40 Z0.25 E157.79 F7781.5
G1 X129.90 Y151.40 Z0.25 E157.85 F7848.6
G1 X129.40 Y152.40 Z0.25 E157.91 F7915.7
G1 X129.90 Y153.40 Z0.25 E157.96 F7982.8
G1 X129.40 Y154.40 Z0.25 E158.02 F8049.8
M201 X1000 Y1000
M205 X20 Y20
M205 J0.3
G1 X129.40 Y161.60 Z0.25 E158.40

G0 X134.40 Y161.60 Z0.25 E158.40 F5400.0
M593 X D1.00
G1 X134.40 Y154.40 Z0.25 E158.77 F8049.8
M203 X500 Y500 ; maximum feedrates
M204 P10000 ; print acceleration
M201 X10000 Y10000 ; max acceleration
M205 X500.00 Y500.00 ; jerk limits very high
M205 J0.3 ; junction deviation maximum
G1 X134.90 Y153.40 Z0.25 E158.83 F8049.8
G1 X134.40 Y152.40 Z0.25 E158.89 F7982.8
G1 X134.90 Y151.40 Z0.25 E158.95 F7915.7
G1 X134.40 Y150.40 Z0.25 E159.00 F7848.6
G1 X134.90 Y149.40 Z0.25 E159.06 F7781.5
G1 X134.40 Y148.40 Z0.25 E159.12 F7714.4
G1 X134.90 Y147.40 Z0.25 E159.18 F7647.4
G1 X134.40 Y146.40 Z0.25 E159.24 F7580.3
G1 X134.90 Y145.40 Z0.25 E159.29 F7513.2
G1 X134.40 Y144.40 Z0.25 E159.35 F7446.1
G1 X134.90 Y143.40 Z0.25 E159.41 F7379.0
G1 X134.40 Y142.40 Z0.25 E159.47 F7311.9
G1 X134.90 Y141.40 Z0.25 E159.53 F7244.9
G1 X134.40 Y140.40 Z0.25 E159.58 F7177.8
G1 X134.90 Y139.40 Z0.25 E159.64 F7110.7
G1 X134.40 Y138.40 Z0.25 E159.70 F7043.6
G1 X134.90 Y137.40 Z0.25 E159.76 F6976.5
G1 X134.40 Y136.40 Z0.25 E159.82 F6909.5
G1 X134.90 Y135.40 Z0.25 E159.87 F6842.4
G1 X134.40 Y134.40 Z0.25 E159.93 F6775.3
G1 X134.90 Y133.40 Z0.25 E159.99 F6708.2
G1 X134.40 Y132.40 Z0.25 E160.05 F6641.1
G1 X134.90 Y131.40 Z0.25 E160.11 F6574.0
G1 X134.40 Y130.40 Z0.25 E160.17 F6507.0
G1 X134.90 Y129.40 Z0.25 E160.22 F6439.9
G1 X134.40 Y128.40 Z0.25 E160.28 F6372.8
G1 X134.90 Y127.40 Z0.25 E160.34 F6305.7
G1 X134.40 Y126.40 Z0.25 E160.40 F6238.6
G1 X134.90 Y125.40 Z0.25 E160.46 F6171.5
G1 X134.40 Y124.40 Z0.25 E160.51 F6104.5
G1 X134.90 Y123.40 Z0.25 E160.57 F6037.4
G1 X134.40 Y122.40 Z0.25 E160.63 F5970.3
G1 X134.90 Y121.40 Z0.25 E160.69 F5903.2
G1 X134.40 Y120.40 Z0.25 E160.75 F5836.1
G1 X134.90 Y119.40 Z0.25 E160.80 F5769.1
G1 X134.40 Y118.40 Z0.25 E160.86 F5702.0
G1 X134.90 Y117.40 Z0.25 E160.92 F5634.9
G1 X134.40 Y116.40 Z0.25 E160.98 F5567.8
G1 X134.90 Y115.40 Z0.25 E161.04 F5500.7
G1 X134.40 Y114.40 Z0.25 E161.09 F5433.6
G1 X134.90 Y113.40 Z0.25 E161.15 F5366.6
G1 X134.40 Y112.40 Z0.25 E161.21 F5299.5
G1 X134.90 Y111.40 Z0.25 E161.27 F5232.4
G1 X134.40 Y110.40 Z0.25 E161.33 F5165.3
G1 X134.90 Y109.40 Z0.25 E161.39 F5098.2
G1 X134.40 Y108.40 Z0.25 E161.44 F5031.2
G1 X134.90 Y107.40 Z0.25 E161.50 F4964.1
G1 X134.40 Y106.40 Z0.25 E161.56 F4897.0
G1 X134.90 Y105.40 Z0.25 E161.62 F4829.9
G1 X134.40 Y104.40 Z0.25 E161.68 F4762.8
G1 X134.90 Y103.40 Z0.25 E161.73 F4695.7
G1 X134.40 Y102.40 Z0.25 E161.79 F4628.7
G1 X134.90 Y101.40 Z0.25 E161.85 F4561.6
G1 X134.40 Y100.40 Z0.25 E161.91 F4494.5
G1 X134.90 Y99.40 Z0.25 E161.97 F4427.4
G1 X134.40 Y98.40 Z0.25 E162.02 F4360.3
G1 X134.90 Y97.40 Z0.25 E162.08 F4293.3
G1 X134.40 Y96.40 Z0.25 E162.14 F4226.2
G1 X134.90 Y95.40 Z0.25 E162.20 F4159.1
G1 X134.40 Y94.40 Z0.25 E162.26 F4092.0
G1 X134.90 Y93.40 Z0.25 E162.32 F4024.9
G1 X134.40 Y92.40 Z0.25 E162.37 F3957.8
G1 X134.90 Y91.40 Z0.25 E162.43 F3890.8
G1 X134.40 Y90.40 Z0.25 E162.49 F3823.7
G1 X134.90 Y89.40 Z0.25 E162.55 F3756.6
G1 X134.40 Y88.40 Z0.25 E162.61 F3689.5
G1 X134.90 Y87.40 Z0.25 E162.66 F3622.4
G1 X134.40 Y86.40 Z0.25 E162.72 F3555.3
G1 X134.90 Y85.40 Z0.25 E162.78 F3488.3
G1 X134.40 Y84.40 Z0.25 E162.84 F3421.2
G1 X134.90 Y83.40 Z0.25 E162.90 F3354.1
G1 X134.40 Y82.40 Z0.25 E162.95 F3287.0
G1 X134.90 Y81.40 Z0.25 E163.01 F3219.9
G1 X134.40 Y80.40 Z0.25 E163.07 F3152.9
G1 X134.90 Y79.40 Z0.25 E163.13 F3085.8
G1 X134.40 Y78.40 Z0.25 E163.19 F3018.7
