; ### Marlin IS Calibration Damping Frequency Pattern ###
; -------------------------------------------
;
; Printer: DE200-Stock
; Created: Sat Mar 09 2024 20:45:12 GMT+0000 (Western European Standard Time)
;
; Settings Printer:
; Filament Diameter = 1.75 mm
; Nozzle Temperature = 215 °C
; Bed Temperature = 0 °C
; Nozzle Diameter = 0.5 mm
; Layer Height = 0.25 mm
; Fan Speed = 0 %
; Z-axis Offset = 0 mm
; Retraction = 4.5 mm
;
; Settings Print Bed:
; Bed Size X = 204 mm
; Bed Size Y = 204 mm
;
; Settings Speed:
; Printing Speed = 60 mm/s
; Movement Speed = 90 mm/s
; Retraction Speed = 40 mm/s
; Printing Deceleration = 1000 mm/s^2
; Jerk = 20
; Junction Deviation = 0.3
;
; Settings Pattern:
; Max X Frequency = 60 Hz
; Max Y Frequency = 60 Hz
;
; Settings Advance:
; Bed leveling = G29 ; Level bed
; Extrusion Multiplier = 1
;
; prepare printing
;
M501 ; Load settings from EEPROM
M205 S0 T0 ; minimum extruding and travel feed rate
G21 ; Millimeter units
G90 ; Absolute XYZ
G28 ; Home all axes

G1 Z10 F100 ; Z raise
M104 S215 ; Set nozzle temperature (no wait)
M190 S0 ; Set bed temperature (wait)
M109 S215 ; Wait for nozzle temp
G29 ; Level bed; Activate bed leveling compensation
G92 E0 ; Reset extruder distance
M900 K0 ; Linear advance off
M106 S0 ; Fan speed
M593 F0 ; input shaping off
; draw anchor lines
G0 X169.60 Y169.60 Z2.00 E0.00 F5400.0
G0 X169.60 Y169.60 Z0.25 E0.00 F600.0
; unretract
G1 E4.50 F2400.0
G1 X34.40 Y169.60 Z0.25 E11.53 F3600.0
G1 X34.40 Y34.40 Z0.25 E18.55 F3600.0

M203 X500 Y500 ; maximum feedrates
M204 P10000 ; print acceleration
M201 X10000 Y10000 ; max acceleration
M205 X500.00 Y500.00 ; jerk limits very high
M205 J0.3 ; junction deviation maximum
G1 X35.40 Y34.90 Z0.25 E18.61 F67.1
G1 X36.40 Y34.40 Z0.25 E18.67 F134.2
G1 X37.40 Y34.90 Z0.25 E18.73 F201.2
G1 X38.40 Y34.40 Z0.25 E18.78 F268.3
G1 X39.40 Y34.90 Z0.25 E18.84 F335.4
G1 X40.40 Y34.40 Z0.25 E18.90 F402.5
G1 X41.40 Y34.90 Z0.25 E18.96 F469.6
G1 X42.40 Y34.40 Z0.25 E19.02 F536.7
G1 X43.40 Y34.90 Z0.25 E19.08 F603.7
G1 X44.40 Y34.40 Z0.25 E19.13 F670.8
G1 X45.40 Y34.90 Z0.25 E19.19 F737.9
G1 X46.40 Y34.40 Z0.25 E19.25 F805.0
G1 X47.40 Y34.90 Z0.25 E19.31 F872.1
G1 X48.40 Y34.40 Z0.25 E19.37 F939.1
G1 X49.40 Y34.90 Z0.25 E19.42 F1006.2
G1 X50.40 Y34.40 Z0.25 E19.48 F1073.3
G1 X51.40 Y34.90 Z0.25 E19.54 F1140.4
G1 X52.40 Y34.40 Z0.25 E19.60 F1207.5
G1 X53.40 Y34.90 Z0.25 E19.66 F1274.6
G1 X54.40 Y34.40 Z0.25 E19.71 F1341.6
G1 X55.40 Y34.90 Z0.25 E19.77 F1408.7
G1 X56.40 Y34.40 Z0.25 E19.83 F1475.8
G1 X57.40 Y34.90 Z0.25 E19.89 F1542.9
G1 X58.40 Y34.40 Z0.25 E19.95 F1610.0
G1 X59.40 Y34.90 Z0.25 E20.00 F1677.1
G1 X60.40 Y34.40 Z0.25 E20.06 F1744.1
G1 X61.40 Y34.90 Z0.25 E20.12 F1811.2
G1 X62.40 Y34.40 Z0.25 E20.18 F1878.3
G1 X63.40 Y34.90 Z0.25 E20.24 F1945.4
G1 X64.40 Y34.40 Z0.25 E20.30 F2012.5
G1 X65.40 Y34.90 Z0.25 E20.35 F2079.5
G1 X66.40 Y34.40 Z0.25 E20.41 F2146.6
G1 X67.40 Y34.90 Z0.25 E20.47 F2213.7
G1 X68.40 Y34.40 Z0.25 E20.53 F2280.8
G1 X69.40 Y34.90 Z0.25 E20.59 F2347.9
G1 X70.40 Y34.40 Z0.25 E20.64 F2415.0
G1 X71.40 Y34.90 Z0.25 E20.70 F2482.0
G1 X72.40 Y34.40 Z0.25 E20.76 F2549.1
G1 X73.40 Y34.90 Z0.25 E20.82 F2616.2
G1 X74.40 Y34.40 Z0.25 E20.88 F2683.3
G1 X75.40 Y34.90 Z0.25 E20.93 F2750.4
G1 X76.40 Y34.40 Z0.25 E20.99 F2817.4
G1 X77.40 Y34.90 Z0.25 E21.05 F2884.5
G1 X78.40 Y34.40 Z0.25 E21.11 F2951.6
G1 X79.40 Y34.90 Z0.25 E21.17 F3018.7
G1 X80.40 Y34.40 Z0.25 E21.23 F3085.8
G1 X81.40 Y34.90 Z0.25 E21.28 F3152.9
G1 X82.40 Y34.40 Z0.25 E21.34 F3219.9
G1 X83.40 Y34.90 Z0.25 E21.40 F3287.0
G1 X84.40 Y34.40 Z0.25 E21.46 F3354.1
G1 X85.40 Y34.90 Z0.25 E21.52 F3421.2
G1 X86.40 Y34.40 Z0.25 E21.57 F3488.3
G1 X87.40 Y34.90 Z0.25 E21.63 F3555.3
G1 X88.40 Y34.40 Z0.25 E21.69 F3622.4
G1 X89.40 Y34.90 Z0.25 E21.75 F3689.5
G1 X90.40 Y34.40 Z0.25 E21.81 F3756.6
G1 X91.40 Y34.90 Z0.25 E21.86 F3823.7
G1 X92.40 Y34.40 Z0.25 E21.92 F3890.8
G1 X93.40 Y34.90 Z0.25 E21.98 F3957.8
G1 X94.40 Y34.40 Z0.25 E22.04 F4024.9
G1 X95.40 Y34.90 Z0.25 E22.10 F4092.0
G1 X96.40 Y34.40 Z0.25 E22.15 F4159.1
G1 X97.40 Y34.90 Z0.25 E22.21 F4226.2
G1 X98.40 Y34.40 Z0.25 E22.27 F4293.3
G1 X99.40 Y34.90 Z0.25 E22.33 F4360.3
G1 X100.40 Y34.40 Z0.25 E22.39 F4427.4
G1 X101.40 Y34.90 Z0.25 E22.45 F4494.5
G1 X102.40 Y34.40 Z0.25 E22.50 F4561.6
G1 X103.40 Y34.90 Z0.25 E22.56 F4628.7
G1 X104.40 Y34.40 Z0.25 E22.62 F4695.7
G1 X105.40 Y34.90 Z0.25 E22.68 F4762.8
G1 X106.40 Y34.40 Z0.25 E22.74 F4829.9
G1 X107.40 Y34.90 Z0.25 E22.79 F4897.0
G1 X108.40 Y34.40 Z0.25 E22.85 F4964.1
G1 X109.40 Y34.90 Z0.25 E22.91 F5031.2
G1 X110.40 Y34.40 Z0.25 E22.97 F5098.2
G1 X111.40 Y34.90 Z0.25 E23.03 F5165.3
G1 X112.40 Y34.40 Z0.25 E23.08 F5232.4
G1 X113.40 Y34.90 Z0.25 E23.14 F5299.5
G1 X114.40 Y34.40 Z0.25 E23.20 F5366.6
G1 X115.40 Y34.90 Z0.25 E23.26 F5433.6
G1 X116.40 Y34.40 Z0.25 E23.32 F5500.7
G1 X117.40 Y34.90 Z0.25 E23.37 F5567.8
G1 X118.40 Y34.40 Z0.25 E23.43 F5634.9
G1 X119.40 Y34.90 Z0.25 E23.49 F5702.0
G1 X120.40 Y34.40 Z0.25 E23.55 F5769.1
G1 X121.40 Y34.90 Z0.25 E23.61 F5836.1
G1 X122.40 Y34.40 Z0.25 E23.67 F5903.2
G1 X123.40 Y34.90 Z0.25 E23.72 F5970.3
G1 X124.40 Y34.40 Z0.25 E23.78 F6037.4
G1 X125.40 Y34.90 Z0.25 E23.84 F6104.5
G1 X126.40 Y34.40 Z0.25 E23.90 F6171.5
G1 X127.40 Y34.90 Z0.25 E23.96 F6238.6
G1 X128.40 Y34.40 Z0.25 E24.01 F6305.7
G1 X129.40 Y34.90 Z0.25 E24.07 F6372.8
G1 X130.40 Y34.40 Z0.25 E24.13 F6439.9
G1 X131.40 Y34.90 Z0.25 E24.19 F6507.0
G1 X132.40 Y34.40 Z0.25 E24.25 F6574.0
G1 X133.40 Y34.90 Z0.25 E24.30 F6641.1
G1 X134.40 Y34.40 Z0.25 E24.36 F6708.2
G1 X135.40 Y34.90 Z0.25 E24.42 F6775.3
G1 X136.40 Y34.40 Z0.25 E24.48 F6842.4
G1 X137.40 Y34.90 Z0.25 E24.54 F6909.5
G1 X138.40 Y34.40 Z0.25 E24.60 F6976.5
G1 X139.40 Y34.90 Z0.25 E24.65 F7043.6
G1 X140.40 Y34.40 Z0.25 E24.71 F7110.7
G1 X141.40 Y34.90 Z0.25 E24.77 F7177.8
G1 X142.40 Y34.40 Z0.25 E24.83 F7244.9
G1 X143.40 Y34.90 Z0.25 E24.89 F7311.9
G1 X144.40 Y34.40 Z0.25 E24.94 F7379.0
G1 X145.40 Y34.90 Z0.25 E25.00 F7446.1
G1 X146.40 Y34.40 Z0.25 E25.06 F7513.2
G1 X147.40 Y34.90 Z0.25 E25.12 F7580.3
G1 X148.40 Y34.40 Z0.25 E25.18 F7647.4
G1 X149.40 Y34.90 Z0.25 E25.23 F7714.4
G1 X150.40 Y34.40 Z0.25 E25.29 F7781.5
G1 X151.40 Y34.90 Z0.25 E25.35 F7848.6
G1 X152.40 Y34.40 Z0.25 E25.41 F7915.7
G1 X153.40 Y34.90 Z0.25 E25.47 F7982.8
G1 X154.40 Y34.40 Z0.25 E25.52 F8049.8
M201 X1000 Y1000
M205 X20 Y20
M205 J0.3
G1 X161.60 Y34.40 Z0.25 E25.90

M203 X500 Y500 ; maximum feedrates
M204 P10000 ; print acceleration
M201 X10000 Y10000 ; max acceleration
M205 X500.00 Y500.00 ; jerk limits very high
M205 J0.3 ; junction deviation maximum
G1 X162.10 Y35.40 Z0.25 E25.96 F67.1
G1 X161.60 Y36.40 Z0.25 E26.02 F134.2
G1 X162.10 Y37.40 Z0.25 E26.07 F201.2
G1 X161.60 Y38.40 Z0.25 E26.13 F268.3
G1 X162.10 Y39.40 Z0.25 E26.19 F335.4
G1 X161.60 Y40.40 Z0.25 E26.25 F402.5
G1 X162.10 Y41.40 Z0.25 E26.31 F469.6
G1 X161.60 Y42.40 Z0.25 E26.36 F536.7
G1 X162.10 Y43.40 Z0.25 E26.42 F603.7
G1 X161.60 Y44.40 Z0.25 E26.48 F670.8
G1 X162.10 Y45.40 Z0.25 E26.54 F737.9
G1 X161.60 Y46.40 Z0.25 E26.60 F805.0
G1 X162.10 Y47.40 Z0.25 E26.65 F872.1
G1 X161.60 Y48.40 Z0.25 E26.71 F939.1
G1 X162.10 Y49.40 Z0.25 E26.77 F1006.2
G1 X161.60 Y50.40 Z0.25 E26.83 F1073.3
G1 X162.10 Y51.40 Z0.25 E26.89 F1140.4
G1 X161.60 Y52.40 Z0.25 E26.94 F1207.5
G1 X162.10 Y53.40 Z0.25 E27.00 F1274.6
G1 X161.60 Y54.40 Z0.25 E27.06 F1341.6
G1 X162.10 Y55.40 Z0.25 E27.12 F1408.7
G1 X161.60 Y56.40 Z0.25 E27.18 F1475.8
G1 X162.10 Y57.40 Z0.25 E27.24 F1542.9
G1 X161.60 Y58.40 Z0.25 E27.29 F1610.0
G1 X162.10 Y59.40 Z0.25 E27.35 F1677.1
G1 X161.60 Y60.40 Z0.25 E27.41 F1744.1
G1 X162.10 Y61.40 Z0.25 E27.47 F1811.2
G1 X161.60 Y62.40 Z0.25 E27.53 F1878.3
G1 X162.10 Y63.40 Z0.25 E27.58 F1945.4
G1 X161.60 Y64.40 Z0.25 E27.64 F2012.5
G1 X162.10 Y65.40 Z0.25 E27.70 F2079.5
G1 X161.60 Y66.40 Z0.25 E27.76 F2146.6
G1 X162.10 Y67.40 Z0.25 E27.82 F2213.7
G1 X161.60 Y68.40 Z0.25 E27.87 F2280.8
G1 X162.10 Y69.40 Z0.25 E27.93 F2347.9
G1 X161.60 Y70.40 Z0.25 E27.99 F2415.0
G1 X162.10 Y71.40 Z0.25 E28.05 F2482.0
G1 X161.60 Y72.40 Z0.25 E28.11 F2549.1
G1 X162.10 Y73.40 Z0.25 E28.16 F2616.2
G1 X161.60 Y74.40 Z0.25 E28.22 F2683.3
G1 X162.10 Y75.40 Z0.25 E28.28 F2750.4
G1 X161.60 Y76.40 Z0.25 E28.34 F2817.4
G1 X162.10 Y77.40 Z0.25 E28.40 F2884.5
G1 X161.60 Y78.40 Z0.25 E28.46 F2951.6
G1 X162.10 Y79.40 Z0.25 E28.51 F3018.7
G1 X161.60 Y80.40 Z0.25 E28.57 F3085.8
G1 X162.10 Y81.40 Z0.25 E28.63 F3152.9
G1 X161.60 Y82.40 Z0.25 E28.69 F3219.9
G1 X162.10 Y83.40 Z0.25 E28.75 F3287.0
G1 X161.60 Y84.40 Z0.25 E28.80 F3354.1
G1 X162.10 Y85.40 Z0.25 E28.86 F3421.2
G1 X161.60 Y86.40 Z0.25 E28.92 F3488.3
G1 X162.10 Y87.40 Z0.25 E28.98 F3555.3
G1 X161.60 Y88.40 Z0.25 E29.04 F3622.4
G1 X162.10 Y89.40 Z0.25 E29.09 F3689.5
G1 X161.60 Y90.40 Z0.25 E29.15 F3756.6
G1 X162.10 Y91.40 Z0.25 E29.21 F3823.7
G1 X161.60 Y92.40 Z0.25 E29.27 F3890.8
G1 X162.10 Y93.40 Z0.25 E29.33 F3957.8
G1 X161.60 Y94.40 Z0.25 E29.39 F4024.9
G1 X162.10 Y95.40 Z0.25 E29.44 F4092.0
G1 X161.60 Y96.40 Z0.25 E29.50 F4159.1
G1 X162.10 Y97.40 Z0.25 E29.56 F4226.2
G1 X161.60 Y98.40 Z0.25 E29.62 F4293.3
G1 X162.10 Y99.40 Z0.25 E29.68 F4360.3
G1 X161.60 Y100.40 Z0.25 E29.73 F4427.4
G1 X162.10 Y101.40 Z0.25 E29.79 F4494.5
G1 X161.60 Y102.40 Z0.25 E29.85 F4561.6
G1 X162.10 Y103.40 Z0.25 E29.91 F4628.7
G1 X161.60 Y104.40 Z0.25 E29.97 F4695.7
G1 X162.10 Y105.40 Z0.25 E30.02 F4762.8
G1 X161.60 Y106.40 Z0.25 E30.08 F4829.9
G1 X162.10 Y107.40 Z0.25 E30.14 F4897.0
G1 X161.60 Y108.40 Z0.25 E30.20 F4964.1
G1 X162.10 Y109.40 Z0.25 E30.26 F5031.2
G1 X161.60 Y110.40 Z0.25 E30.31 F5098.2
G1 X162.10 Y111.40 Z0.25 E30.37 F5165.3
G1 X161.60 Y112.40 Z0.25 E30.43 F5232.4
G1 X162.10 Y113.40 Z0.25 E30.49 F5299.5
G1 X161.60 Y114.40 Z0.25 E30.55 F5366.6
G1 X162.10 Y115.40 Z0.25 E30.61 F5433.6
G1 X161.60 Y116.40 Z0.25 E30.66 F5500.7
G1 X162.10 Y117.40 Z0.25 E30.72 F5567.8
G1 X161.60 Y118.40 Z0.25 E30.78 F5634.9
G1 X162.10 Y119.40 Z0.25 E30.84 F5702.0
G1 X161.60 Y120.40 Z0.25 E30.90 F5769.1
G1 X162.10 Y121.40 Z0.25 E30.95 F5836.1
G1 X161.60 Y122.40 Z0.25 E31.01 F5903.2
G1 X162.10 Y123.40 Z0.25 E31.07 F5970.3
G1 X161.60 Y124.40 Z0.25 E31.13 F6037.4
G1 X162.10 Y125.40 Z0.25 E31.19 F6104.5
G1 X161.60 Y126.40 Z0.25 E31.24 F6171.5
G1 X162.10 Y127.40 Z0.25 E31.30 F6238.6
G1 X161.60 Y128.40 Z0.25 E31.36 F6305.7
G1 X162.10 Y129.40 Z0.25 E31.42 F6372.8
G1 X161.60 Y130.40 Z0.25 E31.48 F6439.9
G1 X162.10 Y131.40 Z0.25 E31.53 F6507.0
G1 X161.60 Y132.40 Z0.25 E31.59 F6574.0
G1 X162.10 Y133.40 Z0.25 E31.65 F6641.1
G1 X161.60 Y134.40 Z0.25 E31.71 F6708.2
G1 X162.10 Y135.40 Z0.25 E31.77 F6775.3
G1 X161.60 Y136.40 Z0.25 E31.83 F6842.4
G1 X162.10 Y137.40 Z0.25 E31.88 F6909.5
G1 X161.60 Y138.40 Z0.25 E31.94 F6976.5
G1 X162.10 Y139.40 Z0.25 E32.00 F7043.6
G1 X161.60 Y140.40 Z0.25 E32.06 F7110.7
G1 X162.10 Y141.40 Z0.25 E32.12 F7177.8
G1 X161.60 Y142.40 Z0.25 E32.17 F7244.9
G1 X162.10 Y143.40 Z0.25 E32.23 F7311.9
G1 X161.60 Y144.40 Z0.25 E32.29 F7379.0
G1 X162.10 Y145.40 Z0.25 E32.35 F7446.1
G1 X161.60 Y146.40 Z0.25 E32.41 F7513.2
G1 X162.10 Y147.40 Z0.25 E32.46 F7580.3
G1 X161.60 Y148.40 Z0.25 E32.52 F7647.4
G1 X162.10 Y149.40 Z0.25 E32.58 F7714.4
G1 X161.60 Y150.40 Z0.25 E32.64 F7781.5
G1 X162.10 Y151.40 Z0.25 E32.70 F7848.6
G1 X161.60 Y152.40 Z0.25 E32.76 F7915.7
G1 X162.10 Y153.40 Z0.25 E32.81 F7982.8
G1 X161.60 Y154.40 Z0.25 E32.87 F8049.8
M201 X1000 Y1000
M205 X20 Y20
M205 J0.3
G1 X161.60 Y161.60 Z0.25 E33.25

; retract
G1 E28.75
; -------------------------------------------
; FINISH
;
M107 ; Turn off fan
M400 ; Finish moving
M104 S0 ; Turn off hotend
M140 S0 ; Turn off bed
G1 Z30 X0 Y204 F5400 ; Move away from the print
M84 ; Disable motors
G92 E0 ; Reset extruder distance
M501 ; Load settings from EEPROM
