; ### Marlin IS Calibration Zeta/Damping Factor X Pattern ###
; -------------------------------------------
;
; Printer: DE200-Stock
; Created: Sun Mar 10 2024 14:22:44 GMT+0000 (Western European Standard Time)
;
; Settings Printer:
; Filament Diameter = 1.75 mm
; Nozzle Temperature = 215 °C
; Bed Temperature = 0 °C
; Nozzle Diameter = 0.4 mm
; Layer Height = 0.25 mm
; Fan Speed = 0 %
; Z-axis Offset = 0 mm
; Retraction = 4.5 mm
;
; Settings Print Bed:
; Bed Size X = 204 mm
; Bed Size Y = 204 mm
;
; Settings Speed:
; Printing Speed = 60 mm/s
; Movement Speed = 90 mm/s
; Retraction Speed = 40 mm/s
; Printing Deceleration = 1000 mm/s^2
; Jerk = 20
; Junction Deviation = 0.3
;
; Settings Pattern:
; Max X Frequency = 80 Hz
; Max Y Frequency = 80 Hz
;
; Settings Advance:
; Bed leveling = G29 ; Level bed
; Extrusion Multiplier = 1
;
; prepare printing
;
M501 ; Load settings from EEPROM
M205 S0 T0 ; minimum extruding and travel feed rate
G21 ; Millimeter units
G90 ; Absolute XYZ
G28 ; Home all axes

G1 Z10 F100 ; Z raise
M104 S215 ; Set nozzle temperature (no wait)
M190 S0 ; Set bed temperature (wait)
M109 S215 ; Wait for nozzle temp
G29 ; Level bed; Activate bed leveling compensation
G92 E0 ; Reset extruder distance
M900 K0 ; Linear advance off
M106 S0 ; Fan speed
; draw anchor lines
G0 X192.40 Y192.40 Z2.00 E0.00 F5400.0
G0 X192.40 Y192.40 Z0.25 E0.00 F600.0
; unretract
G1 E5.50 F2400.0
G1 X11.60 Y192.40 Z0.25 E12.02 F3600.0
G1 X11.60 Y11.60 Z0.25 E19.53 F3600.0

G1 X16.60 Y11.60 Z0.25 E19.74
M593 X D0.05
M203 X500 Y500 ; maximum feedrates
M204 P10000 ; print acceleration
M201 X10000 Y10000 ; max acceleration
M205 X500.00 Y500.00 ; jerk limits very high
M205 J0.3 ; junction deviation maximum
G1 X17.10 Y12.60 Z0.25 E19.79 F67.1
G1 X16.60 Y13.60 Z0.25 E19.83 F134.2
G1 X17.10 Y14.60 Z0.25 E19.88 F201.2
G1 X16.60 Y15.60 Z0.25 E19.93 F268.3
G1 X17.10 Y16.60 Z0.25 E19.97 F335.4
G1 X16.60 Y17.60 Z0.25 E20.02 F402.5
G1 X17.10 Y18.60 Z0.25 E20.07 F469.6
G1 X16.60 Y19.60 Z0.25 E20.11 F536.7
G1 X17.10 Y20.60 Z0.25 E20.16 F603.7
G1 X16.60 Y21.60 Z0.25 E20.21 F670.8
G1 X17.10 Y22.60 Z0.25 E20.25 F737.9
G1 X16.60 Y23.60 Z0.25 E20.30 F805.0
G1 X17.10 Y24.60 Z0.25 E20.35 F872.1
G1 X16.60 Y25.60 Z0.25 E20.39 F939.1
G1 X17.10 Y26.60 Z0.25 E20.44 F1006.2
G1 X16.60 Y27.60 Z0.25 E20.49 F1073.3
G1 X17.10 Y28.60 Z0.25 E20.53 F1140.4
G1 X16.60 Y29.60 Z0.25 E20.58 F1207.5
G1 X17.10 Y30.60 Z0.25 E20.62 F1274.6
G1 X16.60 Y31.60 Z0.25 E20.67 F1341.6
G1 X17.10 Y32.60 Z0.25 E20.72 F1408.7
G1 X16.60 Y33.60 Z0.25 E20.76 F1475.8
G1 X17.10 Y34.60 Z0.25 E20.81 F1542.9
G1 X16.60 Y35.60 Z0.25 E20.86 F1610.0
G1 X17.10 Y36.60 Z0.25 E20.90 F1677.1
G1 X16.60 Y37.60 Z0.25 E20.95 F1744.1
G1 X17.10 Y38.60 Z0.25 E21.00 F1811.2
G1 X16.60 Y39.60 Z0.25 E21.04 F1878.3
G1 X17.10 Y40.60 Z0.25 E21.09 F1945.4
G1 X16.60 Y41.60 Z0.25 E21.14 F2012.5
G1 X17.10 Y42.60 Z0.25 E21.18 F2079.5
G1 X16.60 Y43.60 Z0.25 E21.23 F2146.6
G1 X17.10 Y44.60 Z0.25 E21.28 F2213.7
G1 X16.60 Y45.60 Z0.25 E21.32 F2280.8
G1 X17.10 Y46.60 Z0.25 E21.37 F2347.9
G1 X16.60 Y47.60 Z0.25 E21.41 F2415.0
G1 X17.10 Y48.60 Z0.25 E21.46 F2482.0
G1 X16.60 Y49.60 Z0.25 E21.51 F2549.1
G1 X17.10 Y50.60 Z0.25 E21.55 F2616.2
G1 X16.60 Y51.60 Z0.25 E21.60 F2683.3
G1 X17.10 Y52.60 Z0.25 E21.65 F2750.4
G1 X16.60 Y53.60 Z0.25 E21.69 F2817.4
G1 X17.10 Y54.60 Z0.25 E21.74 F2884.5
G1 X16.60 Y55.60 Z0.25 E21.79 F2951.6
G1 X17.10 Y56.60 Z0.25 E21.83 F3018.7
G1 X16.60 Y57.60 Z0.25 E21.88 F3085.8
G1 X17.10 Y58.60 Z0.25 E21.93 F3152.9
G1 X16.60 Y59.60 Z0.25 E21.97 F3219.9
G1 X17.10 Y60.60 Z0.25 E22.02 F3287.0
G1 X16.60 Y61.60 Z0.25 E22.07 F3354.1
G1 X17.10 Y62.60 Z0.25 E22.11 F3421.2
G1 X16.60 Y63.60 Z0.25 E22.16 F3488.3
G1 X17.10 Y64.60 Z0.25 E22.21 F3555.3
G1 X16.60 Y65.60 Z0.25 E22.25 F3622.4
G1 X17.10 Y66.60 Z0.25 E22.30 F3689.5
G1 X16.60 Y67.60 Z0.25 E22.34 F3756.6
G1 X17.10 Y68.60 Z0.25 E22.39 F3823.7
G1 X16.60 Y69.60 Z0.25 E22.44 F3890.8
G1 X17.10 Y70.60 Z0.25 E22.48 F3957.8
G1 X16.60 Y71.60 Z0.25 E22.53 F4024.9
G1 X17.10 Y72.60 Z0.25 E22.58 F4092.0
G1 X16.60 Y73.60 Z0.25 E22.62 F4159.1
G1 X17.10 Y74.60 Z0.25 E22.67 F4226.2
G1 X16.60 Y75.60 Z0.25 E22.72 F4293.3
G1 X17.10 Y76.60 Z0.25 E22.76 F4360.3
G1 X16.60 Y77.60 Z0.25 E22.81 F4427.4
G1 X17.10 Y78.60 Z0.25 E22.86 F4494.5
G1 X16.60 Y79.60 Z0.25 E22.90 F4561.6
G1 X17.10 Y80.60 Z0.25 E22.95 F4628.7
G1 X16.60 Y81.60 Z0.25 E23.00 F4695.7
G1 X17.10 Y82.60 Z0.25 E23.04 F4762.8
G1 X16.60 Y83.60 Z0.25 E23.09 F4829.9
G1 X17.10 Y84.60 Z0.25 E23.13 F4897.0
G1 X16.60 Y85.60 Z0.25 E23.18 F4964.1
G1 X17.10 Y86.60 Z0.25 E23.23 F5031.2
G1 X16.60 Y87.60 Z0.25 E23.27 F5098.2
G1 X17.10 Y88.60 Z0.25 E23.32 F5165.3
G1 X16.60 Y89.60 Z0.25 E23.37 F5232.4
G1 X17.10 Y90.60 Z0.25 E23.41 F5299.5
G1 X16.60 Y91.60 Z0.25 E23.46 F5366.6
G1 X17.10 Y92.60 Z0.25 E23.51 F5433.6
G1 X16.60 Y93.60 Z0.25 E23.55 F5500.7
G1 X17.10 Y94.60 Z0.25 E23.60 F5567.8
G1 X16.60 Y95.60 Z0.25 E23.65 F5634.9
G1 X17.10 Y96.60 Z0.25 E23.69 F5702.0
G1 X16.60 Y97.60 Z0.25 E23.74 F5769.1
G1 X17.10 Y98.60 Z0.25 E23.79 F5836.1
G1 X16.60 Y99.60 Z0.25 E23.83 F5903.2
G1 X17.10 Y100.60 Z0.25 E23.88 F5970.3
G1 X16.60 Y101.60 Z0.25 E23.92 F6037.4
G1 X17.10 Y102.60 Z0.25 E23.97 F6104.5
G1 X16.60 Y103.60 Z0.25 E24.02 F6171.5
G1 X17.10 Y104.60 Z0.25 E24.06 F6238.6
G1 X16.60 Y105.60 Z0.25 E24.11 F6305.7
G1 X17.10 Y106.60 Z0.25 E24.16 F6372.8
G1 X16.60 Y107.60 Z0.25 E24.20 F6439.9
G1 X17.10 Y108.60 Z0.25 E24.25 F6507.0
G1 X16.60 Y109.60 Z0.25 E24.30 F6574.0
G1 X17.10 Y110.60 Z0.25 E24.34 F6641.1
G1 X16.60 Y111.60 Z0.25 E24.39 F6708.2
G1 X17.10 Y112.60 Z0.25 E24.44 F6775.3
G1 X16.60 Y113.60 Z0.25 E24.48 F6842.4
G1 X17.10 Y114.60 Z0.25 E24.53 F6909.5
G1 X16.60 Y115.60 Z0.25 E24.58 F6976.5
G1 X17.10 Y116.60 Z0.25 E24.62 F7043.6
G1 X16.60 Y117.60 Z0.25 E24.67 F7110.7
G1 X17.10 Y118.60 Z0.25 E24.72 F7177.8
G1 X16.60 Y119.60 Z0.25 E24.76 F7244.9
G1 X17.10 Y120.60 Z0.25 E24.81 F7311.9
G1 X16.60 Y121.60 Z0.25 E24.85 F7379.0
G1 X17.10 Y122.60 Z0.25 E24.90 F7446.1
G1 X16.60 Y123.60 Z0.25 E24.95 F7513.2
G1 X17.10 Y124.60 Z0.25 E24.99 F7580.3
G1 X16.60 Y125.60 Z0.25 E25.04 F7647.4
G1 X17.10 Y126.60 Z0.25 E25.09 F7714.4
G1 X16.60 Y127.60 Z0.25 E25.13 F7781.5
G1 X17.10 Y128.60 Z0.25 E25.18 F7848.6
G1 X16.60 Y129.60 Z0.25 E25.23 F7915.7
G1 X17.10 Y130.60 Z0.25 E25.27 F7982.8
G1 X16.60 Y131.60 Z0.25 E25.32 F8049.8
G1 X17.10 Y132.60 Z0.25 E25.37 F8116.9
G1 X16.60 Y133.60 Z0.25 E25.41 F8184.0
G1 X17.10 Y134.60 Z0.25 E25.46 F8251.1
G1 X16.60 Y135.60 Z0.25 E25.51 F8318.2
G1 X17.10 Y136.60 Z0.25 E25.55 F8385.3
G1 X16.60 Y137.60 Z0.25 E25.60 F8452.3
G1 X17.10 Y138.60 Z0.25 E25.64 F8519.4
G1 X16.60 Y139.60 Z0.25 E25.69 F8586.5
G1 X17.10 Y140.60 Z0.25 E25.74 F8653.6
G1 X16.60 Y141.60 Z0.25 E25.78 F8720.7
G1 X17.10 Y142.60 Z0.25 E25.83 F8787.7
G1 X16.60 Y143.60 Z0.25 E25.88 F8854.8
G1 X17.10 Y144.60 Z0.25 E25.92 F8921.9
G1 X16.60 Y145.60 Z0.25 E25.97 F8989.0
G1 X17.10 Y146.60 Z0.25 E26.02 F9056.1
G1 X16.60 Y147.60 Z0.25 E26.06 F9123.2
G1 X17.10 Y148.60 Z0.25 E26.11 F9190.2
G1 X16.60 Y149.60 Z0.25 E26.16 F9257.3
G1 X17.10 Y150.60 Z0.25 E26.20 F9324.4
G1 X16.60 Y151.60 Z0.25 E26.25 F9391.5
G1 X17.10 Y152.60 Z0.25 E26.30 F9458.6
G1 X16.60 Y153.60 Z0.25 E26.34 F9525.6
G1 X17.10 Y154.60 Z0.25 E26.39 F9592.7
G1 X16.60 Y155.60 Z0.25 E26.43 F9659.8
G1 X17.10 Y156.60 Z0.25 E26.48 F9726.9
G1 X16.60 Y157.60 Z0.25 E26.53 F9794.0
G1 X17.10 Y158.60 Z0.25 E26.57 F9861.1
G1 X16.60 Y159.60 Z0.25 E26.62 F9928.1
G1 X17.10 Y160.60 Z0.25 E26.67 F9995.2
G1 X16.60 Y161.60 Z0.25 E26.71 F10062.3
G1 X17.10 Y162.60 Z0.25 E26.76 F10129.4
G1 X16.60 Y163.60 Z0.25 E26.81 F10196.5
G1 X17.10 Y164.60 Z0.25 E26.85 F10263.6
G1 X16.60 Y165.60 Z0.25 E26.90 F10330.6
G1 X17.10 Y166.60 Z0.25 E26.95 F10397.7
G1 X16.60 Y167.60 Z0.25 E26.99 F10464.8
G1 X17.10 Y168.60 Z0.25 E27.04 F10531.9
G1 X16.60 Y169.60 Z0.25 E27.09 F10599.0
G1 X17.10 Y170.60 Z0.25 E27.13 F10666.0
G1 X16.60 Y171.60 Z0.25 E27.18 F10733.1
M201 X1000 Y1000
M205 X20 Y20
M205 J0.3
G1 X16.60 Y184.40 Z0.25 E27.71

G0 X21.60 Y184.40 Z0.25 E27.71 F5400.0
M593 X D0.10
G1 X21.60 Y171.60 Z0.25 E28.24 F10733.1
M203 X500 Y500 ; maximum feedrates
M204 P10000 ; print acceleration
M201 X10000 Y10000 ; max acceleration
M205 X500.00 Y500.00 ; jerk limits very high
M205 J0.3 ; junction deviation maximum
G1 X22.10 Y170.60 Z0.25 E28.29 F10733.1
G1 X21.60 Y169.60 Z0.25 E28.34 F10666.0
G1 X22.10 Y168.60 Z0.25 E28.38 F10599.0
G1 X21.60 Y167.60 Z0.25 E28.43 F10531.9
G1 X22.10 Y166.60 Z0.25 E28.48 F10464.8
G1 X21.60 Y165.60 Z0.25 E28.52 F10397.7
G1 X22.10 Y164.60 Z0.25 E28.57 F10330.6
G1 X21.60 Y163.60 Z0.25 E28.61 F10263.6
G1 X22.10 Y162.60 Z0.25 E28.66 F10196.5
G1 X21.60 Y161.60 Z0.25 E28.71 F10129.4
G1 X22.10 Y160.60 Z0.25 E28.75 F10062.3
G1 X21.60 Y159.60 Z0.25 E28.80 F9995.2
G1 X22.10 Y158.60 Z0.25 E28.85 F9928.1
G1 X21.60 Y157.60 Z0.25 E28.89 F9861.1
G1 X22.10 Y156.60 Z0.25 E28.94 F9794.0
G1 X21.60 Y155.60 Z0.25 E28.99 F9726.9
G1 X22.10 Y154.60 Z0.25 E29.03 F9659.8
G1 X21.60 Y153.60 Z0.25 E29.08 F9592.7
G1 X22.10 Y152.60 Z0.25 E29.13 F9525.6
G1 X21.60 Y151.60 Z0.25 E29.17 F9458.6
G1 X22.10 Y150.60 Z0.25 E29.22 F9391.5
G1 X21.60 Y149.60 Z0.25 E29.27 F9324.4
G1 X22.10 Y148.60 Z0.25 E29.31 F9257.3
G1 X21.60 Y147.60 Z0.25 E29.36 F9190.2
G1 X22.10 Y146.60 Z0.25 E29.41 F9123.2
G1 X21.60 Y145.60 Z0.25 E29.45 F9056.1
G1 X22.10 Y144.60 Z0.25 E29.50 F8989.0
G1 X21.60 Y143.60 Z0.25 E29.54 F8921.9
G1 X22.10 Y142.60 Z0.25 E29.59 F8854.8
G1 X21.60 Y141.60 Z0.25 E29.64 F8787.7
G1 X22.10 Y140.60 Z0.25 E29.68 F8720.7
G1 X21.60 Y139.60 Z0.25 E29.73 F8653.6
G1 X22.10 Y138.60 Z0.25 E29.78 F8586.5
G1 X21.60 Y137.60 Z0.25 E29.82 F8519.4
G1 X22.10 Y136.60 Z0.25 E29.87 F8452.3
G1 X21.60 Y135.60 Z0.25 E29.92 F8385.3
G1 X22.10 Y134.60 Z0.25 E29.96 F8318.2
G1 X21.60 Y133.60 Z0.25 E30.01 F8251.1
G1 X22.10 Y132.60 Z0.25 E30.06 F8184.0
G1 X21.60 Y131.60 Z0.25 E30.10 F8116.9
G1 X22.10 Y130.60 Z0.25 E30.15 F8049.8
G1 X21.60 Y129.60 Z0.25 E30.20 F7982.8
G1 X22.10 Y128.60 Z0.25 E30.24 F7915.7
G1 X21.60 Y127.60 Z0.25 E30.29 F7848.6
G1 X22.10 Y126.60 Z0.25 E30.33 F7781.5
G1 X21.60 Y125.60 Z0.25 E30.38 F7714.4
G1 X22.10 Y124.60 Z0.25 E30.43 F7647.4
G1 X21.60 Y123.60 Z0.25 E30.47 F7580.3
G1 X22.10 Y122.60 Z0.25 E30.52 F7513.2
G1 X21.60 Y121.60 Z0.25 E30.57 F7446.1
G1 X22.10 Y120.60 Z0.25 E30.61 F7379.0
G1 X21.60 Y119.60 Z0.25 E30.66 F7311.9
G1 X22.10 Y118.60 Z0.25 E30.71 F7244.9
G1 X21.60 Y117.60 Z0.25 E30.75 F7177.8
G1 X22.10 Y116.60 Z0.25 E30.80 F7110.7
G1 X21.60 Y115.60 Z0.25 E30.85 F7043.6
G1 X22.10 Y114.60 Z0.25 E30.89 F6976.5
G1 X21.60 Y113.60 Z0.25 E30.94 F6909.5
G1 X22.10 Y112.60 Z0.25 E30.99 F6842.4
G1 X21.60 Y111.60 Z0.25 E31.03 F6775.3
G1 X22.10 Y110.60 Z0.25 E31.08 F6708.2
G1 X21.60 Y109.60 Z0.25 E31.12 F6641.1
G1 X22.10 Y108.60 Z0.25 E31.17 F6574.0
G1 X21.60 Y107.60 Z0.25 E31.22 F6507.0
G1 X22.10 Y106.60 Z0.25 E31.26 F6439.9
G1 X21.60 Y105.60 Z0.25 E31.31 F6372.8
G1 X22.10 Y104.60 Z0.25 E31.36 F6305.7
G1 X21.60 Y103.60 Z0.25 E31.40 F6238.6
G1 X22.10 Y102.60 Z0.25 E31.45 F6171.5
G1 X21.60 Y101.60 Z0.25 E31.50 F6104.5
G1 X22.10 Y100.60 Z0.25 E31.54 F6037.4
G1 X21.60 Y99.60 Z0.25 E31.59 F5970.3
G1 X22.10 Y98.60 Z0.25 E31.64 F5903.2
G1 X21.60 Y97.60 Z0.25 E31.68 F5836.1
G1 X22.10 Y96.60 Z0.25 E31.73 F5769.1
G1 X21.60 Y95.60 Z0.25 E31.78 F5702.0
G1 X22.10 Y94.60 Z0.25 E31.82 F5634.9
G1 X21.60 Y93.60 Z0.25 E31.87 F5567.8
G1 X22.10 Y92.60 Z0.25 E31.92 F5500.7
G1 X21.60 Y91.60 Z0.25 E31.96 F5433.6
G1 X22.10 Y90.60 Z0.25 E32.01 F5366.6
G1 X21.60 Y89.60 Z0.25 E32.05 F5299.5
G1 X22.10 Y88.60 Z0.25 E32.10 F5232.4
G1 X21.60 Y87.60 Z0.25 E32.15 F5165.3
G1 X22.10 Y86.60 Z0.25 E32.19 F5098.2
G1 X21.60 Y85.60 Z0.25 E32.24 F5031.2
G1 X22.10 Y84.60 Z0.25 E32.29 F4964.1
G1 X21.60 Y83.60 Z0.25 E32.33 F4897.0
G1 X22.10 Y82.60 Z0.25 E32.38 F4829.9
G1 X21.60 Y81.60 Z0.25 E32.43 F4762.8
G1 X22.10 Y80.60 Z0.25 E32.47 F4695.7
G1 X21.60 Y79.60 Z0.25 E32.52 F4628.7
G1 X22.10 Y78.60 Z0.25 E32.57 F4561.6
G1 X21.60 Y77.60 Z0.25 E32.61 F4494.5
G1 X22.10 Y76.60 Z0.25 E32.66 F4427.4
G1 X21.60 Y75.60 Z0.25 E32.71 F4360.3
G1 X22.10 Y74.60 Z0.25 E32.75 F4293.3
G1 X21.60 Y73.60 Z0.25 E32.80 F4226.2
G1 X22.10 Y72.60 Z0.25 E32.84 F4159.1
G1 X21.60 Y71.60 Z0.25 E32.89 F4092.0
G1 X22.10 Y70.60 Z0.25 E32.94 F4024.9
G1 X21.60 Y69.60 Z0.25 E32.98 F3957.8
G1 X22.10 Y68.60 Z0.25 E33.03 F3890.8
G1 X21.60 Y67.60 Z0.25 E33.08 F3823.7
G1 X22.10 Y66.60 Z0.25 E33.12 F3756.6
G1 X21.60 Y65.60 Z0.25 E33.17 F3689.5
G1 X22.10 Y64.60 Z0.25 E33.22 F3622.4
G1 X21.60 Y63.60 Z0.25 E33.26 F3555.3
G1 X22.10 Y62.60 Z0.25 E33.31 F3488.3
G1 X21.60 Y61.60 Z0.25 E33.36 F3421.2
G1 X22.10 Y60.60 Z0.25 E33.40 F3354.1
G1 X21.60 Y59.60 Z0.25 E33.45 F3287.0
G1 X22.10 Y58.60 Z0.25 E33.50 F3219.9
G1 X21.60 Y57.60 Z0.25 E33.54 F3152.9
G1 X22.10 Y56.60 Z0.25 E33.59 F3085.8
G1 X21.60 Y55.60 Z0.25 E33.63 F3018.7
G1 X22.10 Y54.60 Z0.25 E33.68 F2951.6
G1 X21.60 Y53.60 Z0.25 E33.73 F2884.5
G1 X22.10 Y52.60 Z0.25 E33.77 F2817.4
G1 X21.60 Y51.60 Z0.25 E33.82 F2750.4
G1 X22.10 Y50.60 Z0.25 E33.87 F2683.3
G1 X21.60 Y49.60 Z0.25 E33.91 F2616.2
G1 X22.10 Y48.60 Z0.25 E33.96 F2549.1
G1 X21.60 Y47.60 Z0.25 E34.01 F2482.0
G1 X22.10 Y46.60 Z0.25 E34.05 F2415.0
G1 X21.60 Y45.60 Z0.25 E34.10 F2347.9
G1 X22.10 Y44.60 Z0.25 E34.15 F2280.8
G1 X21.60 Y43.60 Z0.25 E34.19 F2213.7
G1 X22.10 Y42.60 Z0.25 E34.24 F2146.6
G1 X21.60 Y41.60 Z0.25 E34.29 F2079.5
G1 X22.10 Y40.60 Z0.25 E34.33 F2012.5
G1 X21.60 Y39.60 Z0.25 E34.38 F1945.4
G1 X22.10 Y38.60 Z0.25 E34.43 F1878.3
G1 X21.60 Y37.60 Z0.25 E34.47 F1811.2
G1 X22.10 Y36.60 Z0.25 E34.52 F1744.1
G1 X21.60 Y35.60 Z0.25 E34.56 F1677.1
G1 X22.10 Y34.60 Z0.25 E34.61 F1610.0
G1 X21.60 Y33.60 Z0.25 E34.66 F1542.9
G1 X22.10 Y32.60 Z0.25 E34.70 F1475.8
G1 X21.60 Y31.60 Z0.25 E34.75 F1408.7
G1 X22.10 Y30.60 Z0.25 E34.80 F1341.6
G1 X21.60 Y29.60 Z0.25 E34.84 F1274.6
G1 X22.10 Y28.60 Z0.25 E34.89 F1207.5
G1 X21.60 Y27.60 Z0.25 E34.94 F1140.4
G1 X22.10 Y26.60 Z0.25 E34.98 F1073.3
G1 X21.60 Y25.60 Z0.25 E35.03 F1006.2
G1 X22.10 Y24.60 Z0.25 E35.08 F939.1
G1 X21.60 Y23.60 Z0.25 E35.12 F872.1
G1 X22.10 Y22.60 Z0.25 E35.17 F805.0
G1 X21.60 Y21.60 Z0.25 E35.22 F737.9
G1 X22.10 Y20.60 Z0.25 E35.26 F670.8
G1 X21.60 Y19.60 Z0.25 E35.31 F603.7
G1 X22.10 Y18.60 Z0.25 E35.35 F536.7
G1 X21.60 Y17.60 Z0.25 E35.40 F469.6
G1 X22.10 Y16.60 Z0.25 E35.45 F402.5
G1 X21.60 Y15.60 Z0.25 E35.49 F335.4
G1 X22.10 Y14.60 Z0.25 E35.54 F268.3
G1 X21.60 Y13.60 Z0.25 E35.59 F201.2
G1 X22.10 Y12.60 Z0.25 E35.63 F134.2
G1 X21.60 Y11.60 Z0.25 E35.68 F67.1
M201 X1000 Y1000
M205 X20 Y20
M205 J0.3
G0 X26.60 Y11.60 Z0.25 E35.68 F5400.0
M593 X D0.15
M203 X500 Y500 ; maximum feedrates
M204 P10000 ; print acceleration
M201 X10000 Y10000 ; max acceleration
M205 X500.00 Y500.00 ; jerk limits very high
M205 J0.3 ; junction deviation maximum
G1 X27.10 Y12.60 Z0.25 E35.73 F67.1
G1 X26.60 Y13.60 Z0.25 E35.77 F134.2
G1 X27.10 Y14.60 Z0.25 E35.82 F201.2
G1 X26.60 Y15.60 Z0.25 E35.87 F268.3
G1 X27.10 Y16.60 Z0.25 E35.91 F335.4
G1 X26.60 Y17.60 Z0.25 E35.96 F402.5
G1 X27.10 Y18.60 Z0.25 E36.01 F469.6
G1 X26.60 Y19.60 Z0.25 E36.05 F536.7
G1 X27.10 Y20.60 Z0.25 E36.10 F603.7
G1 X26.60 Y21.60 Z0.25 E36.14 F670.8
G1 X27.10 Y22.60 Z0.25 E36.19 F737.9
G1 X26.60 Y23.60 Z0.25 E36.24 F805.0
G1 X27.10 Y24.60 Z0.25 E36.28 F872.1
G1 X26.60 Y25.60 Z0.25 E36.33 F939.1
G1 X27.10 Y26.60 Z0.25 E36.38 F1006.2
G1 X26.60 Y27.60 Z0.25 E36.42 F1073.3
G1 X27.10 Y28.60 Z0.25 E36.47 F1140.4
G1 X26.60 Y29.60 Z0.25 E36.52 F1207.5
G1 X27.10 Y30.60 Z0.25 E36.56 F1274.6
G1 X26.60 Y31.60 Z0.25 E36.61 F1341.6
G1 X27.10 Y32.60 Z0.25 E36.66 F1408.7
G1 X26.60 Y33.60 Z0.25 E36.70 F1475.8
G1 X27.10 Y34.60 Z0.25 E36.75 F1542.9
G1 X26.60 Y35.60 Z0.25 E36.80 F1610.0
G1 X27.10 Y36.60 Z0.25 E36.84 F1677.1
G1 X26.60 Y37.60 Z0.25 E36.89 F1744.1
G1 X27.10 Y38.60 Z0.25 E36.94 F1811.2
G1 X26.60 Y39.60 Z0.25 E36.98 F1878.3
G1 X27.10 Y40.60 Z0.25 E37.03 F1945.4
G1 X26.60 Y41.60 Z0.25 E37.07 F2012.5
G1 X27.10 Y42.60 Z0.25 E37.12 F2079.5
G1 X26.60 Y43.60 Z0.25 E37.17 F2146.6
G1 X27.10 Y44.60 Z0.25 E37.21 F2213.7
G1 X26.60 Y45.60 Z0.25 E37.26 F2280.8
G1 X27.10 Y46.60 Z0.25 E37.31 F2347.9
G1 X26.60 Y47.60 Z0.25 E37.35 F2415.0
G1 X27.10 Y48.60 Z0.25 E37.40 F2482.0
G1 X26.60 Y49.60 Z0.25 E37.45 F2549.1
G1 X27.10 Y50.60 Z0.25 E37.49 F2616.2
G1 X26.60 Y51.60 Z0.25 E37.54 F2683.3
G1 X27.10 Y52.60 Z0.25 E37.59 F2750.4
G1 X26.60 Y53.60 Z0.25 E37.63 F2817.4
G1 X27.10 Y54.60 Z0.25 E37.68 F2884.5
G1 X26.60 Y55.60 Z0.25 E37.73 F2951.6
G1 X27.10 Y56.60 Z0.25 E37.77 F3018.7
G1 X26.60 Y57.60 Z0.25 E37.82 F3085.8
G1 X27.10 Y58.60 Z0.25 E37.86 F3152.9
G1 X26.60 Y59.60 Z0.25 E37.91 F3219.9
G1 X27.10 Y60.60 Z0.25 E37.96 F3287.0
G1 X26.60 Y61.60 Z0.25 E38.00 F3354.1
G1 X27.10 Y62.60 Z0.25 E38.05 F3421.2
G1 X26.60 Y63.60 Z0.25 E38.10 F3488.3
G1 X27.10 Y64.60 Z0.25 E38.14 F3555.3
G1 X26.60 Y65.60 Z0.25 E38.19 F3622.4
G1 X27.10 Y66.60 Z0.25 E38.24 F3689.5
G1 X26.60 Y67.60 Z0.25 E38.28 F3756.6
G1 X27.10 Y68.60 Z0.25 E38.33 F3823.7
G1 X26.60 Y69.60 Z0.25 E38.38 F3890.8
G1 X27.10 Y70.60 Z0.25 E38.42 F3957.8
G1 X26.60 Y71.60 Z0.25 E38.47 F4024.9
G1 X27.10 Y72.60 Z0.25 E38.52 F4092.0
G1 X26.60 Y73.60 Z0.25 E38.56 F4159.1
G1 X27.10 Y74.60 Z0.25 E38.61 F4226.2
G1 X26.60 Y75.60 Z0.25 E38.66 F4293.3
G1 X27.10 Y76.60 Z0.25 E38.70 F4360.3
G1 X26.60 Y77.60 Z0.25 E38.75 F4427.4
G1 X27.10 Y78.60 Z0.25 E38.79 F4494.5
G1 X26.60 Y79.60 Z0.25 E38.84 F4561.6
G1 X27.10 Y80.60 Z0.25 E38.89 F4628.7
G1 X26.60 Y81.60 Z0.25 E38.93 F4695.7
G1 X27.10 Y82.60 Z0.25 E38.98 F4762.8
G1 X26.60 Y83.60 Z0.25 E39.03 F4829.9
G1 X27.10 Y84.60 Z0.25 E39.07 F4897.0
G1 X26.60 Y85.60 Z0.25 E39.12 F4964.1
G1 X27.10 Y86.60 Z0.25 E39.17 F5031.2
G1 X26.60 Y87.60 Z0.25 E39.21 F5098.2
G1 X27.10 Y88.60 Z0.25 E39.26 F5165.3
G1 X26.60 Y89.60 Z0.25 E39.31 F5232.4
G1 X27.10 Y90.60 Z0.25 E39.35 F5299.5
G1 X26.60 Y91.60 Z0.25 E39.40 F5366.6
G1 X27.10 Y92.60 Z0.25 E39.45 F5433.6
G1 X26.60 Y93.60 Z0.25 E39.49 F5500.7
G1 X27.10 Y94.60 Z0.25 E39.54 F5567.8
G1 X26.60 Y95.60 Z0.25 E39.58 F5634.9
G1 X27.10 Y96.60 Z0.25 E39.63 F5702.0
G1 X26.60 Y97.60 Z0.25 E39.68 F5769.1
G1 X27.10 Y98.60 Z0.25 E39.72 F5836.1
G1 X26.60 Y99.60 Z0.25 E39.77 F5903.2
G1 X27.10 Y100.60 Z0.25 E39.82 F5970.3
G1 X26.60 Y101.60 Z0.25 E39.86 F6037.4
G1 X27.10 Y102.60 Z0.25 E39.91 F6104.5
G1 X26.60 Y103.60 Z0.25 E39.96 F6171.5
G1 X27.10 Y104.60 Z0.25 E40.00 F6238.6
G1 X26.60 Y105.60 Z0.25 E40.05 F6305.7
G1 X27.10 Y106.60 Z0.25 E40.10 F6372.8
G1 X26.60 Y107.60 Z0.25 E40.14 F6439.9
G1 X27.10 Y108.60 Z0.25 E40.19 F6507.0
G1 X26.60 Y109.60 Z0.25 E40.24 F6574.0
G1 X27.10 Y110.60 Z0.25 E40.28 F6641.1
G1 X26.60 Y111.60 Z0.25 E40.33 F6708.2
G1 X27.10 Y112.60 Z0.25 E40.37 F6775.3
G1 X26.60 Y113.60 Z0.25 E40.42 F6842.4
G1 X27.10 Y114.60 Z0.25 E40.47 F6909.5
G1 X26.60 Y115.60 Z0.25 E40.51 F6976.5
G1 X27.10 Y116.60 Z0.25 E40.56 F7043.6
G1 X26.60 Y117.60 Z0.25 E40.61 F7110.7
G1 X27.10 Y118.60 Z0.25 E40.65 F7177.8
G1 X26.60 Y119.60 Z0.25 E40.70 F7244.9
G1 X27.10 Y120.60 Z0.25 E40.75 F7311.9
G1 X26.60 Y121.60 Z0.25 E40.79 F7379.0
G1 X27.10 Y122.60 Z0.25 E40.84 F7446.1
G1 X26.60 Y123.60 Z0.25 E40.89 F7513.2
G1 X27.10 Y124.60 Z0.25 E40.93 F7580.3
G1 X26.60 Y125.60 Z0.25 E40.98 F7647.4
G1 X27.10 Y126.60 Z0.25 E41.03 F7714.4
G1 X26.60 Y127.60 Z0.25 E41.07 F7781.5
G1 X27.10 Y128.60 Z0.25 E41.12 F7848.6
G1 X26.60 Y129.60 Z0.25 E41.17 F7915.7
G1 X27.10 Y130.60 Z0.25 E41.21 F7982.8
G1 X26.60 Y131.60 Z0.25 E41.26 F8049.8
G1 X27.10 Y132.60 Z0.25 E41.30 F8116.9
G1 X26.60 Y133.60 Z0.25 E41.35 F8184.0
G1 X27.10 Y134.60 Z0.25 E41.40 F8251.1
G1 X26.60 Y135.60 Z0.25 E41.44 F8318.2
G1 X27.10 Y136.60 Z0.25 E41.49 F8385.3
G1 X26.60 Y137.60 Z0.25 E41.54 F8452.3
G1 X27.10 Y138.60 Z0.25 E41.58 F8519.4
G1 X26.60 Y139.60 Z0.25 E41.63 F8586.5
G1 X27.10 Y140.60 Z0.25 E41.68 F8653.6
G1 X26.60 Y141.60 Z0.25 E41.72 F8720.7
G1 X27.10 Y142.60 Z0.25 E41.77 F8787.7
G1 X26.60 Y143.60 Z0.25 E41.82 F8854.8
G1 X27.10 Y144.60 Z0.25 E41.86 F8921.9
G1 X26.60 Y145.60 Z0.25 E41.91 F8989.0
G1 X27.10 Y146.60 Z0.25 E41.96 F9056.1
G1 X26.60 Y147.60 Z0.25 E42.00 F9123.2
G1 X27.10 Y148.60 Z0.25 E42.05 F9190.2
G1 X26.60 Y149.60 Z0.25 E42.09 F9257.3
G1 X27.10 Y150.60 Z0.25 E42.14 F9324.4
G1 X26.60 Y151.60 Z0.25 E42.19 F9391.5
G1 X27.10 Y152.60 Z0.25 E42.23 F9458.6
G1 X26.60 Y153.60 Z0.25 E42.28 F9525.6
G1 X27.10 Y154.60 Z0.25 E42.33 F9592.7
G1 X26.60 Y155.60 Z0.25 E42.37 F9659.8
G1 X27.10 Y156.60 Z0.25 E42.42 F9726.9
G1 X26.60 Y157.60 Z0.25 E42.47 F9794.0
G1 X27.10 Y158.60 Z0.25 E42.51 F9861.1
G1 X26.60 Y159.60 Z0.25 E42.56 F9928.1
G1 X27.10 Y160.60 Z0.25 E42.61 F9995.2
G1 X26.60 Y161.60 Z0.25 E42.65 F10062.3
G1 X27.10 Y162.60 Z0.25 E42.70 F10129.4
G1 X26.60 Y163.60 Z0.25 E42.75 F10196.5
G1 X27.10 Y164.60 Z0.25 E42.79 F10263.6
G1 X26.60 Y165.60 Z0.25 E42.84 F10330.6
G1 X27.10 Y166.60 Z0.25 E42.88 F10397.7
G1 X26.60 Y167.60 Z0.25 E42.93 F10464.8
G1 X27.10 Y168.60 Z0.25 E42.98 F10531.9
G1 X26.60 Y169.60 Z0.25 E43.02 F10599.0
G1 X27.10 Y170.60 Z0.25 E43.07 F10666.0
G1 X26.60 Y171.60 Z0.25 E43.12 F10733.1
M201 X1000 Y1000
M205 X20 Y20
M205 J0.3
G1 X26.60 Y184.40 Z0.25 E43.65

G0 X31.60 Y184.40 Z0.25 E43.65 F5400.0
M593 X D0.20
G1 X31.60 Y171.60 Z0.25 E44.18 F10733.1
M203 X500 Y500 ; maximum feedrates
M204 P10000 ; print acceleration
M201 X10000 Y10000 ; max acceleration
M205 X500.00 Y500.00 ; jerk limits very high
M205 J0.3 ; junction deviation maximum
G1 X32.10 Y170.60 Z0.25 E44.23 F10733.1
G1 X31.60 Y169.60 Z0.25 E44.27 F10666.0
G1 X32.10 Y168.60 Z0.25 E44.32 F10599.0
G1 X31.60 Y167.60 Z0.25 E44.37 F10531.9
G1 X32.10 Y166.60 Z0.25 E44.41 F10464.8
G1 X31.60 Y165.60 Z0.25 E44.46 F10397.7
G1 X32.10 Y164.60 Z0.25 E44.51 F10330.6
G1 X31.60 Y163.60 Z0.25 E44.55 F10263.6
G1 X32.10 Y162.60 Z0.25 E44.60 F10196.5
G1 X31.60 Y161.60 Z0.25 E44.65 F10129.4
G1 X32.10 Y160.60 Z0.25 E44.69 F10062.3
G1 X31.60 Y159.60 Z0.25 E44.74 F9995.2
G1 X32.10 Y158.60 Z0.25 E44.79 F9928.1
G1 X31.60 Y157.60 Z0.25 E44.83 F9861.1
G1 X32.10 Y156.60 Z0.25 E44.88 F9794.0
G1 X31.60 Y155.60 Z0.25 E44.93 F9726.9
G1 X32.10 Y154.60 Z0.25 E44.97 F9659.8
G1 X31.60 Y153.60 Z0.25 E45.02 F9592.7
G1 X32.10 Y152.60 Z0.25 E45.06 F9525.6
G1 X31.60 Y151.60 Z0.25 E45.11 F9458.6
G1 X32.10 Y150.60 Z0.25 E45.16 F9391.5
G1 X31.60 Y149.60 Z0.25 E45.20 F9324.4
G1 X32.10 Y148.60 Z0.25 E45.25 F9257.3
G1 X31.60 Y147.60 Z0.25 E45.30 F9190.2
G1 X32.10 Y146.60 Z0.25 E45.34 F9123.2
G1 X31.60 Y145.60 Z0.25 E45.39 F9056.1
G1 X32.10 Y144.60 Z0.25 E45.44 F8989.0
G1 X31.60 Y143.60 Z0.25 E45.48 F8921.9
G1 X32.10 Y142.60 Z0.25 E45.53 F8854.8
G1 X31.60 Y141.60 Z0.25 E45.58 F8787.7
G1 X32.10 Y140.60 Z0.25 E45.62 F8720.7
G1 X31.60 Y139.60 Z0.25 E45.67 F8653.6
G1 X32.10 Y138.60 Z0.25 E45.72 F8586.5
G1 X31.60 Y137.60 Z0.25 E45.76 F8519.4
G1 X32.10 Y136.60 Z0.25 E45.81 F8452.3
G1 X31.60 Y135.60 Z0.25 E45.86 F8385.3
G1 X32.10 Y134.60 Z0.25 E45.90 F8318.2
G1 X31.60 Y133.60 Z0.25 E45.95 F8251.1
G1 X32.10 Y132.60 Z0.25 E45.99 F8184.0
G1 X31.60 Y131.60 Z0.25 E46.04 F8116.9
G1 X32.10 Y130.60 Z0.25 E46.09 F8049.8
G1 X31.60 Y129.60 Z0.25 E46.13 F7982.8
G1 X32.10 Y128.60 Z0.25 E46.18 F7915.7
G1 X31.60 Y127.60 Z0.25 E46.23 F7848.6
G1 X32.10 Y126.60 Z0.25 E46.27 F7781.5
G1 X31.60 Y125.60 Z0.25 E46.32 F7714.4
G1 X32.10 Y124.60 Z0.25 E46.37 F7647.4
G1 X31.60 Y123.60 Z0.25 E46.41 F7580.3
G1 X32.10 Y122.60 Z0.25 E46.46 F7513.2
G1 X31.60 Y121.60 Z0.25 E46.51 F7446.1
G1 X32.10 Y120.60 Z0.25 E46.55 F7379.0
G1 X31.60 Y119.60 Z0.25 E46.60 F7311.9
G1 X32.10 Y118.60 Z0.25 E46.65 F7244.9
G1 X31.60 Y117.60 Z0.25 E46.69 F7177.8
G1 X32.10 Y116.60 Z0.25 E46.74 F7110.7
G1 X31.60 Y115.60 Z0.25 E46.78 F7043.6
G1 X32.10 Y114.60 Z0.25 E46.83 F6976.5
G1 X31.60 Y113.60 Z0.25 E46.88 F6909.5
G1 X32.10 Y112.60 Z0.25 E46.92 F6842.4
G1 X31.60 Y111.60 Z0.25 E46.97 F6775.3
G1 X32.10 Y110.60 Z0.25 E47.02 F6708.2
G1 X31.60 Y109.60 Z0.25 E47.06 F6641.1
G1 X32.10 Y108.60 Z0.25 E47.11 F6574.0
G1 X31.60 Y107.60 Z0.25 E47.16 F6507.0
G1 X32.10 Y106.60 Z0.25 E47.20 F6439.9
G1 X31.60 Y105.60 Z0.25 E47.25 F6372.8
G1 X32.10 Y104.60 Z0.25 E47.30 F6305.7
G1 X31.60 Y103.60 Z0.25 E47.34 F6238.6
G1 X32.10 Y102.60 Z0.25 E47.39 F6171.5
G1 X31.60 Y101.60 Z0.25 E47.44 F6104.5
G1 X32.10 Y100.60 Z0.25 E47.48 F6037.4
G1 X31.60 Y99.60 Z0.25 E47.53 F5970.3
G1 X32.10 Y98.60 Z0.25 E47.57 F5903.2
G1 X31.60 Y97.60 Z0.25 E47.62 F5836.1
G1 X32.10 Y96.60 Z0.25 E47.67 F5769.1
G1 X31.60 Y95.60 Z0.25 E47.71 F5702.0
G1 X32.10 Y94.60 Z0.25 E47.76 F5634.9
G1 X31.60 Y93.60 Z0.25 E47.81 F5567.8
G1 X32.10 Y92.60 Z0.25 E47.85 F5500.7
G1 X31.60 Y91.60 Z0.25 E47.90 F5433.6
G1 X32.10 Y90.60 Z0.25 E47.95 F5366.6
G1 X31.60 Y89.60 Z0.25 E47.99 F5299.5
G1 X32.10 Y88.60 Z0.25 E48.04 F5232.4
G1 X31.60 Y87.60 Z0.25 E48.09 F5165.3
G1 X32.10 Y86.60 Z0.25 E48.13 F5098.2
G1 X31.60 Y85.60 Z0.25 E48.18 F5031.2
G1 X32.10 Y84.60 Z0.25 E48.23 F4964.1
G1 X31.60 Y83.60 Z0.25 E48.27 F4897.0
G1 X32.10 Y82.60 Z0.25 E48.32 F4829.9
G1 X31.60 Y81.60 Z0.25 E48.37 F4762.8
G1 X32.10 Y80.60 Z0.25 E48.41 F4695.7
G1 X31.60 Y79.60 Z0.25 E48.46 F4628.7
G1 X32.10 Y78.60 Z0.25 E48.50 F4561.6
G1 X31.60 Y77.60 Z0.25 E48.55 F4494.5
G1 X32.10 Y76.60 Z0.25 E48.60 F4427.4
G1 X31.60 Y75.60 Z0.25 E48.64 F4360.3
G1 X32.10 Y74.60 Z0.25 E48.69 F4293.3
G1 X31.60 Y73.60 Z0.25 E48.74 F4226.2
G1 X32.10 Y72.60 Z0.25 E48.78 F4159.1
G1 X31.60 Y71.60 Z0.25 E48.83 F4092.0
G1 X32.10 Y70.60 Z0.25 E48.88 F4024.9
G1 X31.60 Y69.60 Z0.25 E48.92 F3957.8
G1 X32.10 Y68.60 Z0.25 E48.97 F3890.8
G1 X31.60 Y67.60 Z0.25 E49.02 F3823.7
G1 X32.10 Y66.60 Z0.25 E49.06 F3756.6
G1 X31.60 Y65.60 Z0.25 E49.11 F3689.5
G1 X32.10 Y64.60 Z0.25 E49.16 F3622.4
G1 X31.60 Y63.60 Z0.25 E49.20 F3555.3
G1 X32.10 Y62.60 Z0.25 E49.25 F3488.3
G1 X31.60 Y61.60 Z0.25 E49.29 F3421.2
G1 X32.10 Y60.60 Z0.25 E49.34 F3354.1
G1 X31.60 Y59.60 Z0.25 E49.39 F3287.0
G1 X32.10 Y58.60 Z0.25 E49.43 F3219.9
G1 X31.60 Y57.60 Z0.25 E49.48 F3152.9
G1 X32.10 Y56.60 Z0.25 E49.53 F3085.8
G1 X31.60 Y55.60 Z0.25 E49.57 F3018.7
G1 X32.10 Y54.60 Z0.25 E49.62 F2951.6
G1 X31.60 Y53.60 Z0.25 E49.67 F2884.5
G1 X32.10 Y52.60 Z0.25 E49.71 F2817.4
G1 X31.60 Y51.60 Z0.25 E49.76 F2750.4
G1 X32.10 Y50.60 Z0.25 E49.81 F2683.3
G1 X31.60 Y49.60 Z0.25 E49.85 F2616.2
G1 X32.10 Y48.60 Z0.25 E49.90 F2549.1
G1 X31.60 Y47.60 Z0.25 E49.95 F2482.0
G1 X32.10 Y46.60 Z0.25 E49.99 F2415.0
G1 X31.60 Y45.60 Z0.25 E50.04 F2347.9
G1 X32.10 Y44.60 Z0.25 E50.08 F2280.8
G1 X31.60 Y43.60 Z0.25 E50.13 F2213.7
G1 X32.10 Y42.60 Z0.25 E50.18 F2146.6
G1 X31.60 Y41.60 Z0.25 E50.22 F2079.5
G1 X32.10 Y40.60 Z0.25 E50.27 F2012.5
G1 X31.60 Y39.60 Z0.25 E50.32 F1945.4
G1 X32.10 Y38.60 Z0.25 E50.36 F1878.3
G1 X31.60 Y37.60 Z0.25 E50.41 F1811.2
G1 X32.10 Y36.60 Z0.25 E50.46 F1744.1
G1 X31.60 Y35.60 Z0.25 E50.50 F1677.1
G1 X32.10 Y34.60 Z0.25 E50.55 F1610.0
G1 X31.60 Y33.60 Z0.25 E50.60 F1542.9
G1 X32.10 Y32.60 Z0.25 E50.64 F1475.8
G1 X31.60 Y31.60 Z0.25 E50.69 F1408.7
G1 X32.10 Y30.60 Z0.25 E50.74 F1341.6
G1 X31.60 Y29.60 Z0.25 E50.78 F1274.6
G1 X32.10 Y28.60 Z0.25 E50.83 F1207.5
G1 X31.60 Y27.60 Z0.25 E50.88 F1140.4
G1 X32.10 Y26.60 Z0.25 E50.92 F1073.3
G1 X31.60 Y25.60 Z0.25 E50.97 F1006.2
G1 X32.10 Y24.60 Z0.25 E51.01 F939.1
G1 X31.60 Y23.60 Z0.25 E51.06 F872.1
G1 X32.10 Y22.60 Z0.25 E51.11 F805.0
G1 X31.60 Y21.60 Z0.25 E51.15 F737.9
G1 X32.10 Y20.60 Z0.25 E51.20 F670.8
G1 X31.60 Y19.60 Z0.25 E51.25 F603.7
G1 X32.10 Y18.60 Z0.25 E51.29 F536.7
G1 X31.60 Y17.60 Z0.25 E51.34 F469.6
G1 X32.10 Y16.60 Z0.25 E51.39 F402.5
G1 X31.60 Y15.60 Z0.25 E51.43 F335.4
G1 X32.10 Y14.60 Z0.25 E51.48 F268.3
G1 X31.60 Y13.60 Z0.25 E51.53 F201.2
G1 X32.10 Y12.60 Z0.25 E51.57 F134.2
G1 X31.60 Y11.60 Z0.25 E51.62 F67.1
M201 X1000 Y1000
M205 X20 Y20
M205 J0.3
G0 X36.60 Y11.60 Z0.25 E51.62 F5400.0
M593 X D0.25
M203 X500 Y500 ; maximum feedrates
M204 P10000 ; print acceleration
M201 X10000 Y10000 ; max acceleration
M205 X500.00 Y500.00 ; jerk limits very high
M205 J0.3 ; junction deviation maximum
G1 X37.10 Y12.60 Z0.25 E51.67 F67.1
G1 X36.60 Y13.60 Z0.25 E51.71 F134.2
G1 X37.10 Y14.60 Z0.25 E51.76 F201.2
G1 X36.60 Y15.60 Z0.25 E51.80 F268.3
G1 X37.10 Y16.60 Z0.25 E51.85 F335.4
G1 X36.60 Y17.60 Z0.25 E51.90 F402.5
G1 X37.10 Y18.60 Z0.25 E51.94 F469.6
G1 X36.60 Y19.60 Z0.25 E51.99 F536.7
G1 X37.10 Y20.60 Z0.25 E52.04 F603.7
G1 X36.60 Y21.60 Z0.25 E52.08 F670.8
G1 X37.10 Y22.60 Z0.25 E52.13 F737.9
G1 X36.60 Y23.60 Z0.25 E52.18 F805.0
G1 X37.10 Y24.60 Z0.25 E52.22 F872.1
G1 X36.60 Y25.60 Z0.25 E52.27 F939.1
G1 X37.10 Y26.60 Z0.25 E52.32 F1006.2
G1 X36.60 Y27.60 Z0.25 E52.36 F1073.3
G1 X37.10 Y28.60 Z0.25 E52.41 F1140.4
G1 X36.60 Y29.60 Z0.25 E52.46 F1207.5
G1 X37.10 Y30.60 Z0.25 E52.50 F1274.6
G1 X36.60 Y31.60 Z0.25 E52.55 F1341.6
G1 X37.10 Y32.60 Z0.25 E52.60 F1408.7
G1 X36.60 Y33.60 Z0.25 E52.64 F1475.8
G1 X37.10 Y34.60 Z0.25 E52.69 F1542.9
G1 X36.60 Y35.60 Z0.25 E52.73 F1610.0
G1 X37.10 Y36.60 Z0.25 E52.78 F1677.1
G1 X36.60 Y37.60 Z0.25 E52.83 F1744.1
G1 X37.10 Y38.60 Z0.25 E52.87 F1811.2
G1 X36.60 Y39.60 Z0.25 E52.92 F1878.3
G1 X37.10 Y40.60 Z0.25 E52.97 F1945.4
G1 X36.60 Y41.60 Z0.25 E53.01 F2012.5
G1 X37.10 Y42.60 Z0.25 E53.06 F2079.5
G1 X36.60 Y43.60 Z0.25 E53.11 F2146.6
G1 X37.10 Y44.60 Z0.25 E53.15 F2213.7
G1 X36.60 Y45.60 Z0.25 E53.20 F2280.8
G1 X37.10 Y46.60 Z0.25 E53.25 F2347.9
G1 X36.60 Y47.60 Z0.25 E53.29 F2415.0
G1 X37.10 Y48.60 Z0.25 E53.34 F2482.0
G1 X36.60 Y49.60 Z0.25 E53.39 F2549.1
G1 X37.10 Y50.60 Z0.25 E53.43 F2616.2
G1 X36.60 Y51.60 Z0.25 E53.48 F2683.3
G1 X37.10 Y52.60 Z0.25 E53.52 F2750.4
G1 X36.60 Y53.60 Z0.25 E53.57 F2817.4
G1 X37.10 Y54.60 Z0.25 E53.62 F2884.5
G1 X36.60 Y55.60 Z0.25 E53.66 F2951.6
G1 X37.10 Y56.60 Z0.25 E53.71 F3018.7
G1 X36.60 Y57.60 Z0.25 E53.76 F3085.8
G1 X37.10 Y58.60 Z0.25 E53.80 F3152.9
G1 X36.60 Y59.60 Z0.25 E53.85 F3219.9
G1 X37.10 Y60.60 Z0.25 E53.90 F3287.0
G1 X36.60 Y61.60 Z0.25 E53.94 F3354.1
G1 X37.10 Y62.60 Z0.25 E53.99 F3421.2
G1 X36.60 Y63.60 Z0.25 E54.04 F3488.3
G1 X37.10 Y64.60 Z0.25 E54.08 F3555.3
G1 X36.60 Y65.60 Z0.25 E54.13 F3622.4
G1 X37.10 Y66.60 Z0.25 E54.18 F3689.5
G1 X36.60 Y67.60 Z0.25 E54.22 F3756.6
G1 X37.10 Y68.60 Z0.25 E54.27 F3823.7
G1 X36.60 Y69.60 Z0.25 E54.31 F3890.8
G1 X37.10 Y70.60 Z0.25 E54.36 F3957.8
G1 X36.60 Y71.60 Z0.25 E54.41 F4024.9
G1 X37.10 Y72.60 Z0.25 E54.45 F4092.0
G1 X36.60 Y73.60 Z0.25 E54.50 F4159.1
G1 X37.10 Y74.60 Z0.25 E54.55 F4226.2
G1 X36.60 Y75.60 Z0.25 E54.59 F4293.3
G1 X37.10 Y76.60 Z0.25 E54.64 F4360.3
G1 X36.60 Y77.60 Z0.25 E54.69 F4427.4
G1 X37.10 Y78.60 Z0.25 E54.73 F4494.5
G1 X36.60 Y79.60 Z0.25 E54.78 F4561.6
G1 X37.10 Y80.60 Z0.25 E54.83 F4628.7
G1 X36.60 Y81.60 Z0.25 E54.87 F4695.7
G1 X37.10 Y82.60 Z0.25 E54.92 F4762.8
G1 X36.60 Y83.60 Z0.25 E54.97 F4829.9
G1 X37.10 Y84.60 Z0.25 E55.01 F4897.0
G1 X36.60 Y85.60 Z0.25 E55.06 F4964.1
G1 X37.10 Y86.60 Z0.25 E55.11 F5031.2
G1 X36.60 Y87.60 Z0.25 E55.15 F5098.2
G1 X37.10 Y88.60 Z0.25 E55.20 F5165.3
G1 X36.60 Y89.60 Z0.25 E55.24 F5232.4
G1 X37.10 Y90.60 Z0.25 E55.29 F5299.5
G1 X36.60 Y91.60 Z0.25 E55.34 F5366.6
G1 X37.10 Y92.60 Z0.25 E55.38 F5433.6
G1 X36.60 Y93.60 Z0.25 E55.43 F5500.7
G1 X37.10 Y94.60 Z0.25 E55.48 F5567.8
G1 X36.60 Y95.60 Z0.25 E55.52 F5634.9
G1 X37.10 Y96.60 Z0.25 E55.57 F5702.0
G1 X36.60 Y97.60 Z0.25 E55.62 F5769.1
G1 X37.10 Y98.60 Z0.25 E55.66 F5836.1
G1 X36.60 Y99.60 Z0.25 E55.71 F5903.2
G1 X37.10 Y100.60 Z0.25 E55.76 F5970.3
G1 X36.60 Y101.60 Z0.25 E55.80 F6037.4
G1 X37.10 Y102.60 Z0.25 E55.85 F6104.5
G1 X36.60 Y103.60 Z0.25 E55.90 F6171.5
G1 X37.10 Y104.60 Z0.25 E55.94 F6238.6
G1 X36.60 Y105.60 Z0.25 E55.99 F6305.7
G1 X37.10 Y106.60 Z0.25 E56.03 F6372.8
G1 X36.60 Y107.60 Z0.25 E56.08 F6439.9
G1 X37.10 Y108.60 Z0.25 E56.13 F6507.0
G1 X36.60 Y109.60 Z0.25 E56.17 F6574.0
G1 X37.10 Y110.60 Z0.25 E56.22 F6641.1
G1 X36.60 Y111.60 Z0.25 E56.27 F6708.2
G1 X37.10 Y112.60 Z0.25 E56.31 F6775.3
G1 X36.60 Y113.60 Z0.25 E56.36 F6842.4
G1 X37.10 Y114.60 Z0.25 E56.41 F6909.5
G1 X36.60 Y115.60 Z0.25 E56.45 F6976.5
G1 X37.10 Y116.60 Z0.25 E56.50 F7043.6
G1 X36.60 Y117.60 Z0.25 E56.55 F7110.7
G1 X37.10 Y118.60 Z0.25 E56.59 F7177.8
G1 X36.60 Y119.60 Z0.25 E56.64 F7244.9
G1 X37.10 Y120.60 Z0.25 E56.69 F7311.9
G1 X36.60 Y121.60 Z0.25 E56.73 F7379.0
G1 X37.10 Y122.60 Z0.25 E56.78 F7446.1
G1 X36.60 Y123.60 Z0.25 E56.82 F7513.2
G1 X37.10 Y124.60 Z0.25 E56.87 F7580.3
G1 X36.60 Y125.60 Z0.25 E56.92 F7647.4
G1 X37.10 Y126.60 Z0.25 E56.96 F7714.4
G1 X36.60 Y127.60 Z0.25 E57.01 F7781.5
G1 X37.10 Y128.60 Z0.25 E57.06 F7848.6
G1 X36.60 Y129.60 Z0.25 E57.10 F7915.7
G1 X37.10 Y130.60 Z0.25 E57.15 F7982.8
G1 X36.60 Y131.60 Z0.25 E57.20 F8049.8
G1 X37.10 Y132.60 Z0.25 E57.24 F8116.9
G1 X36.60 Y133.60 Z0.25 E57.29 F8184.0
G1 X37.10 Y134.60 Z0.25 E57.34 F8251.1
G1 X36.60 Y135.60 Z0.25 E57.38 F8318.2
G1 X37.10 Y136.60 Z0.25 E57.43 F8385.3
G1 X36.60 Y137.60 Z0.25 E57.48 F8452.3
G1 X37.10 Y138.60 Z0.25 E57.52 F8519.4
G1 X36.60 Y139.60 Z0.25 E57.57 F8586.5
G1 X37.10 Y140.60 Z0.25 E57.62 F8653.6
G1 X36.60 Y141.60 Z0.25 E57.66 F8720.7
G1 X37.10 Y142.60 Z0.25 E57.71 F8787.7
G1 X36.60 Y143.60 Z0.25 E57.75 F8854.8
G1 X37.10 Y144.60 Z0.25 E57.80 F8921.9
G1 X36.60 Y145.60 Z0.25 E57.85 F8989.0
G1 X37.10 Y146.60 Z0.25 E57.89 F9056.1
G1 X36.60 Y147.60 Z0.25 E57.94 F9123.2
G1 X37.10 Y148.60 Z0.25 E57.99 F9190.2
G1 X36.60 Y149.60 Z0.25 E58.03 F9257.3
G1 X37.10 Y150.60 Z0.25 E58.08 F9324.4
G1 X36.60 Y151.60 Z0.25 E58.13 F9391.5
G1 X37.10 Y152.60 Z0.25 E58.17 F9458.6
G1 X36.60 Y153.60 Z0.25 E58.22 F9525.6
G1 X37.10 Y154.60 Z0.25 E58.27 F9592.7
G1 X36.60 Y155.60 Z0.25 E58.31 F9659.8
G1 X37.10 Y156.60 Z0.25 E58.36 F9726.9
G1 X36.60 Y157.60 Z0.25 E58.41 F9794.0
G1 X37.10 Y158.60 Z0.25 E58.45 F9861.1
G1 X36.60 Y159.60 Z0.25 E58.50 F9928.1
G1 X37.10 Y160.60 Z0.25 E58.54 F9995.2
G1 X36.60 Y161.60 Z0.25 E58.59 F10062.3
G1 X37.10 Y162.60 Z0.25 E58.64 F10129.4
G1 X36.60 Y163.60 Z0.25 E58.68 F10196.5
G1 X37.10 Y164.60 Z0.25 E58.73 F10263.6
G1 X36.60 Y165.60 Z0.25 E58.78 F10330.6
G1 X37.10 Y166.60 Z0.25 E58.82 F10397.7
G1 X36.60 Y167.60 Z0.25 E58.87 F10464.8
G1 X37.10 Y168.60 Z0.25 E58.92 F10531.9
G1 X36.60 Y169.60 Z0.25 E58.96 F10599.0
G1 X37.10 Y170.60 Z0.25 E59.01 F10666.0
G1 X36.60 Y171.60 Z0.25 E59.06 F10733.1
M201 X1000 Y1000
M205 X20 Y20
M205 J0.3
G1 X36.60 Y184.40 Z0.25 E59.59

G0 X41.60 Y184.40 Z0.25 E59.59 F5400.0
M593 X D0.30
G1 X41.60 Y171.60 Z0.25 E60.12 F10733.1
M203 X500 Y500 ; maximum feedrates
M204 P10000 ; print acceleration
M201 X10000 Y10000 ; max acceleration
M205 X500.00 Y500.00 ; jerk limits very high
M205 J0.3 ; junction deviation maximum
G1 X42.10 Y170.60 Z0.25 E60.17 F10733.1
G1 X41.60 Y169.60 Z0.25 E60.21 F10666.0
G1 X42.10 Y168.60 Z0.25 E60.26 F10599.0
G1 X41.60 Y167.60 Z0.25 E60.31 F10531.9
G1 X42.10 Y166.60 Z0.25 E60.35 F10464.8
G1 X41.60 Y165.60 Z0.25 E60.40 F10397.7
G1 X42.10 Y164.60 Z0.25 E60.45 F10330.6
G1 X41.60 Y163.60 Z0.25 E60.49 F10263.6
G1 X42.10 Y162.60 Z0.25 E60.54 F10196.5
G1 X41.60 Y161.60 Z0.25 E60.59 F10129.4
G1 X42.10 Y160.60 Z0.25 E60.63 F10062.3
G1 X41.60 Y159.60 Z0.25 E60.68 F9995.2
G1 X42.10 Y158.60 Z0.25 E60.72 F9928.1
G1 X41.60 Y157.60 Z0.25 E60.77 F9861.1
G1 X42.10 Y156.60 Z0.25 E60.82 F9794.0
G1 X41.60 Y155.60 Z0.25 E60.86 F9726.9
G1 X42.10 Y154.60 Z0.25 E60.91 F9659.8
G1 X41.60 Y153.60 Z0.25 E60.96 F9592.7
G1 X42.10 Y152.60 Z0.25 E61.00 F9525.6
G1 X41.60 Y151.60 Z0.25 E61.05 F9458.6
G1 X42.10 Y150.60 Z0.25 E61.10 F9391.5
G1 X41.60 Y149.60 Z0.25 E61.14 F9324.4
G1 X42.10 Y148.60 Z0.25 E61.19 F9257.3
G1 X41.60 Y147.60 Z0.25 E61.24 F9190.2
G1 X42.10 Y146.60 Z0.25 E61.28 F9123.2
G1 X41.60 Y145.60 Z0.25 E61.33 F9056.1
G1 X42.10 Y144.60 Z0.25 E61.38 F8989.0
G1 X41.60 Y143.60 Z0.25 E61.42 F8921.9
G1 X42.10 Y142.60 Z0.25 E61.47 F8854.8
G1 X41.60 Y141.60 Z0.25 E61.51 F8787.7
G1 X42.10 Y140.60 Z0.25 E61.56 F8720.7
G1 X41.60 Y139.60 Z0.25 E61.61 F8653.6
G1 X42.10 Y138.60 Z0.25 E61.65 F8586.5
G1 X41.60 Y137.60 Z0.25 E61.70 F8519.4
G1 X42.10 Y136.60 Z0.25 E61.75 F8452.3
G1 X41.60 Y135.60 Z0.25 E61.79 F8385.3
G1 X42.10 Y134.60 Z0.25 E61.84 F8318.2
G1 X41.60 Y133.60 Z0.25 E61.89 F8251.1
G1 X42.10 Y132.60 Z0.25 E61.93 F8184.0
G1 X41.60 Y131.60 Z0.25 E61.98 F8116.9
G1 X42.10 Y130.60 Z0.25 E62.03 F8049.8
G1 X41.60 Y129.60 Z0.25 E62.07 F7982.8
G1 X42.10 Y128.60 Z0.25 E62.12 F7915.7
G1 X41.60 Y127.60 Z0.25 E62.17 F7848.6
G1 X42.10 Y126.60 Z0.25 E62.21 F7781.5
G1 X41.60 Y125.60 Z0.25 E62.26 F7714.4
G1 X42.10 Y124.60 Z0.25 E62.31 F7647.4
G1 X41.60 Y123.60 Z0.25 E62.35 F7580.3
G1 X42.10 Y122.60 Z0.25 E62.40 F7513.2
G1 X41.60 Y121.60 Z0.25 E62.44 F7446.1
G1 X42.10 Y120.60 Z0.25 E62.49 F7379.0
G1 X41.60 Y119.60 Z0.25 E62.54 F7311.9
G1 X42.10 Y118.60 Z0.25 E62.58 F7244.9
G1 X41.60 Y117.60 Z0.25 E62.63 F7177.8
G1 X42.10 Y116.60 Z0.25 E62.68 F7110.7
G1 X41.60 Y115.60 Z0.25 E62.72 F7043.6
G1 X42.10 Y114.60 Z0.25 E62.77 F6976.5
G1 X41.60 Y113.60 Z0.25 E62.82 F6909.5
G1 X42.10 Y112.60 Z0.25 E62.86 F6842.4
G1 X41.60 Y111.60 Z0.25 E62.91 F6775.3
G1 X42.10 Y110.60 Z0.25 E62.96 F6708.2
G1 X41.60 Y109.60 Z0.25 E63.00 F6641.1
G1 X42.10 Y108.60 Z0.25 E63.05 F6574.0
G1 X41.60 Y107.60 Z0.25 E63.10 F6507.0
G1 X42.10 Y106.60 Z0.25 E63.14 F6439.9
G1 X41.60 Y105.60 Z0.25 E63.19 F6372.8
G1 X42.10 Y104.60 Z0.25 E63.23 F6305.7
G1 X41.60 Y103.60 Z0.25 E63.28 F6238.6
G1 X42.10 Y102.60 Z0.25 E63.33 F6171.5
G1 X41.60 Y101.60 Z0.25 E63.37 F6104.5
G1 X42.10 Y100.60 Z0.25 E63.42 F6037.4
G1 X41.60 Y99.60 Z0.25 E63.47 F5970.3
G1 X42.10 Y98.60 Z0.25 E63.51 F5903.2
G1 X41.60 Y97.60 Z0.25 E63.56 F5836.1
G1 X42.10 Y96.60 Z0.25 E63.61 F5769.1
G1 X41.60 Y95.60 Z0.25 E63.65 F5702.0
G1 X42.10 Y94.60 Z0.25 E63.70 F5634.9
G1 X41.60 Y93.60 Z0.25 E63.75 F5567.8
G1 X42.10 Y92.60 Z0.25 E63.79 F5500.7
G1 X41.60 Y91.60 Z0.25 E63.84 F5433.6
G1 X42.10 Y90.60 Z0.25 E63.89 F5366.6
G1 X41.60 Y89.60 Z0.25 E63.93 F5299.5
G1 X42.10 Y88.60 Z0.25 E63.98 F5232.4
G1 X41.60 Y87.60 Z0.25 E64.02 F5165.3
G1 X42.10 Y86.60 Z0.25 E64.07 F5098.2
G1 X41.60 Y85.60 Z0.25 E64.12 F5031.2
G1 X42.10 Y84.60 Z0.25 E64.16 F4964.1
G1 X41.60 Y83.60 Z0.25 E64.21 F4897.0
G1 X42.10 Y82.60 Z0.25 E64.26 F4829.9
G1 X41.60 Y81.60 Z0.25 E64.30 F4762.8
G1 X42.10 Y80.60 Z0.25 E64.35 F4695.7
G1 X41.60 Y79.60 Z0.25 E64.40 F4628.7
G1 X42.10 Y78.60 Z0.25 E64.44 F4561.6
G1 X41.60 Y77.60 Z0.25 E64.49 F4494.5
G1 X42.10 Y76.60 Z0.25 E64.54 F4427.4
G1 X41.60 Y75.60 Z0.25 E64.58 F4360.3
G1 X42.10 Y74.60 Z0.25 E64.63 F4293.3
G1 X41.60 Y73.60 Z0.25 E64.68 F4226.2
G1 X42.10 Y72.60 Z0.25 E64.72 F4159.1
G1 X41.60 Y71.60 Z0.25 E64.77 F4092.0
G1 X42.10 Y70.60 Z0.25 E64.82 F4024.9
G1 X41.60 Y69.60 Z0.25 E64.86 F3957.8
G1 X42.10 Y68.60 Z0.25 E64.91 F3890.8
G1 X41.60 Y67.60 Z0.25 E64.95 F3823.7
G1 X42.10 Y66.60 Z0.25 E65.00 F3756.6
G1 X41.60 Y65.60 Z0.25 E65.05 F3689.5
G1 X42.10 Y64.60 Z0.25 E65.09 F3622.4
G1 X41.60 Y63.60 Z0.25 E65.14 F3555.3
G1 X42.10 Y62.60 Z0.25 E65.19 F3488.3
G1 X41.60 Y61.60 Z0.25 E65.23 F3421.2
G1 X42.10 Y60.60 Z0.25 E65.28 F3354.1
G1 X41.60 Y59.60 Z0.25 E65.33 F3287.0
G1 X42.10 Y58.60 Z0.25 E65.37 F3219.9
G1 X41.60 Y57.60 Z0.25 E65.42 F3152.9
G1 X42.10 Y56.60 Z0.25 E65.47 F3085.8
G1 X41.60 Y55.60 Z0.25 E65.51 F3018.7
G1 X42.10 Y54.60 Z0.25 E65.56 F2951.6
G1 X41.60 Y53.60 Z0.25 E65.61 F2884.5
G1 X42.10 Y52.60 Z0.25 E65.65 F2817.4
G1 X41.60 Y51.60 Z0.25 E65.70 F2750.4
G1 X42.10 Y50.60 Z0.25 E65.74 F2683.3
G1 X41.60 Y49.60 Z0.25 E65.79 F2616.2
G1 X42.10 Y48.60 Z0.25 E65.84 F2549.1
G1 X41.60 Y47.60 Z0.25 E65.88 F2482.0
G1 X42.10 Y46.60 Z0.25 E65.93 F2415.0
G1 X41.60 Y45.60 Z0.25 E65.98 F2347.9
G1 X42.10 Y44.60 Z0.25 E66.02 F2280.8
G1 X41.60 Y43.60 Z0.25 E66.07 F2213.7
G1 X42.10 Y42.60 Z0.25 E66.12 F2146.6
G1 X41.60 Y41.60 Z0.25 E66.16 F2079.5
G1 X42.10 Y40.60 Z0.25 E66.21 F2012.5
G1 X41.60 Y39.60 Z0.25 E66.26 F1945.4
G1 X42.10 Y38.60 Z0.25 E66.30 F1878.3
G1 X41.60 Y37.60 Z0.25 E66.35 F1811.2
G1 X42.10 Y36.60 Z0.25 E66.40 F1744.1
G1 X41.60 Y35.60 Z0.25 E66.44 F1677.1
G1 X42.10 Y34.60 Z0.25 E66.49 F1610.0
G1 X41.60 Y33.60 Z0.25 E66.53 F1542.9
G1 X42.10 Y32.60 Z0.25 E66.58 F1475.8
G1 X41.60 Y31.60 Z0.25 E66.63 F1408.7
G1 X42.10 Y30.60 Z0.25 E66.67 F1341.6
G1 X41.60 Y29.60 Z0.25 E66.72 F1274.6
G1 X42.10 Y28.60 Z0.25 E66.77 F1207.5
G1 X41.60 Y27.60 Z0.25 E66.81 F1140.4
G1 X42.10 Y26.60 Z0.25 E66.86 F1073.3
G1 X41.60 Y25.60 Z0.25 E66.91 F1006.2
G1 X42.10 Y24.60 Z0.25 E66.95 F939.1
G1 X41.60 Y23.60 Z0.25 E67.00 F872.1
G1 X42.10 Y22.60 Z0.25 E67.05 F805.0
G1 X41.60 Y21.60 Z0.25 E67.09 F737.9
G1 X42.10 Y20.60 Z0.25 E67.14 F670.8
G1 X41.60 Y19.60 Z0.25 E67.19 F603.7
G1 X42.10 Y18.60 Z0.25 E67.23 F536.7
G1 X41.60 Y17.60 Z0.25 E67.28 F469.6
G1 X42.10 Y16.60 Z0.25 E67.33 F402.5
G1 X41.60 Y15.60 Z0.25 E67.37 F335.4
G1 X42.10 Y14.60 Z0.25 E67.42 F268.3
G1 X41.60 Y13.60 Z0.25 E67.46 F201.2
G1 X42.10 Y12.60 Z0.25 E67.51 F134.2
G1 X41.60 Y11.60 Z0.25 E67.56 F67.1
M201 X1000 Y1000
M205 X20 Y20
M205 J0.3
G0 X46.60 Y11.60 Z0.25 E67.56 F5400.0
M593 X D0.35
M203 X500 Y500 ; maximum feedrates
M204 P10000 ; print acceleration
M201 X10000 Y10000 ; max acceleration
M205 X500.00 Y500.00 ; jerk limits very high
M205 J0.3 ; junction deviation maximum
G1 X47.10 Y12.60 Z0.25 E67.60 F67.1
G1 X46.60 Y13.60 Z0.25 E67.65 F134.2
G1 X47.10 Y14.60 Z0.25 E67.70 F201.2
G1 X46.60 Y15.60 Z0.25 E67.74 F268.3
G1 X47.10 Y16.60 Z0.25 E67.79 F335.4
G1 X46.60 Y17.60 Z0.25 E67.84 F402.5
G1 X47.10 Y18.60 Z0.25 E67.88 F469.6
G1 X46.60 Y19.60 Z0.25 E67.93 F536.7
G1 X47.10 Y20.60 Z0.25 E67.98 F603.7
G1 X46.60 Y21.60 Z0.25 E68.02 F670.8
G1 X47.10 Y22.60 Z0.25 E68.07 F737.9
G1 X46.60 Y23.60 Z0.25 E68.12 F805.0
G1 X47.10 Y24.60 Z0.25 E68.16 F872.1
G1 X46.60 Y25.60 Z0.25 E68.21 F939.1
G1 X47.10 Y26.60 Z0.25 E68.25 F1006.2
G1 X46.60 Y27.60 Z0.25 E68.30 F1073.3
G1 X47.10 Y28.60 Z0.25 E68.35 F1140.4
G1 X46.60 Y29.60 Z0.25 E68.39 F1207.5
G1 X47.10 Y30.60 Z0.25 E68.44 F1274.6
G1 X46.60 Y31.60 Z0.25 E68.49 F1341.6
G1 X47.10 Y32.60 Z0.25 E68.53 F1408.7
G1 X46.60 Y33.60 Z0.25 E68.58 F1475.8
G1 X47.10 Y34.60 Z0.25 E68.63 F1542.9
G1 X46.60 Y35.60 Z0.25 E68.67 F1610.0
G1 X47.10 Y36.60 Z0.25 E68.72 F1677.1
G1 X46.60 Y37.60 Z0.25 E68.77 F1744.1
G1 X47.10 Y38.60 Z0.25 E68.81 F1811.2
G1 X46.60 Y39.60 Z0.25 E68.86 F1878.3
G1 X47.10 Y40.60 Z0.25 E68.91 F1945.4
G1 X46.60 Y41.60 Z0.25 E68.95 F2012.5
G1 X47.10 Y42.60 Z0.25 E69.00 F2079.5
G1 X46.60 Y43.60 Z0.25 E69.05 F2146.6
G1 X47.10 Y44.60 Z0.25 E69.09 F2213.7
G1 X46.60 Y45.60 Z0.25 E69.14 F2280.8
G1 X47.10 Y46.60 Z0.25 E69.18 F2347.9
G1 X46.60 Y47.60 Z0.25 E69.23 F2415.0
G1 X47.10 Y48.60 Z0.25 E69.28 F2482.0
G1 X46.60 Y49.60 Z0.25 E69.32 F2549.1
G1 X47.10 Y50.60 Z0.25 E69.37 F2616.2
G1 X46.60 Y51.60 Z0.25 E69.42 F2683.3
G1 X47.10 Y52.60 Z0.25 E69.46 F2750.4
G1 X46.60 Y53.60 Z0.25 E69.51 F2817.4
G1 X47.10 Y54.60 Z0.25 E69.56 F2884.5
G1 X46.60 Y55.60 Z0.25 E69.60 F2951.6
G1 X47.10 Y56.60 Z0.25 E69.65 F3018.7
G1 X46.60 Y57.60 Z0.25 E69.70 F3085.8
G1 X47.10 Y58.60 Z0.25 E69.74 F3152.9
G1 X46.60 Y59.60 Z0.25 E69.79 F3219.9
G1 X47.10 Y60.60 Z0.25 E69.84 F3287.0
G1 X46.60 Y61.60 Z0.25 E69.88 F3354.1
G1 X47.10 Y62.60 Z0.25 E69.93 F3421.2
G1 X46.60 Y63.60 Z0.25 E69.97 F3488.3
G1 X47.10 Y64.60 Z0.25 E70.02 F3555.3
G1 X46.60 Y65.60 Z0.25 E70.07 F3622.4
G1 X47.10 Y66.60 Z0.25 E70.11 F3689.5
G1 X46.60 Y67.60 Z0.25 E70.16 F3756.6
G1 X47.10 Y68.60 Z0.25 E70.21 F3823.7
G1 X46.60 Y69.60 Z0.25 E70.25 F3890.8
G1 X47.10 Y70.60 Z0.25 E70.30 F3957.8
G1 X46.60 Y71.60 Z0.25 E70.35 F4024.9
G1 X47.10 Y72.60 Z0.25 E70.39 F4092.0
G1 X46.60 Y73.60 Z0.25 E70.44 F4159.1
G1 X47.10 Y74.60 Z0.25 E70.49 F4226.2
G1 X46.60 Y75.60 Z0.25 E70.53 F4293.3
G1 X47.10 Y76.60 Z0.25 E70.58 F4360.3
G1 X46.60 Y77.60 Z0.25 E70.63 F4427.4
G1 X47.10 Y78.60 Z0.25 E70.67 F4494.5
G1 X46.60 Y79.60 Z0.25 E70.72 F4561.6
G1 X47.10 Y80.60 Z0.25 E70.76 F4628.7
G1 X46.60 Y81.60 Z0.25 E70.81 F4695.7
G1 X47.10 Y82.60 Z0.25 E70.86 F4762.8
G1 X46.60 Y83.60 Z0.25 E70.90 F4829.9
G1 X47.10 Y84.60 Z0.25 E70.95 F4897.0
G1 X46.60 Y85.60 Z0.25 E71.00 F4964.1
G1 X47.10 Y86.60 Z0.25 E71.04 F5031.2
G1 X46.60 Y87.60 Z0.25 E71.09 F5098.2
G1 X47.10 Y88.60 Z0.25 E71.14 F5165.3
G1 X46.60 Y89.60 Z0.25 E71.18 F5232.4
G1 X47.10 Y90.60 Z0.25 E71.23 F5299.5
G1 X46.60 Y91.60 Z0.25 E71.28 F5366.6
G1 X47.10 Y92.60 Z0.25 E71.32 F5433.6
G1 X46.60 Y93.60 Z0.25 E71.37 F5500.7
G1 X47.10 Y94.60 Z0.25 E71.42 F5567.8
G1 X46.60 Y95.60 Z0.25 E71.46 F5634.9
G1 X47.10 Y96.60 Z0.25 E71.51 F5702.0
G1 X46.60 Y97.60 Z0.25 E71.56 F5769.1
G1 X47.10 Y98.60 Z0.25 E71.60 F5836.1
G1 X46.60 Y99.60 Z0.25 E71.65 F5903.2
G1 X47.10 Y100.60 Z0.25 E71.69 F5970.3
G1 X46.60 Y101.60 Z0.25 E71.74 F6037.4
G1 X47.10 Y102.60 Z0.25 E71.79 F6104.5
G1 X46.60 Y103.60 Z0.25 E71.83 F6171.5
G1 X47.10 Y104.60 Z0.25 E71.88 F6238.6
G1 X46.60 Y105.60 Z0.25 E71.93 F6305.7
G1 X47.10 Y106.60 Z0.25 E71.97 F6372.8
G1 X46.60 Y107.60 Z0.25 E72.02 F6439.9
G1 X47.10 Y108.60 Z0.25 E72.07 F6507.0
G1 X46.60 Y109.60 Z0.25 E72.11 F6574.0
G1 X47.10 Y110.60 Z0.25 E72.16 F6641.1
G1 X46.60 Y111.60 Z0.25 E72.21 F6708.2
G1 X47.10 Y112.60 Z0.25 E72.25 F6775.3
G1 X46.60 Y113.60 Z0.25 E72.30 F6842.4
G1 X47.10 Y114.60 Z0.25 E72.35 F6909.5
G1 X46.60 Y115.60 Z0.25 E72.39 F6976.5
G1 X47.10 Y116.60 Z0.25 E72.44 F7043.6
G1 X46.60 Y117.60 Z0.25 E72.48 F7110.7
G1 X47.10 Y118.60 Z0.25 E72.53 F7177.8
G1 X46.60 Y119.60 Z0.25 E72.58 F7244.9
G1 X47.10 Y120.60 Z0.25 E72.62 F7311.9
G1 X46.60 Y121.60 Z0.25 E72.67 F7379.0
G1 X47.10 Y122.60 Z0.25 E72.72 F7446.1
G1 X46.60 Y123.60 Z0.25 E72.76 F7513.2
G1 X47.10 Y124.60 Z0.25 E72.81 F7580.3
G1 X46.60 Y125.60 Z0.25 E72.86 F7647.4
G1 X47.10 Y126.60 Z0.25 E72.90 F7714.4
G1 X46.60 Y127.60 Z0.25 E72.95 F7781.5
G1 X47.10 Y128.60 Z0.25 E73.00 F7848.6
G1 X46.60 Y129.60 Z0.25 E73.04 F7915.7
G1 X47.10 Y130.60 Z0.25 E73.09 F7982.8
G1 X46.60 Y131.60 Z0.25 E73.14 F8049.8
G1 X47.10 Y132.60 Z0.25 E73.18 F8116.9
G1 X46.60 Y133.60 Z0.25 E73.23 F8184.0
G1 X47.10 Y134.60 Z0.25 E73.27 F8251.1
G1 X46.60 Y135.60 Z0.25 E73.32 F8318.2
G1 X47.10 Y136.60 Z0.25 E73.37 F8385.3
G1 X46.60 Y137.60 Z0.25 E73.41 F8452.3
G1 X47.10 Y138.60 Z0.25 E73.46 F8519.4
G1 X46.60 Y139.60 Z0.25 E73.51 F8586.5
G1 X47.10 Y140.60 Z0.25 E73.55 F8653.6
G1 X46.60 Y141.60 Z0.25 E73.60 F8720.7
G1 X47.10 Y142.60 Z0.25 E73.65 F8787.7
G1 X46.60 Y143.60 Z0.25 E73.69 F8854.8
G1 X47.10 Y144.60 Z0.25 E73.74 F8921.9
G1 X46.60 Y145.60 Z0.25 E73.79 F8989.0
G1 X47.10 Y146.60 Z0.25 E73.83 F9056.1
G1 X46.60 Y147.60 Z0.25 E73.88 F9123.2
G1 X47.10 Y148.60 Z0.25 E73.93 F9190.2
G1 X46.60 Y149.60 Z0.25 E73.97 F9257.3
G1 X47.10 Y150.60 Z0.25 E74.02 F9324.4
G1 X46.60 Y151.60 Z0.25 E74.07 F9391.5
G1 X47.10 Y152.60 Z0.25 E74.11 F9458.6
G1 X46.60 Y153.60 Z0.25 E74.16 F9525.6
G1 X47.10 Y154.60 Z0.25 E74.20 F9592.7
G1 X46.60 Y155.60 Z0.25 E74.25 F9659.8
G1 X47.10 Y156.60 Z0.25 E74.30 F9726.9
G1 X46.60 Y157.60 Z0.25 E74.34 F9794.0
G1 X47.10 Y158.60 Z0.25 E74.39 F9861.1
G1 X46.60 Y159.60 Z0.25 E74.44 F9928.1
G1 X47.10 Y160.60 Z0.25 E74.48 F9995.2
G1 X46.60 Y161.60 Z0.25 E74.53 F10062.3
G1 X47.10 Y162.60 Z0.25 E74.58 F10129.4
G1 X46.60 Y163.60 Z0.25 E74.62 F10196.5
G1 X47.10 Y164.60 Z0.25 E74.67 F10263.6
G1 X46.60 Y165.60 Z0.25 E74.72 F10330.6
G1 X47.10 Y166.60 Z0.25 E74.76 F10397.7
G1 X46.60 Y167.60 Z0.25 E74.81 F10464.8
G1 X47.10 Y168.60 Z0.25 E74.86 F10531.9
G1 X46.60 Y169.60 Z0.25 E74.90 F10599.0
G1 X47.10 Y170.60 Z0.25 E74.95 F10666.0
G1 X46.60 Y171.60 Z0.25 E74.99 F10733.1
M201 X1000 Y1000
M205 X20 Y20
M205 J0.3
G1 X46.60 Y184.40 Z0.25 E75.53

G0 X51.60 Y184.40 Z0.25 E75.53 F5400.0
M593 X D0.40
G1 X51.60 Y171.60 Z0.25 E76.06 F10733.1
M203 X500 Y500 ; maximum feedrates
M204 P10000 ; print acceleration
M201 X10000 Y10000 ; max acceleration
M205 X500.00 Y500.00 ; jerk limits very high
M205 J0.3 ; junction deviation maximum
G1 X52.10 Y170.60 Z0.25 E76.11 F10733.1
G1 X51.60 Y169.60 Z0.25 E76.15 F10666.0
G1 X52.10 Y168.60 Z0.25 E76.20 F10599.0
G1 X51.60 Y167.60 Z0.25 E76.25 F10531.9
G1 X52.10 Y166.60 Z0.25 E76.29 F10464.8
G1 X51.60 Y165.60 Z0.25 E76.34 F10397.7
G1 X52.10 Y164.60 Z0.25 E76.38 F10330.6
G1 X51.60 Y163.60 Z0.25 E76.43 F10263.6
G1 X52.10 Y162.60 Z0.25 E76.48 F10196.5
G1 X51.60 Y161.60 Z0.25 E76.52 F10129.4
G1 X52.10 Y160.60 Z0.25 E76.57 F10062.3
G1 X51.60 Y159.60 Z0.25 E76.62 F9995.2
G1 X52.10 Y158.60 Z0.25 E76.66 F9928.1
G1 X51.60 Y157.60 Z0.25 E76.71 F9861.1
G1 X52.10 Y156.60 Z0.25 E76.76 F9794.0
G1 X51.60 Y155.60 Z0.25 E76.80 F9726.9
G1 X52.10 Y154.60 Z0.25 E76.85 F9659.8
G1 X51.60 Y153.60 Z0.25 E76.90 F9592.7
G1 X52.10 Y152.60 Z0.25 E76.94 F9525.6
G1 X51.60 Y151.60 Z0.25 E76.99 F9458.6
G1 X52.10 Y150.60 Z0.25 E77.04 F9391.5
G1 X51.60 Y149.60 Z0.25 E77.08 F9324.4
G1 X52.10 Y148.60 Z0.25 E77.13 F9257.3
G1 X51.60 Y147.60 Z0.25 E77.17 F9190.2
G1 X52.10 Y146.60 Z0.25 E77.22 F9123.2
G1 X51.60 Y145.60 Z0.25 E77.27 F9056.1
G1 X52.10 Y144.60 Z0.25 E77.31 F8989.0
G1 X51.60 Y143.60 Z0.25 E77.36 F8921.9
G1 X52.10 Y142.60 Z0.25 E77.41 F8854.8
G1 X51.60 Y141.60 Z0.25 E77.45 F8787.7
G1 X52.10 Y140.60 Z0.25 E77.50 F8720.7
G1 X51.60 Y139.60 Z0.25 E77.55 F8653.6
G1 X52.10 Y138.60 Z0.25 E77.59 F8586.5
G1 X51.60 Y137.60 Z0.25 E77.64 F8519.4
G1 X52.10 Y136.60 Z0.25 E77.69 F8452.3
G1 X51.60 Y135.60 Z0.25 E77.73 F8385.3
G1 X52.10 Y134.60 Z0.25 E77.78 F8318.2
G1 X51.60 Y133.60 Z0.25 E77.83 F8251.1
G1 X52.10 Y132.60 Z0.25 E77.87 F8184.0
G1 X51.60 Y131.60 Z0.25 E77.92 F8116.9
G1 X52.10 Y130.60 Z0.25 E77.96 F8049.8
G1 X51.60 Y129.60 Z0.25 E78.01 F7982.8
G1 X52.10 Y128.60 Z0.25 E78.06 F7915.7
G1 X51.60 Y127.60 Z0.25 E78.10 F7848.6
G1 X52.10 Y126.60 Z0.25 E78.15 F7781.5
G1 X51.60 Y125.60 Z0.25 E78.20 F7714.4
G1 X52.10 Y124.60 Z0.25 E78.24 F7647.4
G1 X51.60 Y123.60 Z0.25 E78.29 F7580.3
G1 X52.10 Y122.60 Z0.25 E78.34 F7513.2
G1 X51.60 Y121.60 Z0.25 E78.38 F7446.1
G1 X52.10 Y120.60 Z0.25 E78.43 F7379.0
G1 X51.60 Y119.60 Z0.25 E78.48 F7311.9
G1 X52.10 Y118.60 Z0.25 E78.52 F7244.9
G1 X51.60 Y117.60 Z0.25 E78.57 F7177.8
G1 X52.10 Y116.60 Z0.25 E78.62 F7110.7
G1 X51.60 Y115.60 Z0.25 E78.66 F7043.6
G1 X52.10 Y114.60 Z0.25 E78.71 F6976.5
G1 X51.60 Y113.60 Z0.25 E78.76 F6909.5
G1 X52.10 Y112.60 Z0.25 E78.80 F6842.4
G1 X51.60 Y111.60 Z0.25 E78.85 F6775.3
G1 X52.10 Y110.60 Z0.25 E78.89 F6708.2
G1 X51.60 Y109.60 Z0.25 E78.94 F6641.1
G1 X52.10 Y108.60 Z0.25 E78.99 F6574.0
G1 X51.60 Y107.60 Z0.25 E79.03 F6507.0
G1 X52.10 Y106.60 Z0.25 E79.08 F6439.9
G1 X51.60 Y105.60 Z0.25 E79.13 F6372.8
G1 X52.10 Y104.60 Z0.25 E79.17 F6305.7
G1 X51.60 Y103.60 Z0.25 E79.22 F6238.6
G1 X52.10 Y102.60 Z0.25 E79.27 F6171.5
G1 X51.60 Y101.60 Z0.25 E79.31 F6104.5
G1 X52.10 Y100.60 Z0.25 E79.36 F6037.4
G1 X51.60 Y99.60 Z0.25 E79.41 F5970.3
G1 X52.10 Y98.60 Z0.25 E79.45 F5903.2
G1 X51.60 Y97.60 Z0.25 E79.50 F5836.1
G1 X52.10 Y96.60 Z0.25 E79.55 F5769.1
G1 X51.60 Y95.60 Z0.25 E79.59 F5702.0
G1 X52.10 Y94.60 Z0.25 E79.64 F5634.9
G1 X51.60 Y93.60 Z0.25 E79.68 F5567.8
G1 X52.10 Y92.60 Z0.25 E79.73 F5500.7
G1 X51.60 Y91.60 Z0.25 E79.78 F5433.6
G1 X52.10 Y90.60 Z0.25 E79.82 F5366.6
G1 X51.60 Y89.60 Z0.25 E79.87 F5299.5
G1 X52.10 Y88.60 Z0.25 E79.92 F5232.4
G1 X51.60 Y87.60 Z0.25 E79.96 F5165.3
G1 X52.10 Y86.60 Z0.25 E80.01 F5098.2
G1 X51.60 Y85.60 Z0.25 E80.06 F5031.2
G1 X52.10 Y84.60 Z0.25 E80.10 F4964.1
G1 X51.60 Y83.60 Z0.25 E80.15 F4897.0
G1 X52.10 Y82.60 Z0.25 E80.20 F4829.9
G1 X51.60 Y81.60 Z0.25 E80.24 F4762.8
G1 X52.10 Y80.60 Z0.25 E80.29 F4695.7
G1 X51.60 Y79.60 Z0.25 E80.34 F4628.7
G1 X52.10 Y78.60 Z0.25 E80.38 F4561.6
G1 X51.60 Y77.60 Z0.25 E80.43 F4494.5
G1 X52.10 Y76.60 Z0.25 E80.47 F4427.4
G1 X51.60 Y75.60 Z0.25 E80.52 F4360.3
G1 X52.10 Y74.60 Z0.25 E80.57 F4293.3
G1 X51.60 Y73.60 Z0.25 E80.61 F4226.2
G1 X52.10 Y72.60 Z0.25 E80.66 F4159.1
G1 X51.60 Y71.60 Z0.25 E80.71 F4092.0
G1 X52.10 Y70.60 Z0.25 E80.75 F4024.9
G1 X51.60 Y69.60 Z0.25 E80.80 F3957.8
G1 X52.10 Y68.60 Z0.25 E80.85 F3890.8
G1 X51.60 Y67.60 Z0.25 E80.89 F3823.7
G1 X52.10 Y66.60 Z0.25 E80.94 F3756.6
G1 X51.60 Y65.60 Z0.25 E80.99 F3689.5
G1 X52.10 Y64.60 Z0.25 E81.03 F3622.4
G1 X51.60 Y63.60 Z0.25 E81.08 F3555.3
G1 X52.10 Y62.60 Z0.25 E81.13 F3488.3
G1 X51.60 Y61.60 Z0.25 E81.17 F3421.2
G1 X52.10 Y60.60 Z0.25 E81.22 F3354.1
G1 X51.60 Y59.60 Z0.25 E81.27 F3287.0
G1 X52.10 Y58.60 Z0.25 E81.31 F3219.9
G1 X51.60 Y57.60 Z0.25 E81.36 F3152.9
G1 X52.10 Y56.60 Z0.25 E81.40 F3085.8
G1 X51.60 Y55.60 Z0.25 E81.45 F3018.7
G1 X52.10 Y54.60 Z0.25 E81.50 F2951.6
G1 X51.60 Y53.60 Z0.25 E81.54 F2884.5
G1 X52.10 Y52.60 Z0.25 E81.59 F2817.4
G1 X51.60 Y51.60 Z0.25 E81.64 F2750.4
G1 X52.10 Y50.60 Z0.25 E81.68 F2683.3
G1 X51.60 Y49.60 Z0.25 E81.73 F2616.2
G1 X52.10 Y48.60 Z0.25 E81.78 F2549.1
G1 X51.60 Y47.60 Z0.25 E81.82 F2482.0
G1 X52.10 Y46.60 Z0.25 E81.87 F2415.0
G1 X51.60 Y45.60 Z0.25 E81.92 F2347.9
G1 X52.10 Y44.60 Z0.25 E81.96 F2280.8
G1 X51.60 Y43.60 Z0.25 E82.01 F2213.7
G1 X52.10 Y42.60 Z0.25 E82.06 F2146.6
G1 X51.60 Y41.60 Z0.25 E82.10 F2079.5
G1 X52.10 Y40.60 Z0.25 E82.15 F2012.5
G1 X51.60 Y39.60 Z0.25 E82.19 F1945.4
G1 X52.10 Y38.60 Z0.25 E82.24 F1878.3
G1 X51.60 Y37.60 Z0.25 E82.29 F1811.2
G1 X52.10 Y36.60 Z0.25 E82.33 F1744.1
G1 X51.60 Y35.60 Z0.25 E82.38 F1677.1
G1 X52.10 Y34.60 Z0.25 E82.43 F1610.0
G1 X51.60 Y33.60 Z0.25 E82.47 F1542.9
G1 X52.10 Y32.60 Z0.25 E82.52 F1475.8
G1 X51.60 Y31.60 Z0.25 E82.57 F1408.7
G1 X52.10 Y30.60 Z0.25 E82.61 F1341.6
G1 X51.60 Y29.60 Z0.25 E82.66 F1274.6
G1 X52.10 Y28.60 Z0.25 E82.71 F1207.5
G1 X51.60 Y27.60 Z0.25 E82.75 F1140.4
G1 X52.10 Y26.60 Z0.25 E82.80 F1073.3
G1 X51.60 Y25.60 Z0.25 E82.85 F1006.2
G1 X52.10 Y24.60 Z0.25 E82.89 F939.1
G1 X51.60 Y23.60 Z0.25 E82.94 F872.1
G1 X52.10 Y22.60 Z0.25 E82.98 F805.0
G1 X51.60 Y21.60 Z0.25 E83.03 F737.9
G1 X52.10 Y20.60 Z0.25 E83.08 F670.8
G1 X51.60 Y19.60 Z0.25 E83.12 F603.7
G1 X52.10 Y18.60 Z0.25 E83.17 F536.7
G1 X51.60 Y17.60 Z0.25 E83.22 F469.6
G1 X52.10 Y16.60 Z0.25 E83.26 F402.5
G1 X51.60 Y15.60 Z0.25 E83.31 F335.4
G1 X52.10 Y14.60 Z0.25 E83.36 F268.3
G1 X51.60 Y13.60 Z0.25 E83.40 F201.2
G1 X52.10 Y12.60 Z0.25 E83.45 F134.2
G1 X51.60 Y11.60 Z0.25 E83.50 F67.1
M201 X1000 Y1000
M205 X20 Y20
M205 J0.3
G0 X56.60 Y11.60 Z0.25 E83.50 F5400.0
M593 X D0.45
M203 X500 Y500 ; maximum feedrates
M204 P10000 ; print acceleration
M201 X10000 Y10000 ; max acceleration
M205 X500.00 Y500.00 ; jerk limits very high
M205 J0.3 ; junction deviation maximum
G1 X57.10 Y12.60 Z0.25 E83.54 F67.1
G1 X56.60 Y13.60 Z0.25 E83.59 F134.2
G1 X57.10 Y14.60 Z0.25 E83.64 F201.2
G1 X56.60 Y15.60 Z0.25 E83.68 F268.3
G1 X57.10 Y16.60 Z0.25 E83.73 F335.4
G1 X56.60 Y17.60 Z0.25 E83.78 F402.5
G1 X57.10 Y18.60 Z0.25 E83.82 F469.6
G1 X56.60 Y19.60 Z0.25 E83.87 F536.7
G1 X57.10 Y20.60 Z0.25 E83.91 F603.7
G1 X56.60 Y21.60 Z0.25 E83.96 F670.8
G1 X57.10 Y22.60 Z0.25 E84.01 F737.9
G1 X56.60 Y23.60 Z0.25 E84.05 F805.0
G1 X57.10 Y24.60 Z0.25 E84.10 F872.1
G1 X56.60 Y25.60 Z0.25 E84.15 F939.1
G1 X57.10 Y26.60 Z0.25 E84.19 F1006.2
G1 X56.60 Y27.60 Z0.25 E84.24 F1073.3
G1 X57.10 Y28.60 Z0.25 E84.29 F1140.4
G1 X56.60 Y29.60 Z0.25 E84.33 F1207.5
G1 X57.10 Y30.60 Z0.25 E84.38 F1274.6
G1 X56.60 Y31.60 Z0.25 E84.43 F1341.6
G1 X57.10 Y32.60 Z0.25 E84.47 F1408.7
G1 X56.60 Y33.60 Z0.25 E84.52 F1475.8
G1 X57.10 Y34.60 Z0.25 E84.57 F1542.9
G1 X56.60 Y35.60 Z0.25 E84.61 F1610.0
G1 X57.10 Y36.60 Z0.25 E84.66 F1677.1
G1 X56.60 Y37.60 Z0.25 E84.70 F1744.1
G1 X57.10 Y38.60 Z0.25 E84.75 F1811.2
G1 X56.60 Y39.60 Z0.25 E84.80 F1878.3
G1 X57.10 Y40.60 Z0.25 E84.84 F1945.4
G1 X56.60 Y41.60 Z0.25 E84.89 F2012.5
G1 X57.10 Y42.60 Z0.25 E84.94 F2079.5
G1 X56.60 Y43.60 Z0.25 E84.98 F2146.6
G1 X57.10 Y44.60 Z0.25 E85.03 F2213.7
G1 X56.60 Y45.60 Z0.25 E85.08 F2280.8
G1 X57.10 Y46.60 Z0.25 E85.12 F2347.9
G1 X56.60 Y47.60 Z0.25 E85.17 F2415.0
G1 X57.10 Y48.60 Z0.25 E85.22 F2482.0
G1 X56.60 Y49.60 Z0.25 E85.26 F2549.1
G1 X57.10 Y50.60 Z0.25 E85.31 F2616.2
G1 X56.60 Y51.60 Z0.25 E85.36 F2683.3
G1 X57.10 Y52.60 Z0.25 E85.40 F2750.4
G1 X56.60 Y53.60 Z0.25 E85.45 F2817.4
G1 X57.10 Y54.60 Z0.25 E85.50 F2884.5
G1 X56.60 Y55.60 Z0.25 E85.54 F2951.6
G1 X57.10 Y56.60 Z0.25 E85.59 F3018.7
G1 X56.60 Y57.60 Z0.25 E85.63 F3085.8
G1 X57.10 Y58.60 Z0.25 E85.68 F3152.9
G1 X56.60 Y59.60 Z0.25 E85.73 F3219.9
G1 X57.10 Y60.60 Z0.25 E85.77 F3287.0
G1 X56.60 Y61.60 Z0.25 E85.82 F3354.1
G1 X57.10 Y62.60 Z0.25 E85.87 F3421.2
G1 X56.60 Y63.60 Z0.25 E85.91 F3488.3
G1 X57.10 Y64.60 Z0.25 E85.96 F3555.3
G1 X56.60 Y65.60 Z0.25 E86.01 F3622.4
G1 X57.10 Y66.60 Z0.25 E86.05 F3689.5
G1 X56.60 Y67.60 Z0.25 E86.10 F3756.6
G1 X57.10 Y68.60 Z0.25 E86.15 F3823.7
G1 X56.60 Y69.60 Z0.25 E86.19 F3890.8
G1 X57.10 Y70.60 Z0.25 E86.24 F3957.8
G1 X56.60 Y71.60 Z0.25 E86.29 F4024.9
G1 X57.10 Y72.60 Z0.25 E86.33 F4092.0
G1 X56.60 Y73.60 Z0.25 E86.38 F4159.1
G1 X57.10 Y74.60 Z0.25 E86.42 F4226.2
G1 X56.60 Y75.60 Z0.25 E86.47 F4293.3
G1 X57.10 Y76.60 Z0.25 E86.52 F4360.3
G1 X56.60 Y77.60 Z0.25 E86.56 F4427.4
G1 X57.10 Y78.60 Z0.25 E86.61 F4494.5
G1 X56.60 Y79.60 Z0.25 E86.66 F4561.6
G1 X57.10 Y80.60 Z0.25 E86.70 F4628.7
G1 X56.60 Y81.60 Z0.25 E86.75 F4695.7
G1 X57.10 Y82.60 Z0.25 E86.80 F4762.8
G1 X56.60 Y83.60 Z0.25 E86.84 F4829.9
G1 X57.10 Y84.60 Z0.25 E86.89 F4897.0
G1 X56.60 Y85.60 Z0.25 E86.94 F4964.1
G1 X57.10 Y86.60 Z0.25 E86.98 F5031.2
G1 X56.60 Y87.60 Z0.25 E87.03 F5098.2
G1 X57.10 Y88.60 Z0.25 E87.08 F5165.3
G1 X56.60 Y89.60 Z0.25 E87.12 F5232.4
G1 X57.10 Y90.60 Z0.25 E87.17 F5299.5
G1 X56.60 Y91.60 Z0.25 E87.21 F5366.6
G1 X57.10 Y92.60 Z0.25 E87.26 F5433.6
G1 X56.60 Y93.60 Z0.25 E87.31 F5500.7
G1 X57.10 Y94.60 Z0.25 E87.35 F5567.8
G1 X56.60 Y95.60 Z0.25 E87.40 F5634.9
G1 X57.10 Y96.60 Z0.25 E87.45 F5702.0
G1 X56.60 Y97.60 Z0.25 E87.49 F5769.1
G1 X57.10 Y98.60 Z0.25 E87.54 F5836.1
G1 X56.60 Y99.60 Z0.25 E87.59 F5903.2
G1 X57.10 Y100.60 Z0.25 E87.63 F5970.3
G1 X56.60 Y101.60 Z0.25 E87.68 F6037.4
G1 X57.10 Y102.60 Z0.25 E87.73 F6104.5
G1 X56.60 Y103.60 Z0.25 E87.77 F6171.5
G1 X57.10 Y104.60 Z0.25 E87.82 F6238.6
G1 X56.60 Y105.60 Z0.25 E87.87 F6305.7
G1 X57.10 Y106.60 Z0.25 E87.91 F6372.8
G1 X56.60 Y107.60 Z0.25 E87.96 F6439.9
G1 X57.10 Y108.60 Z0.25 E88.01 F6507.0
G1 X56.60 Y109.60 Z0.25 E88.05 F6574.0
G1 X57.10 Y110.60 Z0.25 E88.10 F6641.1
G1 X56.60 Y111.60 Z0.25 E88.14 F6708.2
G1 X57.10 Y112.60 Z0.25 E88.19 F6775.3
G1 X56.60 Y113.60 Z0.25 E88.24 F6842.4
G1 X57.10 Y114.60 Z0.25 E88.28 F6909.5
G1 X56.60 Y115.60 Z0.25 E88.33 F6976.5
G1 X57.10 Y116.60 Z0.25 E88.38 F7043.6
G1 X56.60 Y117.60 Z0.25 E88.42 F7110.7
G1 X57.10 Y118.60 Z0.25 E88.47 F7177.8
G1 X56.60 Y119.60 Z0.25 E88.52 F7244.9
G1 X57.10 Y120.60 Z0.25 E88.56 F7311.9
G1 X56.60 Y121.60 Z0.25 E88.61 F7379.0
G1 X57.10 Y122.60 Z0.25 E88.66 F7446.1
G1 X56.60 Y123.60 Z0.25 E88.70 F7513.2
G1 X57.10 Y124.60 Z0.25 E88.75 F7580.3
G1 X56.60 Y125.60 Z0.25 E88.80 F7647.4
G1 X57.10 Y126.60 Z0.25 E88.84 F7714.4
G1 X56.60 Y127.60 Z0.25 E88.89 F7781.5
G1 X57.10 Y128.60 Z0.25 E88.93 F7848.6
G1 X56.60 Y129.60 Z0.25 E88.98 F7915.7
G1 X57.10 Y130.60 Z0.25 E89.03 F7982.8
G1 X56.60 Y131.60 Z0.25 E89.07 F8049.8
G1 X57.10 Y132.60 Z0.25 E89.12 F8116.9
G1 X56.60 Y133.60 Z0.25 E89.17 F8184.0
G1 X57.10 Y134.60 Z0.25 E89.21 F8251.1
G1 X56.60 Y135.60 Z0.25 E89.26 F8318.2
G1 X57.10 Y136.60 Z0.25 E89.31 F8385.3
G1 X56.60 Y137.60 Z0.25 E89.35 F8452.3
G1 X57.10 Y138.60 Z0.25 E89.40 F8519.4
G1 X56.60 Y139.60 Z0.25 E89.45 F8586.5
G1 X57.10 Y140.60 Z0.25 E89.49 F8653.6
G1 X56.60 Y141.60 Z0.25 E89.54 F8720.7
G1 X57.10 Y142.60 Z0.25 E89.59 F8787.7
G1 X56.60 Y143.60 Z0.25 E89.63 F8854.8
G1 X57.10 Y144.60 Z0.25 E89.68 F8921.9
G1 X56.60 Y145.60 Z0.25 E89.72 F8989.0
G1 X57.10 Y146.60 Z0.25 E89.77 F9056.1
G1 X56.60 Y147.60 Z0.25 E89.82 F9123.2
G1 X57.10 Y148.60 Z0.25 E89.86 F9190.2
G1 X56.60 Y149.60 Z0.25 E89.91 F9257.3
G1 X57.10 Y150.60 Z0.25 E89.96 F9324.4
G1 X56.60 Y151.60 Z0.25 E90.00 F9391.5
G1 X57.10 Y152.60 Z0.25 E90.05 F9458.6
G1 X56.60 Y153.60 Z0.25 E90.10 F9525.6
G1 X57.10 Y154.60 Z0.25 E90.14 F9592.7
G1 X56.60 Y155.60 Z0.25 E90.19 F9659.8
G1 X57.10 Y156.60 Z0.25 E90.24 F9726.9
G1 X56.60 Y157.60 Z0.25 E90.28 F9794.0
G1 X57.10 Y158.60 Z0.25 E90.33 F9861.1
G1 X56.60 Y159.60 Z0.25 E90.38 F9928.1
G1 X57.10 Y160.60 Z0.25 E90.42 F9995.2
G1 X56.60 Y161.60 Z0.25 E90.47 F10062.3
G1 X57.10 Y162.60 Z0.25 E90.52 F10129.4
G1 X56.60 Y163.60 Z0.25 E90.56 F10196.5
G1 X57.10 Y164.60 Z0.25 E90.61 F10263.6
G1 X56.60 Y165.60 Z0.25 E90.65 F10330.6
G1 X57.10 Y166.60 Z0.25 E90.70 F10397.7
G1 X56.60 Y167.60 Z0.25 E90.75 F10464.8
G1 X57.10 Y168.60 Z0.25 E90.79 F10531.9
G1 X56.60 Y169.60 Z0.25 E90.84 F10599.0
G1 X57.10 Y170.60 Z0.25 E90.89 F10666.0
G1 X56.60 Y171.60 Z0.25 E90.93 F10733.1
M201 X1000 Y1000
M205 X20 Y20
M205 J0.3
G1 X56.60 Y184.40 Z0.25 E91.47

G0 X61.60 Y184.40 Z0.25 E91.47 F5400.0
M593 X D0.50
G1 X61.60 Y171.60 Z0.25 E92.00 F10733.1
M203 X500 Y500 ; maximum feedrates
M204 P10000 ; print acceleration
M201 X10000 Y10000 ; max acceleration
M205 X500.00 Y500.00 ; jerk limits very high
M205 J0.3 ; junction deviation maximum
G1 X62.10 Y170.60 Z0.25 E92.04 F10733.1
G1 X61.60 Y169.60 Z0.25 E92.09 F10666.0
G1 X62.10 Y168.60 Z0.25 E92.14 F10599.0
G1 X61.60 Y167.60 Z0.25 E92.18 F10531.9
G1 X62.10 Y166.60 Z0.25 E92.23 F10464.8
G1 X61.60 Y165.60 Z0.25 E92.28 F10397.7
G1 X62.10 Y164.60 Z0.25 E92.32 F10330.6
G1 X61.60 Y163.60 Z0.25 E92.37 F10263.6
G1 X62.10 Y162.60 Z0.25 E92.42 F10196.5
G1 X61.60 Y161.60 Z0.25 E92.46 F10129.4
G1 X62.10 Y160.60 Z0.25 E92.51 F10062.3
G1 X61.60 Y159.60 Z0.25 E92.56 F9995.2
G1 X62.10 Y158.60 Z0.25 E92.60 F9928.1
G1 X61.60 Y157.60 Z0.25 E92.65 F9861.1
G1 X62.10 Y156.60 Z0.25 E92.70 F9794.0
G1 X61.60 Y155.60 Z0.25 E92.74 F9726.9
G1 X62.10 Y154.60 Z0.25 E92.79 F9659.8
G1 X61.60 Y153.60 Z0.25 E92.83 F9592.7
G1 X62.10 Y152.60 Z0.25 E92.88 F9525.6
G1 X61.60 Y151.60 Z0.25 E92.93 F9458.6
G1 X62.10 Y150.60 Z0.25 E92.97 F9391.5
G1 X61.60 Y149.60 Z0.25 E93.02 F9324.4
G1 X62.10 Y148.60 Z0.25 E93.07 F9257.3
G1 X61.60 Y147.60 Z0.25 E93.11 F9190.2
G1 X62.10 Y146.60 Z0.25 E93.16 F9123.2
G1 X61.60 Y145.60 Z0.25 E93.21 F9056.1
G1 X62.10 Y144.60 Z0.25 E93.25 F8989.0
G1 X61.60 Y143.60 Z0.25 E93.30 F8921.9
G1 X62.10 Y142.60 Z0.25 E93.35 F8854.8
G1 X61.60 Y141.60 Z0.25 E93.39 F8787.7
G1 X62.10 Y140.60 Z0.25 E93.44 F8720.7
G1 X61.60 Y139.60 Z0.25 E93.49 F8653.6
G1 X62.10 Y138.60 Z0.25 E93.53 F8586.5
G1 X61.60 Y137.60 Z0.25 E93.58 F8519.4
G1 X62.10 Y136.60 Z0.25 E93.62 F8452.3
G1 X61.60 Y135.60 Z0.25 E93.67 F8385.3
G1 X62.10 Y134.60 Z0.25 E93.72 F8318.2
G1 X61.60 Y133.60 Z0.25 E93.76 F8251.1
G1 X62.10 Y132.60 Z0.25 E93.81 F8184.0
G1 X61.60 Y131.60 Z0.25 E93.86 F8116.9
G1 X62.10 Y130.60 Z0.25 E93.90 F8049.8
G1 X61.60 Y129.60 Z0.25 E93.95 F7982.8
G1 X62.10 Y128.60 Z0.25 E94.00 F7915.7
G1 X61.60 Y127.60 Z0.25 E94.04 F7848.6
G1 X62.10 Y126.60 Z0.25 E94.09 F7781.5
G1 X61.60 Y125.60 Z0.25 E94.14 F7714.4
G1 X62.10 Y124.60 Z0.25 E94.18 F7647.4
G1 X61.60 Y123.60 Z0.25 E94.23 F7580.3
G1 X62.10 Y122.60 Z0.25 E94.28 F7513.2
G1 X61.60 Y121.60 Z0.25 E94.32 F7446.1
G1 X62.10 Y120.60 Z0.25 E94.37 F7379.0
G1 X61.60 Y119.60 Z0.25 E94.41 F7311.9
G1 X62.10 Y118.60 Z0.25 E94.46 F7244.9
G1 X61.60 Y117.60 Z0.25 E94.51 F7177.8
G1 X62.10 Y116.60 Z0.25 E94.55 F7110.7
G1 X61.60 Y115.60 Z0.25 E94.60 F7043.6
G1 X62.10 Y114.60 Z0.25 E94.65 F6976.5
G1 X61.60 Y113.60 Z0.25 E94.69 F6909.5
G1 X62.10 Y112.60 Z0.25 E94.74 F6842.4
G1 X61.60 Y111.60 Z0.25 E94.79 F6775.3
G1 X62.10 Y110.60 Z0.25 E94.83 F6708.2
G1 X61.60 Y109.60 Z0.25 E94.88 F6641.1
G1 X62.10 Y108.60 Z0.25 E94.93 F6574.0
G1 X61.60 Y107.60 Z0.25 E94.97 F6507.0
G1 X62.10 Y106.60 Z0.25 E95.02 F6439.9
G1 X61.60 Y105.60 Z0.25 E95.07 F6372.8
G1 X62.10 Y104.60 Z0.25 E95.11 F6305.7
G1 X61.60 Y103.60 Z0.25 E95.16 F6238.6
G1 X62.10 Y102.60 Z0.25 E95.21 F6171.5
G1 X61.60 Y101.60 Z0.25 E95.25 F6104.5
G1 X62.10 Y100.60 Z0.25 E95.30 F6037.4
G1 X61.60 Y99.60 Z0.25 E95.34 F5970.3
G1 X62.10 Y98.60 Z0.25 E95.39 F5903.2
G1 X61.60 Y97.60 Z0.25 E95.44 F5836.1
G1 X62.10 Y96.60 Z0.25 E95.48 F5769.1
G1 X61.60 Y95.60 Z0.25 E95.53 F5702.0
G1 X62.10 Y94.60 Z0.25 E95.58 F5634.9
G1 X61.60 Y93.60 Z0.25 E95.62 F5567.8
G1 X62.10 Y92.60 Z0.25 E95.67 F5500.7
G1 X61.60 Y91.60 Z0.25 E95.72 F5433.6
G1 X62.10 Y90.60 Z0.25 E95.76 F5366.6
G1 X61.60 Y89.60 Z0.25 E95.81 F5299.5
G1 X62.10 Y88.60 Z0.25 E95.86 F5232.4
G1 X61.60 Y87.60 Z0.25 E95.90 F5165.3
G1 X62.10 Y86.60 Z0.25 E95.95 F5098.2
G1 X61.60 Y85.60 Z0.25 E96.00 F5031.2
G1 X62.10 Y84.60 Z0.25 E96.04 F4964.1
G1 X61.60 Y83.60 Z0.25 E96.09 F4897.0
G1 X62.10 Y82.60 Z0.25 E96.13 F4829.9
G1 X61.60 Y81.60 Z0.25 E96.18 F4762.8
G1 X62.10 Y80.60 Z0.25 E96.23 F4695.7
G1 X61.60 Y79.60 Z0.25 E96.27 F4628.7
G1 X62.10 Y78.60 Z0.25 E96.32 F4561.6
G1 X61.60 Y77.60 Z0.25 E96.37 F4494.5
G1 X62.10 Y76.60 Z0.25 E96.41 F4427.4
G1 X61.60 Y75.60 Z0.25 E96.46 F4360.3
G1 X62.10 Y74.60 Z0.25 E96.51 F4293.3
G1 X61.60 Y73.60 Z0.25 E96.55 F4226.2
G1 X62.10 Y72.60 Z0.25 E96.60 F4159.1
G1 X61.60 Y71.60 Z0.25 E96.65 F4092.0
G1 X62.10 Y70.60 Z0.25 E96.69 F4024.9
G1 X61.60 Y69.60 Z0.25 E96.74 F3957.8
G1 X62.10 Y68.60 Z0.25 E96.79 F3890.8
G1 X61.60 Y67.60 Z0.25 E96.83 F3823.7
G1 X62.10 Y66.60 Z0.25 E96.88 F3756.6
G1 X61.60 Y65.60 Z0.25 E96.92 F3689.5
G1 X62.10 Y64.60 Z0.25 E96.97 F3622.4
G1 X61.60 Y63.60 Z0.25 E97.02 F3555.3
G1 X62.10 Y62.60 Z0.25 E97.06 F3488.3
G1 X61.60 Y61.60 Z0.25 E97.11 F3421.2
G1 X62.10 Y60.60 Z0.25 E97.16 F3354.1
G1 X61.60 Y59.60 Z0.25 E97.20 F3287.0
G1 X62.10 Y58.60 Z0.25 E97.25 F3219.9
G1 X61.60 Y57.60 Z0.25 E97.30 F3152.9
G1 X62.10 Y56.60 Z0.25 E97.34 F3085.8
G1 X61.60 Y55.60 Z0.25 E97.39 F3018.7
G1 X62.10 Y54.60 Z0.25 E97.44 F2951.6
G1 X61.60 Y53.60 Z0.25 E97.48 F2884.5
G1 X62.10 Y52.60 Z0.25 E97.53 F2817.4
G1 X61.60 Y51.60 Z0.25 E97.58 F2750.4
G1 X62.10 Y50.60 Z0.25 E97.62 F2683.3
G1 X61.60 Y49.60 Z0.25 E97.67 F2616.2
G1 X62.10 Y48.60 Z0.25 E97.72 F2549.1
G1 X61.60 Y47.60 Z0.25 E97.76 F2482.0
G1 X62.10 Y46.60 Z0.25 E97.81 F2415.0
G1 X61.60 Y45.60 Z0.25 E97.85 F2347.9
G1 X62.10 Y44.60 Z0.25 E97.90 F2280.8
G1 X61.60 Y43.60 Z0.25 E97.95 F2213.7
G1 X62.10 Y42.60 Z0.25 E97.99 F2146.6
G1 X61.60 Y41.60 Z0.25 E98.04 F2079.5
G1 X62.10 Y40.60 Z0.25 E98.09 F2012.5
G1 X61.60 Y39.60 Z0.25 E98.13 F1945.4
G1 X62.10 Y38.60 Z0.25 E98.18 F1878.3
G1 X61.60 Y37.60 Z0.25 E98.23 F1811.2
G1 X62.10 Y36.60 Z0.25 E98.27 F1744.1
G1 X61.60 Y35.60 Z0.25 E98.32 F1677.1
G1 X62.10 Y34.60 Z0.25 E98.37 F1610.0
G1 X61.60 Y33.60 Z0.25 E98.41 F1542.9
G1 X62.10 Y32.60 Z0.25 E98.46 F1475.8
G1 X61.60 Y31.60 Z0.25 E98.51 F1408.7
G1 X62.10 Y30.60 Z0.25 E98.55 F1341.6
G1 X61.60 Y29.60 Z0.25 E98.60 F1274.6
G1 X62.10 Y28.60 Z0.25 E98.64 F1207.5
G1 X61.60 Y27.60 Z0.25 E98.69 F1140.4
G1 X62.10 Y26.60 Z0.25 E98.74 F1073.3
G1 X61.60 Y25.60 Z0.25 E98.78 F1006.2
G1 X62.10 Y24.60 Z0.25 E98.83 F939.1
G1 X61.60 Y23.60 Z0.25 E98.88 F872.1
G1 X62.10 Y22.60 Z0.25 E98.92 F805.0
G1 X61.60 Y21.60 Z0.25 E98.97 F737.9
G1 X62.10 Y20.60 Z0.25 E99.02 F670.8
G1 X61.60 Y19.60 Z0.25 E99.06 F603.7
G1 X62.10 Y18.60 Z0.25 E99.11 F536.7
G1 X61.60 Y17.60 Z0.25 E99.16 F469.6
G1 X62.10 Y16.60 Z0.25 E99.20 F402.5
G1 X61.60 Y15.60 Z0.25 E99.25 F335.4
G1 X62.10 Y14.60 Z0.25 E99.30 F268.3
G1 X61.60 Y13.60 Z0.25 E99.34 F201.2
G1 X62.10 Y12.60 Z0.25 E99.39 F134.2
G1 X61.60 Y11.60 Z0.25 E99.44 F67.1
M201 X1000 Y1000
M205 X20 Y20
M205 J0.3
G0 X66.60 Y11.60 Z0.25 E99.44 F5400.0
M593 X D0.55
M203 X500 Y500 ; maximum feedrates
M204 P10000 ; print acceleration
M201 X10000 Y10000 ; max acceleration
M205 X500.00 Y500.00 ; jerk limits very high
M205 J0.3 ; junction deviation maximum
G1 X67.10 Y12.60 Z0.25 E99.48 F67.1
G1 X66.60 Y13.60 Z0.25 E99.53 F134.2
G1 X67.10 Y14.60 Z0.25 E99.57 F201.2
G1 X66.60 Y15.60 Z0.25 E99.62 F268.3
G1 X67.10 Y16.60 Z0.25 E99.67 F335.4
G1 X66.60 Y17.60 Z0.25 E99.71 F402.5
G1 X67.10 Y18.60 Z0.25 E99.76 F469.6
G1 X66.60 Y19.60 Z0.25 E99.81 F536.7
G1 X67.10 Y20.60 Z0.25 E99.85 F603.7
G1 X66.60 Y21.60 Z0.25 E99.90 F670.8
G1 X67.10 Y22.60 Z0.25 E99.95 F737.9
G1 X66.60 Y23.60 Z0.25 E99.99 F805.0
G1 X67.10 Y24.60 Z0.25 E100.04 F872.1
G1 X66.60 Y25.60 Z0.25 E100.09 F939.1
G1 X67.10 Y26.60 Z0.25 E100.13 F1006.2
G1 X66.60 Y27.60 Z0.25 E100.18 F1073.3
G1 X67.10 Y28.60 Z0.25 E100.23 F1140.4
G1 X66.60 Y29.60 Z0.25 E100.27 F1207.5
G1 X67.10 Y30.60 Z0.25 E100.32 F1274.6
G1 X66.60 Y31.60 Z0.25 E100.36 F1341.6
G1 X67.10 Y32.60 Z0.25 E100.41 F1408.7
G1 X66.60 Y33.60 Z0.25 E100.46 F1475.8
G1 X67.10 Y34.60 Z0.25 E100.50 F1542.9
G1 X66.60 Y35.60 Z0.25 E100.55 F1610.0
G1 X67.10 Y36.60 Z0.25 E100.60 F1677.1
G1 X66.60 Y37.60 Z0.25 E100.64 F1744.1
G1 X67.10 Y38.60 Z0.25 E100.69 F1811.2
G1 X66.60 Y39.60 Z0.25 E100.74 F1878.3
G1 X67.10 Y40.60 Z0.25 E100.78 F1945.4
G1 X66.60 Y41.60 Z0.25 E100.83 F2012.5
G1 X67.10 Y42.60 Z0.25 E100.88 F2079.5
G1 X66.60 Y43.60 Z0.25 E100.92 F2146.6
G1 X67.10 Y44.60 Z0.25 E100.97 F2213.7
G1 X66.60 Y45.60 Z0.25 E101.02 F2280.8
G1 X67.10 Y46.60 Z0.25 E101.06 F2347.9
G1 X66.60 Y47.60 Z0.25 E101.11 F2415.0
G1 X67.10 Y48.60 Z0.25 E101.15 F2482.0
G1 X66.60 Y49.60 Z0.25 E101.20 F2549.1
G1 X67.10 Y50.60 Z0.25 E101.25 F2616.2
G1 X66.60 Y51.60 Z0.25 E101.29 F2683.3
G1 X67.10 Y52.60 Z0.25 E101.34 F2750.4
G1 X66.60 Y53.60 Z0.25 E101.39 F2817.4
G1 X67.10 Y54.60 Z0.25 E101.43 F2884.5
G1 X66.60 Y55.60 Z0.25 E101.48 F2951.6
G1 X67.10 Y56.60 Z0.25 E101.53 F3018.7
G1 X66.60 Y57.60 Z0.25 E101.57 F3085.8
G1 X67.10 Y58.60 Z0.25 E101.62 F3152.9
G1 X66.60 Y59.60 Z0.25 E101.67 F3219.9
G1 X67.10 Y60.60 Z0.25 E101.71 F3287.0
G1 X66.60 Y61.60 Z0.25 E101.76 F3354.1
G1 X67.10 Y62.60 Z0.25 E101.81 F3421.2
G1 X66.60 Y63.60 Z0.25 E101.85 F3488.3
G1 X67.10 Y64.60 Z0.25 E101.90 F3555.3
G1 X66.60 Y65.60 Z0.25 E101.95 F3622.4
G1 X67.10 Y66.60 Z0.25 E101.99 F3689.5
G1 X66.60 Y67.60 Z0.25 E102.04 F3756.6
G1 X67.10 Y68.60 Z0.25 E102.08 F3823.7
G1 X66.60 Y69.60 Z0.25 E102.13 F3890.8
G1 X67.10 Y70.60 Z0.25 E102.18 F3957.8
G1 X66.60 Y71.60 Z0.25 E102.22 F4024.9
G1 X67.10 Y72.60 Z0.25 E102.27 F4092.0
G1 X66.60 Y73.60 Z0.25 E102.32 F4159.1
G1 X67.10 Y74.60 Z0.25 E102.36 F4226.2
G1 X66.60 Y75.60 Z0.25 E102.41 F4293.3
G1 X67.10 Y76.60 Z0.25 E102.46 F4360.3
G1 X66.60 Y77.60 Z0.25 E102.50 F4427.4
G1 X67.10 Y78.60 Z0.25 E102.55 F4494.5
G1 X66.60 Y79.60 Z0.25 E102.60 F4561.6
G1 X67.10 Y80.60 Z0.25 E102.64 F4628.7
G1 X66.60 Y81.60 Z0.25 E102.69 F4695.7
G1 X67.10 Y82.60 Z0.25 E102.74 F4762.8
G1 X66.60 Y83.60 Z0.25 E102.78 F4829.9
G1 X67.10 Y84.60 Z0.25 E102.83 F4897.0
G1 X66.60 Y85.60 Z0.25 E102.87 F4964.1
G1 X67.10 Y86.60 Z0.25 E102.92 F5031.2
G1 X66.60 Y87.60 Z0.25 E102.97 F5098.2
G1 X67.10 Y88.60 Z0.25 E103.01 F5165.3
G1 X66.60 Y89.60 Z0.25 E103.06 F5232.4
G1 X67.10 Y90.60 Z0.25 E103.11 F5299.5
G1 X66.60 Y91.60 Z0.25 E103.15 F5366.6
G1 X67.10 Y92.60 Z0.25 E103.20 F5433.6
G1 X66.60 Y93.60 Z0.25 E103.25 F5500.7
G1 X67.10 Y94.60 Z0.25 E103.29 F5567.8
G1 X66.60 Y95.60 Z0.25 E103.34 F5634.9
G1 X67.10 Y96.60 Z0.25 E103.39 F5702.0
G1 X66.60 Y97.60 Z0.25 E103.43 F5769.1
G1 X67.10 Y98.60 Z0.25 E103.48 F5836.1
G1 X66.60 Y99.60 Z0.25 E103.53 F5903.2
G1 X67.10 Y100.60 Z0.25 E103.57 F5970.3
G1 X66.60 Y101.60 Z0.25 E103.62 F6037.4
G1 X67.10 Y102.60 Z0.25 E103.66 F6104.5
G1 X66.60 Y103.60 Z0.25 E103.71 F6171.5
G1 X67.10 Y104.60 Z0.25 E103.76 F6238.6
G1 X66.60 Y105.60 Z0.25 E103.80 F6305.7
G1 X67.10 Y106.60 Z0.25 E103.85 F6372.8
G1 X66.60 Y107.60 Z0.25 E103.90 F6439.9
G1 X67.10 Y108.60 Z0.25 E103.94 F6507.0
G1 X66.60 Y109.60 Z0.25 E103.99 F6574.0
G1 X67.10 Y110.60 Z0.25 E104.04 F6641.1
G1 X66.60 Y111.60 Z0.25 E104.08 F6708.2
G1 X67.10 Y112.60 Z0.25 E104.13 F6775.3
G1 X66.60 Y113.60 Z0.25 E104.18 F6842.4
G1 X67.10 Y114.60 Z0.25 E104.22 F6909.5
G1 X66.60 Y115.60 Z0.25 E104.27 F6976.5
G1 X67.10 Y116.60 Z0.25 E104.32 F7043.6
G1 X66.60 Y117.60 Z0.25 E104.36 F7110.7
G1 X67.10 Y118.60 Z0.25 E104.41 F7177.8
G1 X66.60 Y119.60 Z0.25 E104.46 F7244.9
G1 X67.10 Y120.60 Z0.25 E104.50 F7311.9
G1 X66.60 Y121.60 Z0.25 E104.55 F7379.0
G1 X67.10 Y122.60 Z0.25 E104.59 F7446.1
G1 X66.60 Y123.60 Z0.25 E104.64 F7513.2
G1 X67.10 Y124.60 Z0.25 E104.69 F7580.3
G1 X66.60 Y125.60 Z0.25 E104.73 F7647.4
G1 X67.10 Y126.60 Z0.25 E104.78 F7714.4
G1 X66.60 Y127.60 Z0.25 E104.83 F7781.5
G1 X67.10 Y128.60 Z0.25 E104.87 F7848.6
G1 X66.60 Y129.60 Z0.25 E104.92 F7915.7
G1 X67.10 Y130.60 Z0.25 E104.97 F7982.8
G1 X66.60 Y131.60 Z0.25 E105.01 F8049.8
G1 X67.10 Y132.60 Z0.25 E105.06 F8116.9
G1 X66.60 Y133.60 Z0.25 E105.11 F8184.0
G1 X67.10 Y134.60 Z0.25 E105.15 F8251.1
G1 X66.60 Y135.60 Z0.25 E105.20 F8318.2
G1 X67.10 Y136.60 Z0.25 E105.25 F8385.3
G1 X66.60 Y137.60 Z0.25 E105.29 F8452.3
G1 X67.10 Y138.60 Z0.25 E105.34 F8519.4
G1 X66.60 Y139.60 Z0.25 E105.38 F8586.5
G1 X67.10 Y140.60 Z0.25 E105.43 F8653.6
G1 X66.60 Y141.60 Z0.25 E105.48 F8720.7
G1 X67.10 Y142.60 Z0.25 E105.52 F8787.7
G1 X66.60 Y143.60 Z0.25 E105.57 F8854.8
G1 X67.10 Y144.60 Z0.25 E105.62 F8921.9
G1 X66.60 Y145.60 Z0.25 E105.66 F8989.0
G1 X67.10 Y146.60 Z0.25 E105.71 F9056.1
G1 X66.60 Y147.60 Z0.25 E105.76 F9123.2
G1 X67.10 Y148.60 Z0.25 E105.80 F9190.2
G1 X66.60 Y149.60 Z0.25 E105.85 F9257.3
G1 X67.10 Y150.60 Z0.25 E105.90 F9324.4
G1 X66.60 Y151.60 Z0.25 E105.94 F9391.5
G1 X67.10 Y152.60 Z0.25 E105.99 F9458.6
G1 X66.60 Y153.60 Z0.25 E106.04 F9525.6
G1 X67.10 Y154.60 Z0.25 E106.08 F9592.7
G1 X66.60 Y155.60 Z0.25 E106.13 F9659.8
G1 X67.10 Y156.60 Z0.25 E106.17 F9726.9
G1 X66.60 Y157.60 Z0.25 E106.22 F9794.0
G1 X67.10 Y158.60 Z0.25 E106.27 F9861.1
G1 X66.60 Y159.60 Z0.25 E106.31 F9928.1
G1 X67.10 Y160.60 Z0.25 E106.36 F9995.2
G1 X66.60 Y161.60 Z0.25 E106.41 F10062.3
G1 X67.10 Y162.60 Z0.25 E106.45 F10129.4
G1 X66.60 Y163.60 Z0.25 E106.50 F10196.5
G1 X67.10 Y164.60 Z0.25 E106.55 F10263.6
G1 X66.60 Y165.60 Z0.25 E106.59 F10330.6
G1 X67.10 Y166.60 Z0.25 E106.64 F10397.7
G1 X66.60 Y167.60 Z0.25 E106.69 F10464.8
G1 X67.10 Y168.60 Z0.25 E106.73 F10531.9
G1 X66.60 Y169.60 Z0.25 E106.78 F10599.0
G1 X67.10 Y170.60 Z0.25 E106.83 F10666.0
G1 X66.60 Y171.60 Z0.25 E106.87 F10733.1
M201 X1000 Y1000
M205 X20 Y20
M205 J0.3
G1 X66.60 Y184.40 Z0.25 E107.40

G0 X71.60 Y184.40 Z0.25 E107.40 F5400.0
M593 X D0.60
G1 X71.60 Y171.60 Z0.25 E107.94 F10733.1
M203 X500 Y500 ; maximum feedrates
M204 P10000 ; print acceleration
M201 X10000 Y10000 ; max acceleration
M205 X500.00 Y500.00 ; jerk limits very high
M205 J0.3 ; junction deviation maximum
G1 X72.10 Y170.60 Z0.25 E107.98 F10733.1
G1 X71.60 Y169.60 Z0.25 E108.03 F10666.0
G1 X72.10 Y168.60 Z0.25 E108.08 F10599.0
G1 X71.60 Y167.60 Z0.25 E108.12 F10531.9
G1 X72.10 Y166.60 Z0.25 E108.17 F10464.8
G1 X71.60 Y165.60 Z0.25 E108.22 F10397.7
G1 X72.10 Y164.60 Z0.25 E108.26 F10330.6
G1 X71.60 Y163.60 Z0.25 E108.31 F10263.6
G1 X72.10 Y162.60 Z0.25 E108.35 F10196.5
G1 X71.60 Y161.60 Z0.25 E108.40 F10129.4
G1 X72.10 Y160.60 Z0.25 E108.45 F10062.3
G1 X71.60 Y159.60 Z0.25 E108.49 F9995.2
G1 X72.10 Y158.60 Z0.25 E108.54 F9928.1
G1 X71.60 Y157.60 Z0.25 E108.59 F9861.1
G1 X72.10 Y156.60 Z0.25 E108.63 F9794.0
G1 X71.60 Y155.60 Z0.25 E108.68 F9726.9
G1 X72.10 Y154.60 Z0.25 E108.73 F9659.8
G1 X71.60 Y153.60 Z0.25 E108.77 F9592.7
G1 X72.10 Y152.60 Z0.25 E108.82 F9525.6
G1 X71.60 Y151.60 Z0.25 E108.87 F9458.6
G1 X72.10 Y150.60 Z0.25 E108.91 F9391.5
G1 X71.60 Y149.60 Z0.25 E108.96 F9324.4
G1 X72.10 Y148.60 Z0.25 E109.01 F9257.3
G1 X71.60 Y147.60 Z0.25 E109.05 F9190.2
G1 X72.10 Y146.60 Z0.25 E109.10 F9123.2
G1 X71.60 Y145.60 Z0.25 E109.15 F9056.1
G1 X72.10 Y144.60 Z0.25 E109.19 F8989.0
G1 X71.60 Y143.60 Z0.25 E109.24 F8921.9
G1 X72.10 Y142.60 Z0.25 E109.28 F8854.8
G1 X71.60 Y141.60 Z0.25 E109.33 F8787.7
G1 X72.10 Y140.60 Z0.25 E109.38 F8720.7
G1 X71.60 Y139.60 Z0.25 E109.42 F8653.6
G1 X72.10 Y138.60 Z0.25 E109.47 F8586.5
G1 X71.60 Y137.60 Z0.25 E109.52 F8519.4
G1 X72.10 Y136.60 Z0.25 E109.56 F8452.3
G1 X71.60 Y135.60 Z0.25 E109.61 F8385.3
G1 X72.10 Y134.60 Z0.25 E109.66 F8318.2
G1 X71.60 Y133.60 Z0.25 E109.70 F8251.1
G1 X72.10 Y132.60 Z0.25 E109.75 F8184.0
G1 X71.60 Y131.60 Z0.25 E109.80 F8116.9
G1 X72.10 Y130.60 Z0.25 E109.84 F8049.8
G1 X71.60 Y129.60 Z0.25 E109.89 F7982.8
G1 X72.10 Y128.60 Z0.25 E109.94 F7915.7
G1 X71.60 Y127.60 Z0.25 E109.98 F7848.6
G1 X72.10 Y126.60 Z0.25 E110.03 F7781.5
G1 X71.60 Y125.60 Z0.25 E110.07 F7714.4
G1 X72.10 Y124.60 Z0.25 E110.12 F7647.4
G1 X71.60 Y123.60 Z0.25 E110.17 F7580.3
G1 X72.10 Y122.60 Z0.25 E110.21 F7513.2
G1 X71.60 Y121.60 Z0.25 E110.26 F7446.1
G1 X72.10 Y120.60 Z0.25 E110.31 F7379.0
G1 X71.60 Y119.60 Z0.25 E110.35 F7311.9
G1 X72.10 Y118.60 Z0.25 E110.40 F7244.9
G1 X71.60 Y117.60 Z0.25 E110.45 F7177.8
G1 X72.10 Y116.60 Z0.25 E110.49 F7110.7
G1 X71.60 Y115.60 Z0.25 E110.54 F7043.6
G1 X72.10 Y114.60 Z0.25 E110.59 F6976.5
G1 X71.60 Y113.60 Z0.25 E110.63 F6909.5
G1 X72.10 Y112.60 Z0.25 E110.68 F6842.4
G1 X71.60 Y111.60 Z0.25 E110.73 F6775.3
G1 X72.10 Y110.60 Z0.25 E110.77 F6708.2
G1 X71.60 Y109.60 Z0.25 E110.82 F6641.1
G1 X72.10 Y108.60 Z0.25 E110.86 F6574.0
G1 X71.60 Y107.60 Z0.25 E110.91 F6507.0
G1 X72.10 Y106.60 Z0.25 E110.96 F6439.9
G1 X71.60 Y105.60 Z0.25 E111.00 F6372.8
G1 X72.10 Y104.60 Z0.25 E111.05 F6305.7
G1 X71.60 Y103.60 Z0.25 E111.10 F6238.6
G1 X72.10 Y102.60 Z0.25 E111.14 F6171.5
G1 X71.60 Y101.60 Z0.25 E111.19 F6104.5
G1 X72.10 Y100.60 Z0.25 E111.24 F6037.4
G1 X71.60 Y99.60 Z0.25 E111.28 F5970.3
G1 X72.10 Y98.60 Z0.25 E111.33 F5903.2
G1 X71.60 Y97.60 Z0.25 E111.38 F5836.1
G1 X72.10 Y96.60 Z0.25 E111.42 F5769.1
G1 X71.60 Y95.60 Z0.25 E111.47 F5702.0
G1 X72.10 Y94.60 Z0.25 E111.52 F5634.9
G1 X71.60 Y93.60 Z0.25 E111.56 F5567.8
G1 X72.10 Y92.60 Z0.25 E111.61 F5500.7
G1 X71.60 Y91.60 Z0.25 E111.66 F5433.6
G1 X72.10 Y90.60 Z0.25 E111.70 F5366.6
G1 X71.60 Y89.60 Z0.25 E111.75 F5299.5
G1 X72.10 Y88.60 Z0.25 E111.79 F5232.4
G1 X71.60 Y87.60 Z0.25 E111.84 F5165.3
G1 X72.10 Y86.60 Z0.25 E111.89 F5098.2
G1 X71.60 Y85.60 Z0.25 E111.93 F5031.2
G1 X72.10 Y84.60 Z0.25 E111.98 F4964.1
G1 X71.60 Y83.60 Z0.25 E112.03 F4897.0
G1 X72.10 Y82.60 Z0.25 E112.07 F4829.9
G1 X71.60 Y81.60 Z0.25 E112.12 F4762.8
G1 X72.10 Y80.60 Z0.25 E112.17 F4695.7
G1 X71.60 Y79.60 Z0.25 E112.21 F4628.7
G1 X72.10 Y78.60 Z0.25 E112.26 F4561.6
G1 X71.60 Y77.60 Z0.25 E112.31 F4494.5
G1 X72.10 Y76.60 Z0.25 E112.35 F4427.4
G1 X71.60 Y75.60 Z0.25 E112.40 F4360.3
G1 X72.10 Y74.60 Z0.25 E112.45 F4293.3
G1 X71.60 Y73.60 Z0.25 E112.49 F4226.2
G1 X72.10 Y72.60 Z0.25 E112.54 F4159.1
G1 X71.60 Y71.60 Z0.25 E112.58 F4092.0
G1 X72.10 Y70.60 Z0.25 E112.63 F4024.9
G1 X71.60 Y69.60 Z0.25 E112.68 F3957.8
G1 X72.10 Y68.60 Z0.25 E112.72 F3890.8
G1 X71.60 Y67.60 Z0.25 E112.77 F3823.7
G1 X72.10 Y66.60 Z0.25 E112.82 F3756.6
G1 X71.60 Y65.60 Z0.25 E112.86 F3689.5
G1 X72.10 Y64.60 Z0.25 E112.91 F3622.4
G1 X71.60 Y63.60 Z0.25 E112.96 F3555.3
G1 X72.10 Y62.60 Z0.25 E113.00 F3488.3
G1 X71.60 Y61.60 Z0.25 E113.05 F3421.2
G1 X72.10 Y60.60 Z0.25 E113.10 F3354.1
G1 X71.60 Y59.60 Z0.25 E113.14 F3287.0
G1 X72.10 Y58.60 Z0.25 E113.19 F3219.9
G1 X71.60 Y57.60 Z0.25 E113.24 F3152.9
G1 X72.10 Y56.60 Z0.25 E113.28 F3085.8
G1 X71.60 Y55.60 Z0.25 E113.33 F3018.7
G1 X72.10 Y54.60 Z0.25 E113.37 F2951.6
G1 X71.60 Y53.60 Z0.25 E113.42 F2884.5
G1 X72.10 Y52.60 Z0.25 E113.47 F2817.4
G1 X71.60 Y51.60 Z0.25 E113.51 F2750.4
G1 X72.10 Y50.60 Z0.25 E113.56 F2683.3
G1 X71.60 Y49.60 Z0.25 E113.61 F2616.2
G1 X72.10 Y48.60 Z0.25 E113.65 F2549.1
G1 X71.60 Y47.60 Z0.25 E113.70 F2482.0
G1 X72.10 Y46.60 Z0.25 E113.75 F2415.0
G1 X71.60 Y45.60 Z0.25 E113.79 F2347.9
G1 X72.10 Y44.60 Z0.25 E113.84 F2280.8
G1 X71.60 Y43.60 Z0.25 E113.89 F2213.7
G1 X72.10 Y42.60 Z0.25 E113.93 F2146.6
G1 X71.60 Y41.60 Z0.25 E113.98 F2079.5
G1 X72.10 Y40.60 Z0.25 E114.03 F2012.5
G1 X71.60 Y39.60 Z0.25 E114.07 F1945.4
G1 X72.10 Y38.60 Z0.25 E114.12 F1878.3
G1 X71.60 Y37.60 Z0.25 E114.17 F1811.2
G1 X72.10 Y36.60 Z0.25 E114.21 F1744.1
G1 X71.60 Y35.60 Z0.25 E114.26 F1677.1
G1 X72.10 Y34.60 Z0.25 E114.30 F1610.0
G1 X71.60 Y33.60 Z0.25 E114.35 F1542.9
G1 X72.10 Y32.60 Z0.25 E114.40 F1475.8
G1 X71.60 Y31.60 Z0.25 E114.44 F1408.7
G1 X72.10 Y30.60 Z0.25 E114.49 F1341.6
G1 X71.60 Y29.60 Z0.25 E114.54 F1274.6
G1 X72.10 Y28.60 Z0.25 E114.58 F1207.5
G1 X71.60 Y27.60 Z0.25 E114.63 F1140.4
G1 X72.10 Y26.60 Z0.25 E114.68 F1073.3
G1 X71.60 Y25.60 Z0.25 E114.72 F1006.2
G1 X72.10 Y24.60 Z0.25 E114.77 F939.1
G1 X71.60 Y23.60 Z0.25 E114.82 F872.1
G1 X72.10 Y22.60 Z0.25 E114.86 F805.0
G1 X71.60 Y21.60 Z0.25 E114.91 F737.9
G1 X72.10 Y20.60 Z0.25 E114.96 F670.8
G1 X71.60 Y19.60 Z0.25 E115.00 F603.7
G1 X72.10 Y18.60 Z0.25 E115.05 F536.7
G1 X71.60 Y17.60 Z0.25 E115.09 F469.6
G1 X72.10 Y16.60 Z0.25 E115.14 F402.5
G1 X71.60 Y15.60 Z0.25 E115.19 F335.4
G1 X72.10 Y14.60 Z0.25 E115.23 F268.3
G1 X71.60 Y13.60 Z0.25 E115.28 F201.2
G1 X72.10 Y12.60 Z0.25 E115.33 F134.2
G1 X71.60 Y11.60 Z0.25 E115.37 F67.1
M201 X1000 Y1000
M205 X20 Y20
M205 J0.3
G0 X76.60 Y11.60 Z0.25 E115.37 F5400.0
M593 X D0.65
M203 X500 Y500 ; maximum feedrates
M204 P10000 ; print acceleration
M201 X10000 Y10000 ; max acceleration
M205 X500.00 Y500.00 ; jerk limits very high
M205 J0.3 ; junction deviation maximum
G1 X77.10 Y12.60 Z0.25 E115.42 F67.1
G1 X76.60 Y13.60 Z0.25 E115.47 F134.2
G1 X77.10 Y14.60 Z0.25 E115.51 F201.2
G1 X76.60 Y15.60 Z0.25 E115.56 F268.3
G1 X77.10 Y16.60 Z0.25 E115.61 F335.4
G1 X76.60 Y17.60 Z0.25 E115.65 F402.5
G1 X77.10 Y18.60 Z0.25 E115.70 F469.6
G1 X76.60 Y19.60 Z0.25 E115.75 F536.7
G1 X77.10 Y20.60 Z0.25 E115.79 F603.7
G1 X76.60 Y21.60 Z0.25 E115.84 F670.8
G1 X77.10 Y22.60 Z0.25 E115.89 F737.9
G1 X76.60 Y23.60 Z0.25 E115.93 F805.0
G1 X77.10 Y24.60 Z0.25 E115.98 F872.1
G1 X76.60 Y25.60 Z0.25 E116.02 F939.1
G1 X77.10 Y26.60 Z0.25 E116.07 F1006.2
G1 X76.60 Y27.60 Z0.25 E116.12 F1073.3
G1 X77.10 Y28.60 Z0.25 E116.16 F1140.4
G1 X76.60 Y29.60 Z0.25 E116.21 F1207.5
G1 X77.10 Y30.60 Z0.25 E116.26 F1274.6
G1 X76.60 Y31.60 Z0.25 E116.30 F1341.6
G1 X77.10 Y32.60 Z0.25 E116.35 F1408.7
G1 X76.60 Y33.60 Z0.25 E116.40 F1475.8
G1 X77.10 Y34.60 Z0.25 E116.44 F1542.9
G1 X76.60 Y35.60 Z0.25 E116.49 F1610.0
G1 X77.10 Y36.60 Z0.25 E116.54 F1677.1
G1 X76.60 Y37.60 Z0.25 E116.58 F1744.1
G1 X77.10 Y38.60 Z0.25 E116.63 F1811.2
G1 X76.60 Y39.60 Z0.25 E116.68 F1878.3
G1 X77.10 Y40.60 Z0.25 E116.72 F1945.4
G1 X76.60 Y41.60 Z0.25 E116.77 F2012.5
G1 X77.10 Y42.60 Z0.25 E116.81 F2079.5
G1 X76.60 Y43.60 Z0.25 E116.86 F2146.6
G1 X77.10 Y44.60 Z0.25 E116.91 F2213.7
G1 X76.60 Y45.60 Z0.25 E116.95 F2280.8
G1 X77.10 Y46.60 Z0.25 E117.00 F2347.9
G1 X76.60 Y47.60 Z0.25 E117.05 F2415.0
G1 X77.10 Y48.60 Z0.25 E117.09 F2482.0
G1 X76.60 Y49.60 Z0.25 E117.14 F2549.1
G1 X77.10 Y50.60 Z0.25 E117.19 F2616.2
G1 X76.60 Y51.60 Z0.25 E117.23 F2683.3
G1 X77.10 Y52.60 Z0.25 E117.28 F2750.4
G1 X76.60 Y53.60 Z0.25 E117.33 F2817.4
G1 X77.10 Y54.60 Z0.25 E117.37 F2884.5
G1 X76.60 Y55.60 Z0.25 E117.42 F2951.6
G1 X77.10 Y56.60 Z0.25 E117.47 F3018.7
G1 X76.60 Y57.60 Z0.25 E117.51 F3085.8
G1 X77.10 Y58.60 Z0.25 E117.56 F3152.9
G1 X76.60 Y59.60 Z0.25 E117.60 F3219.9
G1 X77.10 Y60.60 Z0.25 E117.65 F3287.0
G1 X76.60 Y61.60 Z0.25 E117.70 F3354.1
G1 X77.10 Y62.60 Z0.25 E117.74 F3421.2
G1 X76.60 Y63.60 Z0.25 E117.79 F3488.3
G1 X77.10 Y64.60 Z0.25 E117.84 F3555.3
G1 X76.60 Y65.60 Z0.25 E117.88 F3622.4
G1 X77.10 Y66.60 Z0.25 E117.93 F3689.5
G1 X76.60 Y67.60 Z0.25 E117.98 F3756.6
G1 X77.10 Y68.60 Z0.25 E118.02 F3823.7
G1 X76.60 Y69.60 Z0.25 E118.07 F3890.8
G1 X77.10 Y70.60 Z0.25 E118.12 F3957.8
G1 X76.60 Y71.60 Z0.25 E118.16 F4024.9
G1 X77.10 Y72.60 Z0.25 E118.21 F4092.0
G1 X76.60 Y73.60 Z0.25 E118.26 F4159.1
G1 X77.10 Y74.60 Z0.25 E118.30 F4226.2
G1 X76.60 Y75.60 Z0.25 E118.35 F4293.3
G1 X77.10 Y76.60 Z0.25 E118.40 F4360.3
G1 X76.60 Y77.60 Z0.25 E118.44 F4427.4
G1 X77.10 Y78.60 Z0.25 E118.49 F4494.5
G1 X76.60 Y79.60 Z0.25 E118.53 F4561.6
G1 X77.10 Y80.60 Z0.25 E118.58 F4628.7
G1 X76.60 Y81.60 Z0.25 E118.63 F4695.7
G1 X77.10 Y82.60 Z0.25 E118.67 F4762.8
G1 X76.60 Y83.60 Z0.25 E118.72 F4829.9
G1 X77.10 Y84.60 Z0.25 E118.77 F4897.0
G1 X76.60 Y85.60 Z0.25 E118.81 F4964.1
G1 X77.10 Y86.60 Z0.25 E118.86 F5031.2
G1 X76.60 Y87.60 Z0.25 E118.91 F5098.2
G1 X77.10 Y88.60 Z0.25 E118.95 F5165.3
G1 X76.60 Y89.60 Z0.25 E119.00 F5232.4
G1 X77.10 Y90.60 Z0.25 E119.05 F5299.5
G1 X76.60 Y91.60 Z0.25 E119.09 F5366.6
G1 X77.10 Y92.60 Z0.25 E119.14 F5433.6
G1 X76.60 Y93.60 Z0.25 E119.19 F5500.7
G1 X77.10 Y94.60 Z0.25 E119.23 F5567.8
G1 X76.60 Y95.60 Z0.25 E119.28 F5634.9
G1 X77.10 Y96.60 Z0.25 E119.32 F5702.0
G1 X76.60 Y97.60 Z0.25 E119.37 F5769.1
G1 X77.10 Y98.60 Z0.25 E119.42 F5836.1
G1 X76.60 Y99.60 Z0.25 E119.46 F5903.2
G1 X77.10 Y100.60 Z0.25 E119.51 F5970.3
G1 X76.60 Y101.60 Z0.25 E119.56 F6037.4
G1 X77.10 Y102.60 Z0.25 E119.60 F6104.5
G1 X76.60 Y103.60 Z0.25 E119.65 F6171.5
G1 X77.10 Y104.60 Z0.25 E119.70 F6238.6
G1 X76.60 Y105.60 Z0.25 E119.74 F6305.7
G1 X77.10 Y106.60 Z0.25 E119.79 F6372.8
G1 X76.60 Y107.60 Z0.25 E119.84 F6439.9
G1 X77.10 Y108.60 Z0.25 E119.88 F6507.0
G1 X76.60 Y109.60 Z0.25 E119.93 F6574.0
G1 X77.10 Y110.60 Z0.25 E119.98 F6641.1
G1 X76.60 Y111.60 Z0.25 E120.02 F6708.2
G1 X77.10 Y112.60 Z0.25 E120.07 F6775.3
G1 X76.60 Y113.60 Z0.25 E120.11 F6842.4
G1 X77.10 Y114.60 Z0.25 E120.16 F6909.5
G1 X76.60 Y115.60 Z0.25 E120.21 F6976.5
G1 X77.10 Y116.60 Z0.25 E120.25 F7043.6
G1 X76.60 Y117.60 Z0.25 E120.30 F7110.7
G1 X77.10 Y118.60 Z0.25 E120.35 F7177.8
G1 X76.60 Y119.60 Z0.25 E120.39 F7244.9
G1 X77.10 Y120.60 Z0.25 E120.44 F7311.9
G1 X76.60 Y121.60 Z0.25 E120.49 F7379.0
G1 X77.10 Y122.60 Z0.25 E120.53 F7446.1
G1 X76.60 Y123.60 Z0.25 E120.58 F7513.2
G1 X77.10 Y124.60 Z0.25 E120.63 F7580.3
G1 X76.60 Y125.60 Z0.25 E120.67 F7647.4
G1 X77.10 Y126.60 Z0.25 E120.72 F7714.4
G1 X76.60 Y127.60 Z0.25 E120.77 F7781.5
G1 X77.10 Y128.60 Z0.25 E120.81 F7848.6
G1 X76.60 Y129.60 Z0.25 E120.86 F7915.7
G1 X77.10 Y130.60 Z0.25 E120.91 F7982.8
G1 X76.60 Y131.60 Z0.25 E120.95 F8049.8
G1 X77.10 Y132.60 Z0.25 E121.00 F8116.9
G1 X76.60 Y133.60 Z0.25 E121.04 F8184.0
G1 X77.10 Y134.60 Z0.25 E121.09 F8251.1
G1 X76.60 Y135.60 Z0.25 E121.14 F8318.2
G1 X77.10 Y136.60 Z0.25 E121.18 F8385.3
G1 X76.60 Y137.60 Z0.25 E121.23 F8452.3
G1 X77.10 Y138.60 Z0.25 E121.28 F8519.4
G1 X76.60 Y139.60 Z0.25 E121.32 F8586.5
G1 X77.10 Y140.60 Z0.25 E121.37 F8653.6
G1 X76.60 Y141.60 Z0.25 E121.42 F8720.7
G1 X77.10 Y142.60 Z0.25 E121.46 F8787.7
G1 X76.60 Y143.60 Z0.25 E121.51 F8854.8
G1 X77.10 Y144.60 Z0.25 E121.56 F8921.9
G1 X76.60 Y145.60 Z0.25 E121.60 F8989.0
G1 X77.10 Y146.60 Z0.25 E121.65 F9056.1
G1 X76.60 Y147.60 Z0.25 E121.70 F9123.2
G1 X77.10 Y148.60 Z0.25 E121.74 F9190.2
G1 X76.60 Y149.60 Z0.25 E121.79 F9257.3
G1 X77.10 Y150.60 Z0.25 E121.83 F9324.4
G1 X76.60 Y151.60 Z0.25 E121.88 F9391.5
G1 X77.10 Y152.60 Z0.25 E121.93 F9458.6
G1 X76.60 Y153.60 Z0.25 E121.97 F9525.6
G1 X77.10 Y154.60 Z0.25 E122.02 F9592.7
G1 X76.60 Y155.60 Z0.25 E122.07 F9659.8
G1 X77.10 Y156.60 Z0.25 E122.11 F9726.9
G1 X76.60 Y157.60 Z0.25 E122.16 F9794.0
G1 X77.10 Y158.60 Z0.25 E122.21 F9861.1
G1 X76.60 Y159.60 Z0.25 E122.25 F9928.1
G1 X77.10 Y160.60 Z0.25 E122.30 F9995.2
G1 X76.60 Y161.60 Z0.25 E122.35 F10062.3
G1 X77.10 Y162.60 Z0.25 E122.39 F10129.4
G1 X76.60 Y163.60 Z0.25 E122.44 F10196.5
G1 X77.10 Y164.60 Z0.25 E122.49 F10263.6
G1 X76.60 Y165.60 Z0.25 E122.53 F10330.6
G1 X77.10 Y166.60 Z0.25 E122.58 F10397.7
G1 X76.60 Y167.60 Z0.25 E122.62 F10464.8
G1 X77.10 Y168.60 Z0.25 E122.67 F10531.9
G1 X76.60 Y169.60 Z0.25 E122.72 F10599.0
G1 X77.10 Y170.60 Z0.25 E122.76 F10666.0
G1 X76.60 Y171.60 Z0.25 E122.81 F10733.1
M201 X1000 Y1000
M205 X20 Y20
M205 J0.3
G1 X76.60 Y184.40 Z0.25 E123.34

G0 X81.60 Y184.40 Z0.25 E123.34 F5400.0
M593 X D0.70
G1 X81.60 Y171.60 Z0.25 E123.88 F10733.1
M203 X500 Y500 ; maximum feedrates
M204 P10000 ; print acceleration
M201 X10000 Y10000 ; max acceleration
M205 X500.00 Y500.00 ; jerk limits very high
M205 J0.3 ; junction deviation maximum
G1 X82.10 Y170.60 Z0.25 E123.92 F10733.1
G1 X81.60 Y169.60 Z0.25 E123.97 F10666.0
G1 X82.10 Y168.60 Z0.25 E124.01 F10599.0
G1 X81.60 Y167.60 Z0.25 E124.06 F10531.9
G1 X82.10 Y166.60 Z0.25 E124.11 F10464.8
G1 X81.60 Y165.60 Z0.25 E124.15 F10397.7
G1 X82.10 Y164.60 Z0.25 E124.20 F10330.6
G1 X81.60 Y163.60 Z0.25 E124.25 F10263.6
G1 X82.10 Y162.60 Z0.25 E124.29 F10196.5
G1 X81.60 Y161.60 Z0.25 E124.34 F10129.4
G1 X82.10 Y160.60 Z0.25 E124.39 F10062.3
G1 X81.60 Y159.60 Z0.25 E124.43 F9995.2
G1 X82.10 Y158.60 Z0.25 E124.48 F9928.1
G1 X81.60 Y157.60 Z0.25 E124.53 F9861.1
G1 X82.10 Y156.60 Z0.25 E124.57 F9794.0
G1 X81.60 Y155.60 Z0.25 E124.62 F9726.9
G1 X82.10 Y154.60 Z0.25 E124.67 F9659.8
G1 X81.60 Y153.60 Z0.25 E124.71 F9592.7
G1 X82.10 Y152.60 Z0.25 E124.76 F9525.6
G1 X81.60 Y151.60 Z0.25 E124.80 F9458.6
G1 X82.10 Y150.60 Z0.25 E124.85 F9391.5
G1 X81.60 Y149.60 Z0.25 E124.90 F9324.4
G1 X82.10 Y148.60 Z0.25 E124.94 F9257.3
G1 X81.60 Y147.60 Z0.25 E124.99 F9190.2
G1 X82.10 Y146.60 Z0.25 E125.04 F9123.2
G1 X81.60 Y145.60 Z0.25 E125.08 F9056.1
G1 X82.10 Y144.60 Z0.25 E125.13 F8989.0
G1 X81.60 Y143.60 Z0.25 E125.18 F8921.9
G1 X82.10 Y142.60 Z0.25 E125.22 F8854.8
G1 X81.60 Y141.60 Z0.25 E125.27 F8787.7
G1 X82.10 Y140.60 Z0.25 E125.32 F8720.7
G1 X81.60 Y139.60 Z0.25 E125.36 F8653.6
G1 X82.10 Y138.60 Z0.25 E125.41 F8586.5
G1 X81.60 Y137.60 Z0.25 E125.46 F8519.4
G1 X82.10 Y136.60 Z0.25 E125.50 F8452.3
G1 X81.60 Y135.60 Z0.25 E125.55 F8385.3
G1 X82.10 Y134.60 Z0.25 E125.60 F8318.2
G1 X81.60 Y133.60 Z0.25 E125.64 F8251.1
G1 X82.10 Y132.60 Z0.25 E125.69 F8184.0
G1 X81.60 Y131.60 Z0.25 E125.73 F8116.9
G1 X82.10 Y130.60 Z0.25 E125.78 F8049.8
G1 X81.60 Y129.60 Z0.25 E125.83 F7982.8
G1 X82.10 Y128.60 Z0.25 E125.87 F7915.7
G1 X81.60 Y127.60 Z0.25 E125.92 F7848.6
G1 X82.10 Y126.60 Z0.25 E125.97 F7781.5
G1 X81.60 Y125.60 Z0.25 E126.01 F7714.4
G1 X82.10 Y124.60 Z0.25 E126.06 F7647.4
G1 X81.60 Y123.60 Z0.25 E126.11 F7580.3
G1 X82.10 Y122.60 Z0.25 E126.15 F7513.2
G1 X81.60 Y121.60 Z0.25 E126.20 F7446.1
G1 X82.10 Y120.60 Z0.25 E126.25 F7379.0
G1 X81.60 Y119.60 Z0.25 E126.29 F7311.9
G1 X82.10 Y118.60 Z0.25 E126.34 F7244.9
G1 X81.60 Y117.60 Z0.25 E126.39 F7177.8
G1 X82.10 Y116.60 Z0.25 E126.43 F7110.7
G1 X81.60 Y115.60 Z0.25 E126.48 F7043.6
G1 X82.10 Y114.60 Z0.25 E126.52 F6976.5
G1 X81.60 Y113.60 Z0.25 E126.57 F6909.5
G1 X82.10 Y112.60 Z0.25 E126.62 F6842.4
G1 X81.60 Y111.60 Z0.25 E126.66 F6775.3
G1 X82.10 Y110.60 Z0.25 E126.71 F6708.2
G1 X81.60 Y109.60 Z0.25 E126.76 F6641.1
G1 X82.10 Y108.60 Z0.25 E126.80 F6574.0
G1 X81.60 Y107.60 Z0.25 E126.85 F6507.0
G1 X82.10 Y106.60 Z0.25 E126.90 F6439.9
G1 X81.60 Y105.60 Z0.25 E126.94 F6372.8
G1 X82.10 Y104.60 Z0.25 E126.99 F6305.7
G1 X81.60 Y103.60 Z0.25 E127.04 F6238.6
G1 X82.10 Y102.60 Z0.25 E127.08 F6171.5
G1 X81.60 Y101.60 Z0.25 E127.13 F6104.5
G1 X82.10 Y100.60 Z0.25 E127.18 F6037.4
G1 X81.60 Y99.60 Z0.25 E127.22 F5970.3
G1 X82.10 Y98.60 Z0.25 E127.27 F5903.2
G1 X81.60 Y97.60 Z0.25 E127.31 F5836.1
G1 X82.10 Y96.60 Z0.25 E127.36 F5769.1
G1 X81.60 Y95.60 Z0.25 E127.41 F5702.0
G1 X82.10 Y94.60 Z0.25 E127.45 F5634.9
G1 X81.60 Y93.60 Z0.25 E127.50 F5567.8
G1 X82.10 Y92.60 Z0.25 E127.55 F5500.7
G1 X81.60 Y91.60 Z0.25 E127.59 F5433.6
G1 X82.10 Y90.60 Z0.25 E127.64 F5366.6
G1 X81.60 Y89.60 Z0.25 E127.69 F5299.5
G1 X82.10 Y88.60 Z0.25 E127.73 F5232.4
G1 X81.60 Y87.60 Z0.25 E127.78 F5165.3
G1 X82.10 Y86.60 Z0.25 E127.83 F5098.2
G1 X81.60 Y85.60 Z0.25 E127.87 F5031.2
G1 X82.10 Y84.60 Z0.25 E127.92 F4964.1
G1 X81.60 Y83.60 Z0.25 E127.97 F4897.0
G1 X82.10 Y82.60 Z0.25 E128.01 F4829.9
G1 X81.60 Y81.60 Z0.25 E128.06 F4762.8
G1 X82.10 Y80.60 Z0.25 E128.11 F4695.7
G1 X81.60 Y79.60 Z0.25 E128.15 F4628.7
G1 X82.10 Y78.60 Z0.25 E128.20 F4561.6
G1 X81.60 Y77.60 Z0.25 E128.24 F4494.5
G1 X82.10 Y76.60 Z0.25 E128.29 F4427.4
G1 X81.60 Y75.60 Z0.25 E128.34 F4360.3
G1 X82.10 Y74.60 Z0.25 E128.38 F4293.3
G1 X81.60 Y73.60 Z0.25 E128.43 F4226.2
G1 X82.10 Y72.60 Z0.25 E128.48 F4159.1
G1 X81.60 Y71.60 Z0.25 E128.52 F4092.0
G1 X82.10 Y70.60 Z0.25 E128.57 F4024.9
G1 X81.60 Y69.60 Z0.25 E128.62 F3957.8
G1 X82.10 Y68.60 Z0.25 E128.66 F3890.8
G1 X81.60 Y67.60 Z0.25 E128.71 F3823.7
G1 X82.10 Y66.60 Z0.25 E128.76 F3756.6
G1 X81.60 Y65.60 Z0.25 E128.80 F3689.5
G1 X82.10 Y64.60 Z0.25 E128.85 F3622.4
G1 X81.60 Y63.60 Z0.25 E128.90 F3555.3
G1 X82.10 Y62.60 Z0.25 E128.94 F3488.3
G1 X81.60 Y61.60 Z0.25 E128.99 F3421.2
G1 X82.10 Y60.60 Z0.25 E129.03 F3354.1
G1 X81.60 Y59.60 Z0.25 E129.08 F3287.0
G1 X82.10 Y58.60 Z0.25 E129.13 F3219.9
G1 X81.60 Y57.60 Z0.25 E129.17 F3152.9
G1 X82.10 Y56.60 Z0.25 E129.22 F3085.8
G1 X81.60 Y55.60 Z0.25 E129.27 F3018.7
G1 X82.10 Y54.60 Z0.25 E129.31 F2951.6
G1 X81.60 Y53.60 Z0.25 E129.36 F2884.5
G1 X82.10 Y52.60 Z0.25 E129.41 F2817.4
G1 X81.60 Y51.60 Z0.25 E129.45 F2750.4
G1 X82.10 Y50.60 Z0.25 E129.50 F2683.3
G1 X81.60 Y49.60 Z0.25 E129.55 F2616.2
G1 X82.10 Y48.60 Z0.25 E129.59 F2549.1
G1 X81.60 Y47.60 Z0.25 E129.64 F2482.0
G1 X82.10 Y46.60 Z0.25 E129.69 F2415.0
G1 X81.60 Y45.60 Z0.25 E129.73 F2347.9
G1 X82.10 Y44.60 Z0.25 E129.78 F2280.8
G1 X81.60 Y43.60 Z0.25 E129.82 F2213.7
G1 X82.10 Y42.60 Z0.25 E129.87 F2146.6
G1 X81.60 Y41.60 Z0.25 E129.92 F2079.5
G1 X82.10 Y40.60 Z0.25 E129.96 F2012.5
G1 X81.60 Y39.60 Z0.25 E130.01 F1945.4
G1 X82.10 Y38.60 Z0.25 E130.06 F1878.3
G1 X81.60 Y37.60 Z0.25 E130.10 F1811.2
G1 X82.10 Y36.60 Z0.25 E130.15 F1744.1
G1 X81.60 Y35.60 Z0.25 E130.20 F1677.1
G1 X82.10 Y34.60 Z0.25 E130.24 F1610.0
G1 X81.60 Y33.60 Z0.25 E130.29 F1542.9
G1 X82.10 Y32.60 Z0.25 E130.34 F1475.8
G1 X81.60 Y31.60 Z0.25 E130.38 F1408.7
G1 X82.10 Y30.60 Z0.25 E130.43 F1341.6
G1 X81.60 Y29.60 Z0.25 E130.48 F1274.6
G1 X82.10 Y28.60 Z0.25 E130.52 F1207.5
G1 X81.60 Y27.60 Z0.25 E130.57 F1140.4
G1 X82.10 Y26.60 Z0.25 E130.62 F1073.3
G1 X81.60 Y25.60 Z0.25 E130.66 F1006.2
G1 X82.10 Y24.60 Z0.25 E130.71 F939.1
G1 X81.60 Y23.60 Z0.25 E130.75 F872.1
G1 X82.10 Y22.60 Z0.25 E130.80 F805.0
G1 X81.60 Y21.60 Z0.25 E130.85 F737.9
G1 X82.10 Y20.60 Z0.25 E130.89 F670.8
G1 X81.60 Y19.60 Z0.25 E130.94 F603.7
G1 X82.10 Y18.60 Z0.25 E130.99 F536.7
G1 X81.60 Y17.60 Z0.25 E131.03 F469.6
G1 X82.10 Y16.60 Z0.25 E131.08 F402.5
G1 X81.60 Y15.60 Z0.25 E131.13 F335.4
G1 X82.10 Y14.60 Z0.25 E131.17 F268.3
G1 X81.60 Y13.60 Z0.25 E131.22 F201.2
G1 X82.10 Y12.60 Z0.25 E131.27 F134.2
G1 X81.60 Y11.60 Z0.25 E131.31 F67.1
M201 X1000 Y1000
M205 X20 Y20
M205 J0.3
G0 X86.60 Y11.60 Z0.25 E131.31 F5400.0
M593 X D0.75
M203 X500 Y500 ; maximum feedrates
M204 P10000 ; print acceleration
M201 X10000 Y10000 ; max acceleration
M205 X500.00 Y500.00 ; jerk limits very high
M205 J0.3 ; junction deviation maximum
G1 X87.10 Y12.60 Z0.25 E131.36 F67.1
G1 X86.60 Y13.60 Z0.25 E131.41 F134.2
G1 X87.10 Y14.60 Z0.25 E131.45 F201.2
G1 X86.60 Y15.60 Z0.25 E131.50 F268.3
G1 X87.10 Y16.60 Z0.25 E131.54 F335.4
G1 X86.60 Y17.60 Z0.25 E131.59 F402.5
G1 X87.10 Y18.60 Z0.25 E131.64 F469.6
G1 X86.60 Y19.60 Z0.25 E131.68 F536.7
G1 X87.10 Y20.60 Z0.25 E131.73 F603.7
G1 X86.60 Y21.60 Z0.25 E131.78 F670.8
G1 X87.10 Y22.60 Z0.25 E131.82 F737.9
G1 X86.60 Y23.60 Z0.25 E131.87 F805.0
G1 X87.10 Y24.60 Z0.25 E131.92 F872.1
G1 X86.60 Y25.60 Z0.25 E131.96 F939.1
G1 X87.10 Y26.60 Z0.25 E132.01 F1006.2
G1 X86.60 Y27.60 Z0.25 E132.06 F1073.3
G1 X87.10 Y28.60 Z0.25 E132.10 F1140.4
G1 X86.60 Y29.60 Z0.25 E132.15 F1207.5
G1 X87.10 Y30.60 Z0.25 E132.20 F1274.6
G1 X86.60 Y31.60 Z0.25 E132.24 F1341.6
G1 X87.10 Y32.60 Z0.25 E132.29 F1408.7
G1 X86.60 Y33.60 Z0.25 E132.34 F1475.8
G1 X87.10 Y34.60 Z0.25 E132.38 F1542.9
G1 X86.60 Y35.60 Z0.25 E132.43 F1610.0
G1 X87.10 Y36.60 Z0.25 E132.47 F1677.1
G1 X86.60 Y37.60 Z0.25 E132.52 F1744.1
G1 X87.10 Y38.60 Z0.25 E132.57 F1811.2
G1 X86.60 Y39.60 Z0.25 E132.61 F1878.3
G1 X87.10 Y40.60 Z0.25 E132.66 F1945.4
G1 X86.60 Y41.60 Z0.25 E132.71 F2012.5
G1 X87.10 Y42.60 Z0.25 E132.75 F2079.5
G1 X86.60 Y43.60 Z0.25 E132.80 F2146.6
G1 X87.10 Y44.60 Z0.25 E132.85 F2213.7
G1 X86.60 Y45.60 Z0.25 E132.89 F2280.8
G1 X87.10 Y46.60 Z0.25 E132.94 F2347.9
G1 X86.60 Y47.60 Z0.25 E132.99 F2415.0
G1 X87.10 Y48.60 Z0.25 E133.03 F2482.0
G1 X86.60 Y49.60 Z0.25 E133.08 F2549.1
G1 X87.10 Y50.60 Z0.25 E133.13 F2616.2
G1 X86.60 Y51.60 Z0.25 E133.17 F2683.3
G1 X87.10 Y52.60 Z0.25 E133.22 F2750.4
G1 X86.60 Y53.60 Z0.25 E133.26 F2817.4
G1 X87.10 Y54.60 Z0.25 E133.31 F2884.5
G1 X86.60 Y55.60 Z0.25 E133.36 F2951.6
G1 X87.10 Y56.60 Z0.25 E133.40 F3018.7
G1 X86.60 Y57.60 Z0.25 E133.45 F3085.8
G1 X87.10 Y58.60 Z0.25 E133.50 F3152.9
G1 X86.60 Y59.60 Z0.25 E133.54 F3219.9
G1 X87.10 Y60.60 Z0.25 E133.59 F3287.0
G1 X86.60 Y61.60 Z0.25 E133.64 F3354.1
G1 X87.10 Y62.60 Z0.25 E133.68 F3421.2
G1 X86.60 Y63.60 Z0.25 E133.73 F3488.3
G1 X87.10 Y64.60 Z0.25 E133.78 F3555.3
G1 X86.60 Y65.60 Z0.25 E133.82 F3622.4
G1 X87.10 Y66.60 Z0.25 E133.87 F3689.5
G1 X86.60 Y67.60 Z0.25 E133.92 F3756.6
G1 X87.10 Y68.60 Z0.25 E133.96 F3823.7
G1 X86.60 Y69.60 Z0.25 E134.01 F3890.8
G1 X87.10 Y70.60 Z0.25 E134.05 F3957.8
G1 X86.60 Y71.60 Z0.25 E134.10 F4024.9
G1 X87.10 Y72.60 Z0.25 E134.15 F4092.0
G1 X86.60 Y73.60 Z0.25 E134.19 F4159.1
G1 X87.10 Y74.60 Z0.25 E134.24 F4226.2
G1 X86.60 Y75.60 Z0.25 E134.29 F4293.3
G1 X87.10 Y76.60 Z0.25 E134.33 F4360.3
G1 X86.60 Y77.60 Z0.25 E134.38 F4427.4
G1 X87.10 Y78.60 Z0.25 E134.43 F4494.5
G1 X86.60 Y79.60 Z0.25 E134.47 F4561.6
G1 X87.10 Y80.60 Z0.25 E134.52 F4628.7
G1 X86.60 Y81.60 Z0.25 E134.57 F4695.7
G1 X87.10 Y82.60 Z0.25 E134.61 F4762.8
G1 X86.60 Y83.60 Z0.25 E134.66 F4829.9
G1 X87.10 Y84.60 Z0.25 E134.71 F4897.0
G1 X86.60 Y85.60 Z0.25 E134.75 F4964.1
G1 X87.10 Y86.60 Z0.25 E134.80 F5031.2
G1 X86.60 Y87.60 Z0.25 E134.85 F5098.2
G1 X87.10 Y88.60 Z0.25 E134.89 F5165.3
G1 X86.60 Y89.60 Z0.25 E134.94 F5232.4
G1 X87.10 Y90.60 Z0.25 E134.98 F5299.5
G1 X86.60 Y91.60 Z0.25 E135.03 F5366.6
G1 X87.10 Y92.60 Z0.25 E135.08 F5433.6
G1 X86.60 Y93.60 Z0.25 E135.12 F5500.7
G1 X87.10 Y94.60 Z0.25 E135.17 F5567.8
G1 X86.60 Y95.60 Z0.25 E135.22 F5634.9
G1 X87.10 Y96.60 Z0.25 E135.26 F5702.0
G1 X86.60 Y97.60 Z0.25 E135.31 F5769.1
G1 X87.10 Y98.60 Z0.25 E135.36 F5836.1
G1 X86.60 Y99.60 Z0.25 E135.40 F5903.2
G1 X87.10 Y100.60 Z0.25 E135.45 F5970.3
G1 X86.60 Y101.60 Z0.25 E135.50 F6037.4
G1 X87.10 Y102.60 Z0.25 E135.54 F6104.5
G1 X86.60 Y103.60 Z0.25 E135.59 F6171.5
G1 X87.10 Y104.60 Z0.25 E135.64 F6238.6
G1 X86.60 Y105.60 Z0.25 E135.68 F6305.7
G1 X87.10 Y106.60 Z0.25 E135.73 F6372.8
G1 X86.60 Y107.60 Z0.25 E135.77 F6439.9
G1 X87.10 Y108.60 Z0.25 E135.82 F6507.0
G1 X86.60 Y109.60 Z0.25 E135.87 F6574.0
G1 X87.10 Y110.60 Z0.25 E135.91 F6641.1
G1 X86.60 Y111.60 Z0.25 E135.96 F6708.2
G1 X87.10 Y112.60 Z0.25 E136.01 F6775.3
G1 X86.60 Y113.60 Z0.25 E136.05 F6842.4
G1 X87.10 Y114.60 Z0.25 E136.10 F6909.5
G1 X86.60 Y115.60 Z0.25 E136.15 F6976.5
G1 X87.10 Y116.60 Z0.25 E136.19 F7043.6
G1 X86.60 Y117.60 Z0.25 E136.24 F7110.7
G1 X87.10 Y118.60 Z0.25 E136.29 F7177.8
G1 X86.60 Y119.60 Z0.25 E136.33 F7244.9
G1 X87.10 Y120.60 Z0.25 E136.38 F7311.9
G1 X86.60 Y121.60 Z0.25 E136.43 F7379.0
G1 X87.10 Y122.60 Z0.25 E136.47 F7446.1
G1 X86.60 Y123.60 Z0.25 E136.52 F7513.2
G1 X87.10 Y124.60 Z0.25 E136.56 F7580.3
G1 X86.60 Y125.60 Z0.25 E136.61 F7647.4
G1 X87.10 Y126.60 Z0.25 E136.66 F7714.4
G1 X86.60 Y127.60 Z0.25 E136.70 F7781.5
G1 X87.10 Y128.60 Z0.25 E136.75 F7848.6
G1 X86.60 Y129.60 Z0.25 E136.80 F7915.7
G1 X87.10 Y130.60 Z0.25 E136.84 F7982.8
G1 X86.60 Y131.60 Z0.25 E136.89 F8049.8
G1 X87.10 Y132.60 Z0.25 E136.94 F8116.9
G1 X86.60 Y133.60 Z0.25 E136.98 F8184.0
G1 X87.10 Y134.60 Z0.25 E137.03 F8251.1
G1 X86.60 Y135.60 Z0.25 E137.08 F8318.2
G1 X87.10 Y136.60 Z0.25 E137.12 F8385.3
G1 X86.60 Y137.60 Z0.25 E137.17 F8452.3
G1 X87.10 Y138.60 Z0.25 E137.22 F8519.4
G1 X86.60 Y139.60 Z0.25 E137.26 F8586.5
G1 X87.10 Y140.60 Z0.25 E137.31 F8653.6
G1 X86.60 Y141.60 Z0.25 E137.36 F8720.7
G1 X87.10 Y142.60 Z0.25 E137.40 F8787.7
G1 X86.60 Y143.60 Z0.25 E137.45 F8854.8
G1 X87.10 Y144.60 Z0.25 E137.49 F8921.9
G1 X86.60 Y145.60 Z0.25 E137.54 F8989.0
G1 X87.10 Y146.60 Z0.25 E137.59 F9056.1
G1 X86.60 Y147.60 Z0.25 E137.63 F9123.2
G1 X87.10 Y148.60 Z0.25 E137.68 F9190.2
G1 X86.60 Y149.60 Z0.25 E137.73 F9257.3
G1 X87.10 Y150.60 Z0.25 E137.77 F9324.4
G1 X86.60 Y151.60 Z0.25 E137.82 F9391.5
G1 X87.10 Y152.60 Z0.25 E137.87 F9458.6
G1 X86.60 Y153.60 Z0.25 E137.91 F9525.6
G1 X87.10 Y154.60 Z0.25 E137.96 F9592.7
G1 X86.60 Y155.60 Z0.25 E138.01 F9659.8
G1 X87.10 Y156.60 Z0.25 E138.05 F9726.9
G1 X86.60 Y157.60 Z0.25 E138.10 F9794.0
G1 X87.10 Y158.60 Z0.25 E138.15 F9861.1
G1 X86.60 Y159.60 Z0.25 E138.19 F9928.1
G1 X87.10 Y160.60 Z0.25 E138.24 F9995.2
G1 X86.60 Y161.60 Z0.25 E138.28 F10062.3
G1 X87.10 Y162.60 Z0.25 E138.33 F10129.4
G1 X86.60 Y163.60 Z0.25 E138.38 F10196.5
G1 X87.10 Y164.60 Z0.25 E138.42 F10263.6
G1 X86.60 Y165.60 Z0.25 E138.47 F10330.6
G1 X87.10 Y166.60 Z0.25 E138.52 F10397.7
G1 X86.60 Y167.60 Z0.25 E138.56 F10464.8
G1 X87.10 Y168.60 Z0.25 E138.61 F10531.9
G1 X86.60 Y169.60 Z0.25 E138.66 F10599.0
G1 X87.10 Y170.60 Z0.25 E138.70 F10666.0
G1 X86.60 Y171.60 Z0.25 E138.75 F10733.1
M201 X1000 Y1000
M205 X20 Y20
M205 J0.3
G1 X86.60 Y184.40 Z0.25 E139.28

G0 X91.60 Y184.40 Z0.25 E139.28 F5400.0
M593 X D0.80
G1 X91.60 Y171.60 Z0.25 E139.81 F10733.1
M203 X500 Y500 ; maximum feedrates
M204 P10000 ; print acceleration
M201 X10000 Y10000 ; max acceleration
M205 X500.00 Y500.00 ; jerk limits very high
M205 J0.3 ; junction deviation maximum
G1 X92.10 Y170.60 Z0.25 E139.86 F10733.1
G1 X91.60 Y169.60 Z0.25 E139.91 F10666.0
G1 X92.10 Y168.60 Z0.25 E139.95 F10599.0
G1 X91.60 Y167.60 Z0.25 E140.00 F10531.9
G1 X92.10 Y166.60 Z0.25 E140.05 F10464.8
G1 X91.60 Y165.60 Z0.25 E140.09 F10397.7
G1 X92.10 Y164.60 Z0.25 E140.14 F10330.6
G1 X91.60 Y163.60 Z0.25 E140.19 F10263.6
G1 X92.10 Y162.60 Z0.25 E140.23 F10196.5
G1 X91.60 Y161.60 Z0.25 E140.28 F10129.4
G1 X92.10 Y160.60 Z0.25 E140.33 F10062.3
